; generated by Slic3r 1.2.9 on 2017-04-17 at 17:25:54

; external perimeters extrusion width = 0.40mm
; perimeters extrusion width = 0.67mm
; infill extrusion width = 0.67mm
; solid infill extrusion width = 0.67mm
; top infill extrusion width = 0.67mm

M127
M104 S250 T0 ; set temperature
G28 ; home all axes
G1 Z5 F5000 ; lift nozzle

M73 P0
G1 Z0.350 F7800.000
G1 E-2.00000 F2400.00000
M103 ; extruder off
G1 X53.769 Y82.556 F7800.000
M101 ; extruder on
G1 E0.00000 F2400.00000
G1 X54.325 Y82.226 E0.05879 F1800.000
G1 X54.964 Y81.905 E0.12376
G1 X55.850 Y81.564 E0.21013
G1 X56.030 Y81.500 E0.22750
G1 X57.659 Y81.163 E0.37874
G1 X66.282 Y80.491 E1.16519
G1 X78.405 Y79.632 E2.27034
G1 X78.874 Y79.615 E2.31296
G1 X135.163 Y79.615 E7.43130
G1 X135.805 Y79.647 E7.48977
M101 ; extruder on
G1 X136.742 Y79.759 E7.57552 F1800.000
G1 X137.143 Y79.832 E7.61261
G1 X137.917 Y80.020 E7.68500
G1 X138.742 Y80.291 E7.76403
G1 X139.617 Y80.652 E7.85006
G1 X140.389 Y81.030 E7.92822
G1 X141.356 Y81.560 E8.02849
G1 X142.649 Y82.371 E8.16729
G1 X144.283 Y83.523 E8.34906
G1 X145.796 Y84.711 E8.52400
G1 X147.553 Y86.227 E8.73500
G1 X149.230 Y87.765 E8.94193
G1 X150.617 Y89.592 E9.15047
G1 X151.280 Y91.652 E9.34725
G1 X153.751 Y108.275 E10.87545
G1 X153.537 Y111.173 E11.13960
G1 X153.251 Y112.059 E11.22431
G1 X153.136 Y112.343 E11.25220
G1 X152.884 Y112.921 E11.30946
G1 X152.603 Y113.464 E11.36504
G1 X152.116 Y114.268 E11.45058
G1 X151.544 Y115.119 E11.54380
G1 X150.971 Y115.868 E11.62955
G1 X150.591 Y116.286 E11.68090
G1 X150.066 Y116.793 E11.74728
G1 X149.284 Y117.398 E11.83717
G1 X148.810 Y117.699 E11.88824
G1 X147.935 Y118.148 E11.97765
G1 X146.937 Y118.527 E12.07478
G1 X145.224 Y118.874 E12.23369
G1 X123.098 Y120.370 E14.25012
G1 X122.652 Y120.385 E14.29077
G1 X66.363 Y120.385 E19.40911
G1 X65.368 Y120.310 E19.49979
G1 X64.249 Y120.129 E19.60288
G1 X63.210 Y119.909 E19.69943
G1 X56.276 Y118.148 E20.34999
G1 X54.992 Y117.677 E20.47431
G1 X54.151 Y117.253 E20.56002
G1 X53.355 Y116.776 E20.64434
G1 X52.985 Y116.529 E20.68480
G1 X52.255 Y115.992 E20.76724
G1 X50.882 Y114.903 E20.92655
G1 X50.267 Y114.366 E21.00076
G1 X49.587 Y113.692 E21.08785
G1 X49.071 Y113.102 E21.15916
G1 X48.335 Y112.145 E21.26887
G1 X47.460 Y110.533 E21.43569
G1 X47.158 Y109.695 E21.51664
G1 X46.982 Y109.129 E21.57057
G1 X46.865 Y108.704 E21.61067
G1 X46.679 Y107.885 E21.68705
G1 X46.391 Y106.311 E21.83249
G1 X46.203 Y104.743 E21.97611
G1 X46.238 Y103.258 E22.11123
G1 X46.329 Y102.671 E22.16523
G1 X46.446 Y102.098 E22.21833
G1 X49.722 Y88.983 E23.44760
G1 X50.040 Y87.942 E23.54650
G1 X50.413 Y86.947 E23.64319
G1 X50.779 Y86.103 E23.72680
G1 X51.097 Y85.474 E23.79088
G1 X51.610 Y84.653 E23.87896
G1 X51.915 Y84.252 E23.92472
G1 X52.515 Y83.576 E24.00690
G1 X52.994 Y83.141 E24.06575
G1 X53.721 Y82.592 E24.14861
G1 E22.14861 F2400.00000
M103 ; extruder off
G1 X95.882 Y101.816 F7800.000
M101 ; extruder on
G1 E24.14861 F2400.00000
G1 X94.397 Y99.274 E24.41634 F1800.000
G1 X93.802 Y98.156 E24.53149
G1 X93.269 Y97.010 E24.64636
G1 X92.778 Y95.852 E24.76082
G1 X92.467 Y95.025 E24.84113
G1 X92.194 Y94.160 E24.92363
G1 X92.008 Y93.270 E25.00628
G1 X91.878 Y92.281 E25.09701
G1 X91.959 Y91.614 E25.15809
G1 X92.062 Y91.051 E25.21012
G1 X92.150 Y90.737 E25.23974
G1 X92.268 Y90.429 E25.26972
G1 X92.431 Y90.120 E25.30150
G1 X92.652 Y89.823 E25.33520
G1 X92.926 Y89.565 E25.36943
G1 X93.225 Y89.365 E25.40215
G1 X93.528 Y89.216 E25.43282
G1 X93.839 Y89.101 E25.46299
G1 X94.395 Y88.958 E25.51518
G1 X95.118 Y88.821 E25.58211
G1 X96.000 Y89.027 E25.66449
G1 X96.690 Y89.223 E25.72967
G1 X97.386 Y89.477 E25.79702
G1 X98.067 Y89.815 E25.86616
G1 X98.681 Y90.201 E25.93213
G1 X99.264 Y90.630 E25.99797
G1 X100.335 Y91.524 E26.12480
G1 X101.778 Y92.896 E26.30585
G1 X102.482 Y93.617 E26.39753
G1 X103.167 Y94.386 E26.49110
G1 X103.790 Y95.166 E26.58193
G1 X104.384 Y95.980 E26.67354
G1 X105.512 Y97.649 E26.85674
G1 X106.361 Y99.165 E27.01471
G1 X106.753 Y99.970 E27.09607
G1 X107.093 Y100.815 E27.17893
G1 X107.353 Y101.681 E27.26116
G1 X107.539 Y102.566 E27.34336
G1 X107.787 Y104.363 E27.50835
G1 X107.716 Y105.202 E27.58491
G1 X107.605 Y105.670 E27.62860
G1 X107.370 Y106.156 E27.67768
G1 X106.975 Y106.566 E27.72946
G1 X106.512 Y106.828 E27.77781
G1 X105.591 Y107.121 E27.86573
G1 X104.549 Y106.965 E27.96150
G1 X104.092 Y106.865 E28.00411
G1 X103.628 Y106.726 E28.04813
G1 X102.814 Y106.381 E28.12851
G1 X102.034 Y105.977 E28.20841
G1 X100.977 Y105.299 E28.32255
G1 X100.456 Y104.936 E28.38032
G1 X99.946 Y104.547 E28.43861
G1 X98.992 Y103.709 E28.55409
G1 X98.086 Y102.826 E28.66914
G1 X96.883 Y101.373 E28.84066
G1 X95.937 Y101.792 E28.93473
G1 X96.140 Y101.018 F7800.000
M101 ; extruder on
G1 X94.943 Y98.969 E29.15054 F1800.000
G1 X94.361 Y97.877 E29.26303
G1 X93.840 Y96.757 E29.37540
G1 X93.358 Y95.620 E29.48770
G1 X93.058 Y94.821 E29.56530
G1 X92.799 Y94.001 E29.64344
G1 X92.624 Y93.165 E29.72110
G1 X92.508 Y92.277 E29.80252
G1 X92.577 Y91.708 E29.85471
G1 X92.671 Y91.192 E29.90240
G1 X92.744 Y90.934 E29.92677
G1 X92.838 Y90.688 E29.95068
G1 X92.961 Y90.455 E29.97471
G1 X93.121 Y90.240 E29.99905
G1 X93.317 Y90.055 E30.02351
G1 X93.538 Y89.907 E30.04771
G1 X93.774 Y89.791 E30.07169
G1 X94.026 Y89.698 E30.09606
G1 X94.531 Y89.568 E30.14347
G1 X95.104 Y89.460 E30.19653
G1 X95.844 Y89.633 E30.26562
G1 X96.497 Y89.817 E30.32735
G1 X97.139 Y90.052 E30.38944
G1 X97.761 Y90.361 E30.45263
G1 X98.330 Y90.718 E30.51365
G1 X98.879 Y91.122 E30.57565
G1 X99.919 Y91.990 E30.69891
G1 X101.339 Y93.341 E30.87706
G1 X102.025 Y94.044 E30.96637
G1 X102.689 Y94.789 E31.05712
G1 X103.293 Y95.546 E31.14521
G1 X103.873 Y96.339 E31.23455
G1 X104.980 Y97.978 E31.41433
G1 X105.807 Y99.455 E31.56830
G1 X106.181 Y100.224 E31.64603
G1 X106.503 Y101.022 E31.72430
G1 X106.747 Y101.835 E31.80153
G1 X106.923 Y102.673 E31.87932
G1 X107.158 Y104.380 E32.03603
G1 X107.097 Y105.103 E32.10202
G1 X107.012 Y105.459 E32.13530
G1 X106.851 Y105.795 E32.16916
G1 X106.589 Y106.067 E32.20352
G1 X106.261 Y106.252 E32.23770
G1 X105.540 Y106.481 E32.30654
G1 X104.662 Y106.350 E32.38725
G1 X104.248 Y106.260 E32.42579
G1 X103.840 Y106.137 E32.46451
G1 X103.080 Y105.815 E32.53958
G1 X102.347 Y105.435 E32.61465
G1 X101.324 Y104.779 E32.72513
G1 X100.824 Y104.431 E32.78058
G1 X100.337 Y104.060 E32.83619
G1 X99.421 Y103.254 E32.94715
G1 X98.546 Y102.402 E33.05825
G1 X97.063 Y100.610 E33.26976
G1 X96.195 Y100.994 E33.35605
G1 X95.787 Y101.207 F7800.000
G1 X95.624 Y102.614 F7800.000
M101 ; extruder on
G1 X96.703 Y102.136 E33.46334 F1800.000
G1 X97.626 Y103.250 E33.59488
G1 X98.563 Y104.164 E33.71388
G1 X99.045 Y104.604 E33.77330
G1 X99.554 Y105.035 E33.83390
G1 X100.088 Y105.441 E33.89488
G1 X100.630 Y105.819 E33.95496
G1 X101.721 Y106.518 E34.07277
G1 X102.548 Y106.947 E34.15749
G1 X103.415 Y107.314 E34.24317
G1 X103.935 Y107.471 E34.29251
G1 X104.437 Y107.580 E34.33917
G1 X105.431 Y107.729 E34.43057
G1 X105.484 Y110.010 E34.63809
G1 X107.098 Y110.269 E34.78673
G1 X106.913 Y110.602 E34.82133
G1 X106.580 Y111.127 E34.87788
G1 X106.226 Y111.397 E34.91835
G1 X106.046 Y111.465 E34.93588
G1 X105.890 Y111.492 E34.95026
G1 X105.493 Y111.525 E34.98647
G1 X104.550 Y111.373 E35.07334
G1 X104.085 Y111.266 E35.11673
G1 X103.634 Y111.122 E35.15974
G1 X103.195 Y110.941 E35.20291
G1 X102.734 Y110.718 E35.24945
G1 X101.758 Y110.183 E35.35071
G1 X100.393 Y109.301 E35.49854
G1 X99.735 Y108.847 E35.57122
G1 X99.102 Y108.375 E35.64295
G1 X98.488 Y107.875 E35.71492
G1 X97.882 Y107.347 E35.78807
G1 X96.684 Y106.243 E35.93620
G1 X95.492 Y104.967 E36.09496
G1 X94.932 Y104.324 E36.17249
G1 X94.409 Y103.670 E36.24864
G1 X93.921 Y102.990 E36.32474
G1 X93.454 Y102.278 E36.40215
G1 X92.558 Y100.800 E36.55936
G1 X91.903 Y99.392 E36.70055
G1 X91.629 Y98.702 E36.76802
G1 X91.411 Y98.024 E36.83283
G1 X91.255 Y97.333 E36.89724
G1 X91.145 Y96.607 E36.96398
G1 X91.007 Y95.073 E37.10408
G1 X91.047 Y94.126 E37.19025
G1 X91.098 Y93.536 E37.24404
G1 X91.421 Y93.517 E37.27349
G1 X91.588 Y94.318 E37.34791
G1 X91.876 Y95.229 E37.43477
G1 X92.197 Y96.084 E37.51778
G1 X92.698 Y97.264 E37.63440
G1 X93.243 Y98.435 E37.75178
G1 X93.852 Y99.578 E37.86958
G1 X95.594 Y102.562 E38.18377
G1 E36.18377 F2400.00000
M103 ; extruder off
G1 X105.595 Y96.656 F7800.000
M101 ; extruder on
G1 E38.18377 F2400.00000
G1 X104.895 Y95.621 E38.29737 F1800.000
G1 X104.287 Y94.787 E38.39124
G1 X103.644 Y93.983 E38.48482
G1 X102.940 Y93.191 E38.58121
G1 X102.217 Y92.451 E38.67525
G1 X100.834 Y91.136 E38.84883
G1 X101.057 Y90.866 E38.88062
G1 X101.616 Y91.266 E38.94313
G1 X102.151 Y91.696 E39.00555
G1 X102.655 Y92.162 E39.06797
G1 X103.147 Y92.670 E39.13230
G1 X104.122 Y93.779 E39.26654
G1 X104.753 Y94.649 E39.36430
G1 X105.369 Y95.562 E39.46447
G1 X105.903 Y96.461 E39.55951
G1 X105.646 Y96.624 E39.58715
G1 E37.58715 F2400.00000
M103 ; extruder off
G1 X114.534 Y89.555 F7800.000
M101 ; extruder on
G1 E39.58715 F2400.00000
G1 X115.202 Y90.546 E39.69578 F1800.000
G1 X115.986 Y91.808 E39.83088
G1 X117.458 Y94.060 E40.07558
G1 X118.980 Y96.309 E40.32247
G1 X120.539 Y98.480 E40.56555
G1 X122.147 Y100.641 E40.81044
G1 X122.639 Y101.267 E40.88284
G1 X121.076 Y102.320 E41.05414
G1 X119.522 Y99.815 E41.32221
G1 X118.035 Y97.598 E41.56496
G1 X115.946 Y94.665 E41.89236
G1 X113.896 Y91.897 E42.20563
G1 X113.853 Y91.816 E42.21389
G1 X113.893 Y91.478 E42.24491
G1 X113.990 Y90.989 E42.29017
G1 X114.149 Y90.493 E42.33751
G1 X114.510 Y89.610 E42.42431
G1 E40.42431 F2400.00000
M103 ; extruder off
G1 X113.528 Y107.941 F7800.000
M101 ; extruder on
G1 E42.42431 F2400.00000
G1 X112.791 Y108.871 E42.53222 F1800.000
G1 X112.049 Y108.244 E42.62047
G1 X111.862 Y108.051 E42.64496
G1 X111.375 Y107.436 E42.71628
G1 X111.233 Y107.048 E42.75391
G1 X110.615 Y104.778 E42.96781
G1 X111.108 Y104.989 E43.01660
G1 X111.558 Y105.219 E43.06253
G1 X113.354 Y106.218 E43.24941
G1 X116.986 Y108.371 E43.63333
G1 X119.363 Y109.690 E43.88049
G1 X119.964 Y109.973 E43.94094
G1 X120.607 Y110.193 E44.00273
G1 X121.588 Y110.430 E44.09454
G1 X122.345 Y110.226 E44.16581
G1 X122.896 Y109.910 E44.22354
G1 X123.556 Y109.057 E44.32162
G1 X123.610 Y109.680 E44.37846
G1 X123.541 Y110.029 E44.41080
G1 X123.372 Y110.531 E44.45898
G1 X123.036 Y111.331 E44.53786
G1 X122.578 Y112.127 E44.62140
G1 X121.928 Y112.022 E44.68129
G1 X121.102 Y111.824 E44.75852
G1 X120.212 Y111.519 E44.84405
G1 X119.309 Y111.159 E44.93246
G1 X117.877 Y110.510 E45.07545
G1 X117.184 Y110.172 E45.14548
G1 X116.513 Y109.815 E45.21462
G1 X115.860 Y109.433 E45.28343
G1 X113.579 Y107.973 E45.52972
G1 X113.667 Y108.771 F7800.000
M101 ; extruder on
G1 X112.895 Y109.746 E45.64278 F1800.000
G1 X112.150 Y109.162 E45.72876
G1 X111.619 Y108.698 E45.79293
G1 X111.399 Y108.472 E45.82161
G1 X110.820 Y107.739 E45.90659
G1 X110.637 Y107.237 E45.95514
G1 X109.877 Y104.448 E46.21799
G1 X108.499 Y106.625 E46.45226
G1 X108.315 Y106.842 E46.47817
G1 X108.076 Y107.051 E46.50700
G1 X107.831 Y107.234 E46.53484
G1 X107.252 Y107.502 E46.59287
G1 X107.074 Y107.558 E46.60984
G1 X106.057 Y107.770 E46.70431
G1 X106.096 Y109.476 E46.85945
G1 X107.454 Y109.693 E46.98446
G1 X107.984 Y109.741 E47.03287
G1 X107.805 Y110.230 E47.08020
G1 X107.642 Y110.576 E47.11506
G1 X107.451 Y110.921 E47.15087
G1 X107.054 Y111.548 E47.21839
G1 X106.704 Y111.832 E47.25934
G1 X106.531 Y111.944 E47.27805
G1 X106.370 Y112.020 E47.29427
G1 X106.190 Y112.074 E47.31136
G1 X105.970 Y112.112 E47.33166
G1 X105.469 Y112.153 E47.37737
G1 X104.430 Y111.987 E47.47305
G1 X103.919 Y111.869 E47.52069
G1 X103.420 Y111.710 E47.56834
G1 X102.940 Y111.512 E47.61556
G1 X102.448 Y111.274 E47.66526
G1 X101.438 Y110.720 E47.77001
G1 X100.045 Y109.820 E47.92075
G1 X99.370 Y109.354 E47.99534
G1 X98.718 Y108.868 E48.06932
G1 X98.086 Y108.353 E48.14346
G1 X97.465 Y107.812 E48.21835
G1 X96.244 Y106.686 E48.36939
G1 X95.028 Y105.385 E48.53126
G1 X94.453 Y104.724 E48.61098
G1 X93.911 Y104.048 E48.68978
G1 X93.406 Y103.344 E48.76856
G1 X92.925 Y102.612 E48.84818
G1 X92.006 Y101.094 E49.00953
G1 X91.329 Y99.639 E49.15544
G1 X91.040 Y98.914 E49.22647
G1 X90.808 Y98.188 E49.29570
G1 X90.640 Y97.449 E49.36466
G1 X90.524 Y96.682 E49.43519
G1 X90.380 Y95.087 E49.58077
G1 X90.423 Y94.086 E49.67194
G1 X90.466 Y93.593 E49.71694
G1 X90.532 Y93.116 E49.76071
G1 X90.630 Y92.648 E49.80416
G1 X90.757 Y92.177 E49.84857
G1 X91.062 Y91.233 E49.93875
G1 X91.412 Y90.523 E50.01072
G1 X91.598 Y90.198 E50.04476
G1 X91.797 Y89.905 E50.07696
G1 X92.021 Y89.636 E50.10880
G1 X92.278 Y89.374 E50.14221
G1 X92.844 Y88.872 E50.21096
G1 X93.461 Y88.521 E50.27549
G1 X93.766 Y88.377 E50.30622
G1 X94.064 Y88.268 E50.33504
G1 X94.374 Y88.191 E50.36404
G1 X94.711 Y88.139 E50.39510
G1 X95.425 Y88.079 E50.46028
G1 X96.657 Y88.223 E50.57300
G1 X97.256 Y88.332 E50.62835
G1 X97.830 Y88.484 E50.68241
G1 X98.396 Y88.687 E50.73708
G1 X98.966 Y88.935 E50.79356
G1 X100.121 Y89.516 E50.91112
G1 X101.392 Y90.337 E51.04872
G1 X101.994 Y90.767 E51.11598
G1 X102.559 Y91.222 E51.18198
G1 X103.092 Y91.715 E51.24797
G1 X103.606 Y92.247 E51.31523
G1 X104.610 Y93.388 E51.45345
G1 X105.265 Y94.290 E51.55486
G1 X105.898 Y95.228 E51.65766
G1 X106.474 Y96.200 E51.76045
G1 X107.018 Y97.194 E51.86349
G1 X107.478 Y98.162 E51.96091
G1 X107.901 Y99.142 E52.05795
G1 X108.263 Y100.144 E52.15490
G1 X108.588 Y101.161 E52.25191
G1 X108.847 Y102.195 E52.34885
G1 X108.950 Y102.697 E52.39545
G1 X109.180 Y104.208 E52.53443
G1 X110.134 Y104.043 E52.62240
G1 X110.735 Y104.169 E52.67824
G1 X110.912 Y104.225 E52.69517
G1 X111.374 Y104.422 E52.74080
G1 X111.852 Y104.667 E52.78969
G1 X113.665 Y105.676 E52.97833
G1 X117.297 Y107.829 E53.36222
G1 X119.648 Y109.133 E53.60667
G1 X120.199 Y109.393 E53.66212
G1 X120.782 Y109.593 E53.71813
G1 X121.580 Y109.785 E53.79277
G1 X122.104 Y109.644 E53.84215
G1 X122.477 Y109.430 E53.88127
G1 X122.739 Y109.092 E53.92017
G1 X122.860 Y108.730 E53.95485
G1 X122.906 Y108.334 E53.99105
G1 X122.809 Y107.645 E54.05437
G1 X122.670 Y107.030 E54.11168
G1 X122.474 Y106.460 E54.16650
G1 X122.253 Y105.917 E54.21984
G1 X121.829 Y105.011 E54.31077
G1 X121.381 Y104.121 E54.40138
G1 X120.898 Y103.251 E54.49187
G1 X120.397 Y102.397 E54.58184
G1 X118.997 Y100.155 E54.82224
G1 X117.521 Y97.954 E55.06326
G1 X115.440 Y95.032 E55.38934
G1 X113.365 Y92.230 E55.70642
G1 X113.238 Y91.988 E55.73129
G1 X113.217 Y91.880 E55.74128
G1 X113.275 Y91.380 E55.78709
G1 X113.384 Y90.833 E55.83782
G1 X113.559 Y90.285 E55.89010
G1 X113.780 Y89.715 E55.94569
G1 X113.999 Y89.221 E55.99480
G1 X114.161 Y88.972 E56.02183
G1 X114.317 Y88.864 E56.03911
G1 X114.564 Y88.771 E56.06306
G1 X114.705 Y88.803 E56.07625
G1 X114.777 Y88.866 E56.08490
G1 X114.946 Y89.047 E56.10746
G1 X115.727 Y90.206 E56.23450
G1 X116.513 Y91.472 E56.37000
G1 X117.979 Y93.714 E56.61359
G1 X119.493 Y95.951 E56.85923
G1 X121.044 Y98.112 E57.10104
G1 X122.644 Y100.261 E57.34472
G1 X123.820 Y101.761 E57.51804
G1 X125.023 Y103.227 E57.69046
G1 X126.309 Y104.668 E57.86613
G1 X126.845 Y105.227 E57.93656
G1 X126.596 Y105.487 E57.96931
G1 X126.235 Y105.167 E58.01315
G1 X125.121 Y104.083 E58.15445
G1 X124.125 Y103.028 E58.28636
G1 X123.023 Y101.762 E58.43903
G1 X121.522 Y102.774 E58.60363
G1 X122.461 Y104.629 E58.79275
G1 X123.160 Y106.142 E58.94429
G1 X123.795 Y107.697 E59.09699
G1 X123.976 Y108.231 E59.14827
G1 X124.118 Y108.748 E59.19704
G1 X124.202 Y109.271 E59.24515
G1 X124.241 Y109.715 E59.28569
G1 X124.146 Y110.190 E59.32979
G1 X123.957 Y110.752 E59.38365
G1 X123.597 Y111.609 E59.46814
G1 X123.153 Y112.382 E59.54925
G1 X122.912 Y112.672 E59.58351
G1 X122.793 Y112.734 E59.59574
G1 X122.628 Y112.768 E59.61103
G1 X121.813 Y112.637 E59.68610
G1 X121.359 Y112.540 E59.72831
G1 X120.919 Y112.422 E59.76971
G1 X119.995 Y112.105 E59.85854
G1 X119.064 Y111.735 E59.94965
G1 X117.610 Y111.076 E60.09479
G1 X116.901 Y110.729 E60.16662
G1 X116.208 Y110.361 E60.23790
G1 X115.534 Y109.966 E60.30899
G1 X113.718 Y108.804 E60.50506
G1 E58.50506 F2400.00000
M103 ; extruder off
G1 X132.204 Y105.958 F7800.000
M101 ; extruder on
G1 E60.50506 F2400.00000
G1 X132.507 Y105.844 E60.53448 F1800.000
G1 X132.790 Y106.354 E60.58753
