; generated by Slic3r 1.2.9 on 2017-04-17 at 17:40:07

; external perimeters extrusion width = 0.40mm
; perimeters extrusion width = 0.67mm
; infill extrusion width = 0.67mm
; solid infill extrusion width = 0.67mm
; top infill extrusion width = 0.67mm

M127
M104 S250 T0 ; set temperature
G28 ; home all axes
G1 Z5 F5000 ; lift nozzle

M73 P0
G1 Z0.350 F7800.000
G1 E-2.00000 F2400.00000
M103 ; extruder off
G1 X42.915 Y36.281 F7800.000
M101 ; extruder on
G1 E0.00000 F2400.00000
G1 X44.668 Y34.801 E0.20854 F1800.000
G1 X46.820 Y34.009 E0.41708
G1 X48.000 Y33.903 E0.52479
G1 X152.000 Y33.903 E9.98147
G1 X154.259 Y34.300 E10.19001
M101 ; extruder on
G1 X156.247 Y35.443 E10.39855 F1800.000
G1 X157.726 Y37.196 E10.60710
G1 X158.519 Y39.348 E10.81564
G1 X158.625 Y40.527 E10.92335
G1 X158.625 Y144.528 E20.38002
G1 X158.228 Y146.786 E20.58857
G1 X157.085 Y148.774 E20.79711
G1 X155.332 Y150.254 E21.00565
G1 X153.884 Y150.879 E21.14902
G1 X104.974 Y165.390 E25.78800
G1 X104.465 Y165.519 E25.83574
G1 X102.420 Y165.953 E26.02584
G1 X101.045 Y166.097 E26.15159
G1 X98.955 Y166.097 E26.34163
G1 X97.580 Y165.953 E26.46738
G1 X95.535 Y165.519 E26.65747
G1 X95.026 Y165.390 E26.70522
G1 X46.116 Y150.879 E31.34420
G1 X44.063 Y149.856 E31.55274
G1 X42.482 Y148.194 E31.76128
G1 X41.563 Y146.093 E31.96982
G1 X41.375 Y144.528 E32.11319
G1 X41.375 Y40.527 E41.56987
G1 X41.772 Y38.269 E41.77841
G1 X42.886 Y36.333 E41.98150
G1 E39.98150 F2400.00000
M103 ; extruder off
G1 X100.000 Y142.259 F7800.000
M101 ; extruder on
G1 E41.98150 F2400.00000
G1 X102.781 Y142.813 E42.23930 F1800.000
G1 X105.140 Y144.387 E42.49723
G1 X106.715 Y146.747 E42.75517
G1 X107.268 Y149.528 E43.01297
G1 X106.715 Y152.308 E43.27077
G1 X105.140 Y154.668 E43.52870
G1 X102.781 Y156.242 E43.78663
G1 X100.000 Y156.796 E44.04443
G1 X97.219 Y156.242 E44.30223
G1 X94.860 Y154.668 E44.56017
G1 X93.285 Y152.308 E44.81810
G1 X92.732 Y149.528 E45.07590
G1 X93.285 Y146.747 E45.33370
G1 X94.860 Y144.387 E45.59163
G1 X97.219 Y142.813 E45.84956
G1 X99.446 Y142.370 E46.05599
M101 ; extruder on
G1 X99.941 Y142.271 E46.10191 F1800.000
G1 X100.000 Y142.896 F7800.000
M101 ; extruder on
G1 X102.537 Y143.402 E46.33711 F1800.000
G1 X104.690 Y144.838 E46.57243
G1 X106.126 Y146.991 E46.80775
G1 X106.631 Y149.528 E47.04295
G1 X106.126 Y152.064 E47.27816
G1 X104.690 Y154.217 E47.51348
G1 X102.537 Y155.653 E47.74879
G1 X100.000 Y156.159 E47.98400
G1 X97.463 Y155.653 E48.21921
G1 X95.310 Y154.217 E48.45453
G1 X93.874 Y152.064 E48.68984
G1 X93.369 Y149.528 E48.92505
G1 X93.874 Y146.991 E49.16025
G1 X95.310 Y144.838 E49.39557
G1 X97.463 Y143.402 E49.63089
G1 X99.568 Y142.982 E49.82604
M101 ; extruder on
G1 X99.941 Y142.908 E49.86064 F1800.000
G1 X100.000 Y143.533 F7800.000
M101 ; extruder on
G1 X102.293 Y143.990 E50.07325 F1800.000
G1 X104.239 Y145.289 E50.28595
G1 X105.537 Y147.234 E50.49865
G1 X105.994 Y149.528 E50.71127
G1 X105.537 Y151.821 E50.92388
G1 X104.239 Y153.766 E51.13658
G1 X102.293 Y155.065 E51.34928
G1 X100.000 Y155.522 E51.56189
G1 X97.707 Y155.065 E51.77451
G1 X95.761 Y153.766 E51.98721
G1 X94.463 Y151.821 E52.19991
G1 X94.006 Y149.528 E52.41252
G1 X94.463 Y147.234 E52.62513
G1 X95.761 Y145.289 E52.83783
G1 X97.707 Y143.990 E53.05054
G1 X99.690 Y143.595 E53.23441
M101 ; extruder on
G1 X99.941 Y143.545 E53.25769 F1800.000
G1 X100.000 Y144.171 F7800.000
M101 ; extruder on
G1 X102.049 Y144.579 E53.44771 F1800.000
G1 X103.788 Y145.739 E53.63780
G1 X104.949 Y147.478 E53.82788
G1 X105.357 Y149.528 E54.01790
G1 X104.949 Y151.577 E54.20792
G1 X103.788 Y153.316 E54.39800
G1 X102.049 Y154.476 E54.58809
G1 X100.000 Y154.884 E54.77811
G1 X97.951 Y154.476 E54.96813
G1 X96.212 Y153.316 E55.15821
G1 X95.051 Y151.577 E55.34830
G1 X94.643 Y149.528 E55.53832
G1 X95.051 Y147.478 E55.72834
G1 X96.212 Y145.739 E55.91842
G1 X97.951 Y144.579 E56.10851
G1 X99.812 Y144.208 E56.28110
M101 ; extruder on
G1 X99.941 Y144.182 E56.29307 F1800.000
G1 X100.222 Y143.838 F7800.000
G1 E54.29307 F2400.00000
M103 ; extruder off
G1 X95.254 Y142.303 F7800.000
M101 ; extruder on
G1 E56.29307 F2400.00000
G1 X50.225 Y142.303 E60.38756 F1800.000
G1 X50.225 Y42.752 E69.43966
G1 X149.775 Y42.752 E78.49176
G1 X149.775 Y142.303 E87.54386
G1 X104.746 Y142.303 E91.63834
G1 X107.091 Y146.370 E92.06523
G1 X107.593 Y147.914 E92.21286
G1 X107.763 Y149.527 E92.36040
G1 X107.593 Y151.141 E92.50793
G1 X107.091 Y152.685 E92.65553
G1 X106.280 Y154.091 E92.80311
G1 X105.194 Y155.296 E92.95064
G1 X103.881 Y156.251 E93.09825
G1 X102.399 Y156.911 E93.24582
G1 X100.812 Y157.248 E93.39336
G1 X99.188 Y157.248 E93.54094
G1 X97.601 Y156.911 E93.68849
G1 X96.119 Y156.251 E93.83605
G1 X94.806 Y155.296 E93.98366
G1 X93.720 Y154.091 E94.13119
G1 X92.909 Y152.685 E94.27877
G1 X92.407 Y151.141 E94.42637
G1 X92.237 Y149.527 E94.57391
G1 X92.407 Y147.914 E94.72145
G1 X92.909 Y146.370 E94.86908
G1 X95.224 Y142.355 E95.29050
G1 X94.172 Y142.928 F7800.000
M101 ; extruder on
G1 X49.600 Y142.928 E99.34346 F1800.000
G1 X49.600 Y42.127 E108.50920
G1 X150.400 Y42.127 E117.67494
G1 X150.400 Y142.928 E126.84068
G1 X105.828 Y142.928 E130.89363
G1 X107.665 Y146.114 E131.22812
G1 X108.208 Y147.783 E131.38767
G1 X108.391 Y149.527 E131.54716
G1 X108.208 Y151.272 E131.70665
G1 X107.665 Y152.940 E131.86618
G1 X106.789 Y154.460 E132.02571
G1 X105.615 Y155.763 E132.18518
G1 X104.195 Y156.795 E132.34473
G1 X102.593 Y157.509 E132.50425
G1 X100.877 Y157.873 E132.66374
G1 X99.123 Y157.873 E132.82325
G1 X97.407 Y157.509 E132.98275
G1 X95.805 Y156.795 E133.14227
G1 X94.385 Y155.763 E133.30181
G1 X93.211 Y154.460 E133.46129
G1 X92.335 Y152.940 E133.62081
G1 X91.792 Y151.272 E133.78034
G1 X91.609 Y149.527 E133.93983
G1 X91.792 Y147.783 E134.09932
G1 X92.335 Y146.114 E134.25888
G1 X94.142 Y142.980 E134.58790
G1 X93.091 Y143.553 F7800.000
M101 ; extruder on
G1 X48.975 Y143.553 E138.59932 F1800.000
G1 X48.975 Y41.502 E147.87870
G1 X151.025 Y41.502 E157.15809
G1 X151.025 Y143.553 E166.43747
G1 X106.909 Y143.553 E170.44889
G1 X108.239 Y145.859 E170.69097
G1 X108.822 Y147.652 E170.86244
G1 X109.020 Y149.527 E171.03389
G1 X108.822 Y151.403 E171.20533
G1 X108.239 Y153.196 E171.37679
G1 X107.297 Y154.829 E171.54827
G1 X106.035 Y156.230 E171.71969
G1 X104.510 Y157.339 E171.89116
G1 X102.787 Y158.106 E172.06264
G1 X100.943 Y158.498 E172.23409
G1 X99.057 Y158.498 E172.40552
G1 X97.213 Y158.106 E172.57697
G1 X95.490 Y157.339 E172.74845
G1 X93.965 Y156.230 E172.91992
G1 X92.703 Y154.829 E173.09135
G1 X91.761 Y153.196 E173.26282
G1 X91.178 Y151.403 E173.43428
G1 X90.980 Y149.527 E173.60573
G1 X91.178 Y147.652 E173.77717
G1 X91.761 Y145.859 E173.94864
G1 X93.061 Y143.605 E174.18527
G1 X92.009 Y144.177 F7800.000
M101 ; extruder on
G1 X48.350 Y144.177 E178.15515 F1800.000
G1 X48.350 Y40.877 E187.54818
G1 X151.650 Y40.877 E196.94120
G1 X151.650 Y144.177 E206.33423
G1 X107.991 Y144.177 E210.30411
G1 X108.813 Y145.604 E210.45379
G1 X109.437 Y147.522 E210.63719
G1 X109.648 Y149.527 E210.82058
G1 X109.437 Y151.533 E211.00398
G1 X108.813 Y153.451 E211.18737
G1 X107.805 Y155.199 E211.37079
G1 X106.456 Y156.697 E211.55417
G1 X104.824 Y157.883 E211.73757
G1 X102.981 Y158.704 E211.92100
G1 X101.008 Y159.123 E212.10440
G1 X98.992 Y159.123 E212.28776
G1 X97.019 Y158.704 E212.47116
G1 X95.176 Y157.883 E212.65460
G1 X93.544 Y156.697 E212.83800
G1 X92.195 Y155.199 E213.02137
G1 X91.187 Y153.451 E213.20480
G1 X90.563 Y151.533 E213.38819
G1 X90.352 Y149.527 E213.57158
G1 X90.563 Y147.522 E213.75498
G1 X91.187 Y145.604 E213.93837
G1 X91.979 Y144.229 E214.08260
G1 X92.078 Y143.784 F7800.000
G1 X94.284 Y144.651 F7800.000
M101 ; extruder on
G1 X94.611 Y144.127 E214.13882 F1800.000
G1 X95.644 Y143.024 E214.27622
G1 X104.356 Y143.024 F7800.000
M101 ; extruder on
G1 X105.389 Y144.127 E214.41363 F1800.000
G1 X105.716 Y144.651 E214.46985
G1 E212.46985 F2400.00000
M103 ; extruder off
G1 X95.641 Y142.293 F7800.000
M101 ; extruder on
G1 E214.46985 F2400.00000
G1 X96.216 Y142.867 E214.54405 F1800.000
G1 X96.881 Y142.646 E214.60809
G1 X50.603 Y96.368 E220.58307
G1 X50.603 Y95.481 E220.66408
G1 X97.515 Y142.392 E226.72087
G1 X98.255 Y142.245 E226.78975
G1 X50.603 Y94.593 E232.94207
G1 X50.603 Y93.706 E233.02308
G1 X98.994 Y142.097 E239.27094
G1 X99.734 Y141.950 E239.33981
G1 X50.603 Y92.819 E245.68320
G1 X50.603 Y91.931 E245.76421
G1 X100.644 Y141.972 E252.22507
G1 X101.752 Y142.193 E252.32821
G1 X50.603 Y91.044 E258.93213
G1 X50.603 Y90.157 E259.01313
G1 X102.860 Y142.414 E265.76010
G1 X104.128 Y142.794 E265.88092
G1 X50.603 Y89.270 E272.79155
G1 X50.603 Y88.382 E272.87256
G1 X104.145 Y141.924 E279.78544
G1 X105.033 Y141.924 E279.86644
G1 X50.603 Y87.495 E286.89388
G1 X50.603 Y86.608 E286.97488
G1 X105.920 Y141.924 E294.11688
G1 X106.807 Y141.924 E294.19788
G1 X50.603 Y85.720 E301.45444
G1 X50.603 Y84.833 E301.53544
G1 X107.694 Y141.924 E308.90656
G1 X108.582 Y141.924 E308.98756
G1 X50.603 Y83.946 E316.47323
G1 X50.603 Y83.059 E316.55424
G1 X109.469 Y141.924 E324.15447
G1 X110.356 Y141.924 E324.23547
G1 X50.603 Y82.171 E331.95026
G1 X50.603 Y81.284 E332.03127
G1 X111.244 Y141.924 E339.86061
G1 X112.131 Y141.924 E339.94162
G1 X50.603 Y80.397 E347.88552
G1 X50.603 Y79.509 E347.96653
G1 X113.018 Y141.924 E356.02499
G1 X113.905 Y141.924 E356.10599
G1 X50.603 Y78.622 E364.27902
G1 X50.603 Y77.735 E364.36002
G1 X114.793 Y141.924 E372.64760
G1 X115.680 Y141.924 E372.72861
G1 X50.603 Y76.848 E381.13074
G1 X50.603 Y75.960 E381.21175
G1 X116.567 Y141.924 E389.72844
G1 X117.454 Y141.924 E389.80945
G1 X50.603 Y75.073 E398.44070
G1 X50.603 Y74.186 E398.52171
G1 X118.342 Y141.924 E407.26752
G1 X119.229 Y141.924 E407.34853
G1 X50.603 Y73.298 E416.20890
G1 X50.603 Y72.411 E416.28990
G1 X120.116 Y141.924 E425.26483
G1 X121.004 Y141.924 E425.34584
G1 X50.603 Y71.524 E434.43533
G1 X50.603 Y70.637 E434.51633
G1 X121.891 Y141.924 E443.72038
G1 X122.778 Y141.924 E443.80138
G1 X50.603 Y69.749 E453.11999
G1 X50.603 Y68.862 E453.20099
G1 X123.665 Y141.924 E462.63415
G1 X124.553 Y141.924 E462.71516
G1 X50.603 Y67.975 E472.26288
G1 X50.603 Y67.087 E472.34389
G1 X125.440 Y141.924 E482.00617
G1 X126.327 Y141.924 E482.08717
G1 X50.603 Y66.200 E491.86401
G1 X50.603 Y65.313 E491.94501
G1 X127.215 Y141.924 E501.83641
G1 X128.102 Y141.924 E501.91742
G1 X50.603 Y64.426 E511.92337
G1 X50.603 Y63.538 E512.00438
G1 X128.989 Y141.924 E522.12489
G1 X129.876 Y141.924 E522.20589
G1 X50.603 Y62.651 E532.44096
G1 X50.603 Y61.764 E532.52197
G1 X130.764 Y141.924 E542.87160
G1 X131.651 Y141.924 E542.95260
G1 X50.603 Y60.876 E553.41679
G1 X50.603 Y59.989 E553.49780
G1 X132.538 Y141.924 E564.07654
G1 X133.426 Y141.924 E564.15755
G1 X50.603 Y59.102 E574.85085
G1 X50.603 Y58.215 E574.93186
G1 X134.313 Y141.924 E585.73972
G1 X135.200 Y141.924 E585.82073
G1 X50.603 Y57.327 E596.74315
G1 X50.603 Y56.440 E596.82415
G1 X136.087 Y141.924 E607.86113
G1 X136.975 Y141.924 E607.94214
G1 X50.603 Y55.553 E619.09368
G1 X50.603 Y54.665 E619.17468
G1 X137.862 Y141.924 E630.44078
G1 X138.749 Y141.924 E630.52178
G1 X50.603 Y53.778 E641.90244
G1 X50.603 Y52.891 E641.98344
G1 X139.637 Y141.924 E653.47866
G1 X140.524 Y141.924 E653.55966
G1 X50.603 Y52.004 E665.16943
G1 X50.603 Y51.116 E665.25044
G1 X141.411 Y141.924 E676.97477
G1 X142.298 Y141.924 E677.05577
G1 X50.603 Y50.229 E688.89466
G1 X50.603 Y49.342 E688.97567
G1 X143.186 Y141.924 E700.92911
G1 X144.073 Y141.924 E701.01012
G1 X50.603 Y48.455 E713.07812
G1 X50.603 Y47.567 E713.15913
G1 X144.960 Y141.924 E725.34169
G1 X145.848 Y141.924 E725.42270
G1 X50.603 Y46.680 E737.71982
G1 X50.603 Y45.793 E737.80082
G1 X146.735 Y141.924 E750.21250
G1 X147.622 Y141.924 E750.29351
G1 X50.603 Y44.905 E762.81975
G1 X50.603 Y44.018 E762.90075
G1 X148.509 Y141.924 E775.54155
G1 X149.377 Y141.904 E775.62075
G1 X50.623 Y43.151 E788.37095
G1 X51.490 Y43.131 E788.45015
G1 X149.397 Y141.037 E801.09096
G1 X149.397 Y140.150 E801.17196
G1 X52.378 Y43.131 E813.69822
G1 X53.265 Y43.131 E813.77922
G1 X149.397 Y139.262 E826.19092
G1 X149.397 Y138.375 E826.27192
G1 X54.152 Y43.131 E838.56906
G1 X55.040 Y43.131 E838.65007
G1 X149.397 Y137.488 E850.83264
G1 X149.397 Y136.601 E850.91365
G1 X55.927 Y43.131 E862.98167
G1 X56.814 Y43.131 E863.06268
G1 X149.397 Y135.713 E875.01614
G1 X149.397 Y134.826 E875.09714
G1 X57.701 Y43.131 E886.93605
G1 X58.589 Y43.131 E887.01705
G1 X149.397 Y133.939 E898.74140
G1 X149.397 Y133.051 E898.82240
G1 X59.476 Y43.131 E910.43219
G1 X60.363 Y43.131 E910.51319
G1 X149.397 Y132.164 E922.00842
G1 X149.397 Y131.277 E922.08943
G1 X61.251 Y43.131 E933.47010
G1 X62.138 Y43.131 E933.55110
G1 X149.397 Y130.390 E944.81722
G1 X149.397 Y129.502 E944.89822
G1 X63.025 Y43.131 E956.04977
G1 X63.912 Y43.131 E956.13078
G1 X149.397 Y128.615 E967.16778
G1 X149.397 Y127.728 E967.24878
G1 X64.800 Y43.131 E978.17122
G1 X65.687 Y43.131 E978.25222
G1 X149.397 Y126.840 E989.06010
G1 X149.397 Y125.953 E989.14111
G1 X66.574 Y43.131 E999.83443
G1 X67.462 Y43.131 E999.91543
G1 X149.397 Y125.066 E1010.49419
G1 X149.397 Y124.179 E1010.57520
G1 X68.349 Y43.131 E1021.03940
G1 X69.236 Y43.131 E1021.12041
G1 X149.397 Y123.291 E1031.47005
G1 X149.397 Y122.404 E1031.55106
G1 X70.123 Y43.131 E1041.78615
G1 X71.011 Y43.131 E1041.86715
G1 X149.397 Y121.517 E1051.98768
G1 X149.397 Y120.630 E1052.06868
G1 X71.898 Y43.131 E1062.07465
G1 X72.785 Y43.131 E1062.15566
G1 X149.397 Y119.742 E1072.04707
G1 X149.397 Y118.855 E1072.12808
G1 X73.673 Y43.131 E1081.90493
G1 X74.560 Y43.131 E1081.98594
G1 X149.397 Y117.968 E1091.64823
G1 X149.397 Y117.080 E1091.72924
G1 X75.447 Y43.131 E1101.27697
G1 X76.334 Y43.131 E1101.35798
G1 X149.397 Y116.193 E1110.79116
G1 X149.397 Y115.306 E1110.87216
G1 X77.222 Y43.131 E1120.19078
G1 X78.109 Y43.131 E1120.27179
G1 X149.397 Y114.419 E1129.47585
G1 X149.397 Y113.531 E1129.55685
G1 X78.996 Y43.131 E1138.64636
G1 X79.884 Y43.131 E1138.72736
G1 X149.397 Y112.644 E1147.70231
G1 X149.397 Y111.757 E1147.78331
G1 X80.771 Y43.131 E1156.64370
G1 X81.658 Y43.131 E1156.72470
G1 X149.397 Y110.869 E1165.47053
G1 X149.397 Y109.982 E1165.55154
G1 X82.545 Y43.131 E1174.18281
G1 X83.433 Y43.131 E1174.26381
G1 X149.397 Y109.095 E1182.78052
G1 X149.397 Y108.208 E1182.86153
G1 X84.320 Y43.131 E1191.26368
G1 X85.207 Y43.131 E1191.34469
G1 X149.397 Y107.320 E1199.63228
G1 X149.397 Y106.433 E1199.71329
G1 X86.095 Y43.131 E1207.88633
G1 X86.982 Y43.131 E1207.96733
G1 X149.397 Y105.546 E1216.02581
G1 X149.397 Y104.658 E1216.10681
G1 X87.869 Y43.131 E1224.05073
G1 X88.756 Y43.131 E1224.13174
G1 X149.397 Y103.771 E1231.96110
G1 X149.397 Y102.884 E1232.04211
G1 X89.644 Y43.131 E1239.75691
G1 X90.531 Y43.131 E1239.83791
G1 X149.397 Y101.997 E1247.43816
G1 X149.397 Y101.109 E1247.51916
G1 X91.418 Y43.131 E1255.00485
G1 X92.305 Y43.131 E1255.08586
G1 X149.397 Y100.222 E1262.45698
G1 X149.397 Y99.335 E1262.53799
G1 X93.193 Y43.131 E1269.79456
G1 X94.080 Y43.131 E1269.87556
G1 X149.397 Y98.447 E1277.01758
G1 X149.397 Y97.560 E1277.09858
G1 X94.967 Y43.131 E1284.12603
G1 X95.855 Y43.131 E1284.20704
G1 X149.397 Y96.673 E1291.11993
G1 X149.397 Y95.786 E1291.20094
G1 X96.742 Y43.131 E1297.99928
G1 X97.629 Y43.131 E1298.08028
G1 X149.397 Y94.898 E1304.76406
G1 X149.397 Y94.011 E1304.84506
G1 X98.516 Y43.131 E1311.41428
G1 X99.404 Y43.131 E1311.49529
G1 X149.397 Y93.124 E1317.94995
G1 X149.397 Y92.236 E1318.03096
G1 X100.291 Y43.131 E1324.37106
G1 X101.178 Y43.131 E1324.45206
G1 X149.397 Y91.349 E1330.67761
G1 X149.397 Y90.462 E1330.75861
G1 X102.066 Y43.131 E1336.86960
G1 X102.953 Y43.131 E1336.95061
G1 X149.397 Y89.575 E1342.94703
G1 X149.397 Y88.687 E1343.02804
G1 X103.840 Y43.131 E1348.90991
G1 X104.727 Y43.131 E1348.99091
G1 X149.397 Y87.800 E1354.75822
G1 X149.397 Y86.913 E1354.83923
G1 X105.615 Y43.131 E1360.49198
G1 X106.502 Y43.131 E1360.57299
G1 X149.397 Y86.025 E1366.11118
G1 X149.397 Y85.138 E1366.19219
G1 X107.389 Y43.131 E1371.61582
G1 X108.277 Y43.131 E1371.69683
G1 X149.397 Y84.251 E1377.00591
G1 X149.397 Y83.364 E1377.08691
G1 X109.164 Y43.131 E1382.28143
G1 X110.051 Y43.131 E1382.36244
G1 X149.397 Y82.476 E1387.44240
G1 X149.397 Y81.589 E1387.52340
