; generated by Slic3r 1.2.9 on 2017-04-17 at 17:44:05

; external perimeters extrusion width = 0.40mm
; perimeters extrusion width = 0.67mm
; infill extrusion width = 0.67mm
; solid infill extrusion width = 0.67mm
; top infill extrusion width = 0.67mm

M127
M104 S250 T0 ; set temperature
G28 ; home all axes
G1 Z5 F5000 ; lift nozzle

M73 P0
G1 Z0.350 F7800.000
G1 E-2.00000 F2400.00000
M103 ; extruder off
G1 X4.450 Y81.239 F7800.000
M101 ; extruder on
G1 E0.00000 F2400.00000
G1 X29.603 Y79.861 E2.29056 F1800.000
G1 X30.890 Y79.838 E2.40759
G1 X216.047 Y82.386 E19.24542
M101 ; extruder on
G1 X216.648 Y82.421 E19.30018 F1800.000
G1 X218.104 Y82.574 E19.43331
G1 X219.458 Y82.862 E19.55921
G1 X220.850 Y83.314 E19.69230
G1 X222.117 Y83.878 E19.81836
G1 X223.384 Y84.610 E19.95140
G1 X224.504 Y85.424 E20.07737
G1 X225.592 Y86.404 E20.21042
G1 X226.515 Y87.429 E20.33594
G1 X227.376 Y88.613 E20.46905
G1 X228.071 Y89.816 E20.59534
G1 X228.666 Y91.153 E20.72840
G1 X229.145 Y92.741 E20.87926
G1 X229.702 Y96.042 E21.18367
G1 X229.863 Y97.300 E21.29899
G1 X229.901 Y98.016 E21.36415
G1 X229.907 Y98.667 E21.42339
G1 X229.871 Y99.511 E21.50019
G1 X229.482 Y103.770 E21.88905
G1 X229.409 Y104.318 E21.93931
G1 X229.239 Y105.282 E22.02835
G1 X229.060 Y106.045 E22.09957
G1 X228.877 Y106.623 E22.15471
G1 X228.535 Y107.550 E22.24461
G1 X228.304 Y108.097 E22.29856
G1 X227.953 Y108.782 E22.36857
G1 X227.481 Y109.591 E22.45374
G1 X227.059 Y110.233 E22.52360
G1 X226.741 Y110.650 E22.57126
G1 X225.872 Y111.673 E22.69330
G1 X225.395 Y112.146 E22.75437
G1 X224.857 Y112.635 E22.82049
G1 X224.521 Y112.922 E22.86067
G1 X224.030 Y113.298 E22.91692
G1 X223.225 Y113.856 E23.00596
G1 X222.724 Y114.161 E23.05930
G1 X222.005 Y114.558 E23.13395
G1 X221.482 Y114.814 E23.18693
G1 X220.777 Y115.124 E23.25696
G1 X220.241 Y115.332 E23.30926
G1 X219.554 Y115.567 E23.37524
G1 X218.605 Y115.834 E23.46489
G1 X217.819 Y116.010 E23.53818
G1 X216.880 Y116.169 E23.62475
G1 X199.391 Y118.280 E25.22655
G1 X176.898 Y120.123 E27.27874
G1 X175.542 Y120.160 E27.40202
G1 X70.535 Y120.163 E36.95027
G1 X-0.310 Y119.585 E43.39238
G1 X-1.684 Y119.541 E43.51737
G1 X-2.587 Y119.460 E43.59984
G1 X-3.574 Y119.319 E43.69054
G1 X-4.556 Y119.124 E43.78159
G1 X-5.527 Y118.873 E43.87275
G1 X-6.554 Y118.539 E43.97095
G1 X-7.497 Y118.169 E44.06307
G1 X-7.886 Y117.996 E44.10175
G1 X-8.898 Y117.491 E44.20457
G1 X-9.628 Y117.073 E44.28105
G1 X-23.867 Y108.316 E45.80113
G1 X-24.830 Y107.596 E45.91042
G1 X-25.917 Y106.617 E46.04348
G1 X-26.844 Y105.588 E46.16942
G1 X-27.704 Y104.404 E46.30249
G1 X-28.397 Y103.204 E46.42842
G1 X-28.992 Y101.868 E46.56149
G1 X-29.483 Y100.209 E46.71874
G1 X-29.826 Y98.046 E46.91789
G1 X-29.907 Y97.010 E47.01241
G1 X-29.907 Y96.010 E47.10334
G1 X-29.871 Y95.317 E47.16640
G1 X-29.718 Y93.862 E47.29947
G1 X-29.430 Y92.507 E47.42540
G1 X-28.978 Y91.116 E47.55846
G1 X-28.415 Y89.850 E47.68440
G1 X-27.683 Y88.583 E47.81747
G1 X-26.869 Y87.462 E47.94341
G1 X-25.890 Y86.375 E48.07648
G1 X-24.860 Y85.448 E48.20241
G1 X-23.676 Y84.588 E48.33548
G1 X-22.477 Y83.896 E48.46137
G1 X-21.141 Y83.300 E48.59444
G1 X-19.482 Y82.809 E48.75173
G1 X-17.319 Y82.466 E48.95088
G1 X-16.645 Y82.395 E49.01251
G1 X4.390 Y81.243 E50.92809
G1 E48.92809 F2400.00000
M103 ; extruder off
G1 X-16.660 Y100.599 F7800.000
M101 ; extruder on
G1 E50.92809 F2400.00000
G1 X-17.398 Y100.442 E50.99669 F1800.000
G1 X-18.087 Y100.135 E51.06528
G1 X-18.697 Y99.692 E51.13388
G1 X-19.202 Y99.131 E51.20248
G1 X-19.579 Y98.478 E51.27108
G1 X-19.812 Y97.760 E51.33967
G1 X-19.882 Y97.094 E51.40060
G1 X-19.882 Y95.926 E51.50678
G1 X-19.812 Y95.260 E51.56771
G1 X-19.579 Y94.542 E51.63631
G1 X-19.202 Y93.889 E51.70491
G1 X-18.697 Y93.328 E51.77350
G1 X-18.087 Y92.885 E51.84210
G1 X-17.398 Y92.578 E51.91070
M101 ; extruder on
G1 X-16.616 Y92.412 E51.98336 F1800.000
G1 X-15.892 Y92.424 E52.04919
G1 X-15.167 Y92.578 E52.11656
G1 X-14.478 Y92.885 E52.18516
G1 X-13.868 Y93.328 E52.25376
G1 X-13.363 Y93.889 E52.32235
G1 X-12.986 Y94.542 E52.39095
G1 X-12.753 Y95.260 E52.45955
G1 X-12.683 Y95.926 E52.52048
G1 X-12.683 Y97.094 E52.62666
G1 X-12.753 Y97.760 E52.68759
G1 X-12.986 Y98.478 E52.75618
G1 X-13.363 Y99.131 E52.82478
G1 X-13.868 Y99.692 E52.89338
G1 X-14.478 Y100.135 E52.96198
G1 X-15.167 Y100.442 E53.03057
G1 X-15.905 Y100.599 E53.09917
G1 X-16.600 Y100.599 E53.16231
G1 X-16.594 Y99.974 F7800.000
M101 ; extruder on
G1 X-17.203 Y99.844 E53.21897 F1800.000
G1 X-17.773 Y99.591 E53.27561
G1 X-18.277 Y99.225 E53.33227
G1 X-18.694 Y98.762 E53.38892
G1 X-19.005 Y98.222 E53.44558
G1 X-19.198 Y97.629 E53.50223
G1 X-19.257 Y97.061 E53.55421
G1 X-19.257 Y95.959 E53.65443
G1 X-19.198 Y95.390 E53.70641
G1 X-19.005 Y94.798 E53.76306
G1 X-18.694 Y94.258 E53.81972
G1 X-18.277 Y93.795 E53.87637
G1 X-17.773 Y93.429 E53.93303
G1 X-17.203 Y93.175 E53.98968
M101 ; extruder on
G1 X-16.555 Y93.038 E54.04991 F1800.000
G1 X-15.963 Y93.048 E54.10380
G1 X-15.362 Y93.175 E54.15970
G1 X-14.792 Y93.429 E54.21636
G1 X-14.288 Y93.795 E54.27301
G1 X-13.871 Y94.258 E54.32967
G1 X-13.560 Y94.798 E54.38632
G1 X-13.367 Y95.390 E54.44297
G1 X-13.308 Y95.959 E54.49495
G1 X-13.308 Y97.061 E54.59517
G1 X-13.367 Y97.629 E54.64716
G1 X-13.560 Y98.222 E54.70381
G1 X-13.871 Y98.762 E54.76046
G1 X-14.288 Y99.225 E54.81711
G1 X-14.792 Y99.591 E54.87377
G1 X-15.362 Y99.844 E54.93042
G1 X-15.971 Y99.974 E54.98707
G1 X-16.534 Y99.974 E55.03827
G1 X-16.528 Y99.349 F7800.000
M101 ; extruder on
G1 X-17.009 Y99.247 E55.08298 F1800.000
G1 X-17.458 Y99.047 E55.12769
G1 X-17.856 Y98.758 E55.17239
G1 X-18.185 Y98.392 E55.21710
G1 X-18.431 Y97.966 E55.26181
G1 X-18.583 Y97.499 E55.30652
G1 X-18.633 Y97.028 E55.34955
G1 X-18.633 Y95.992 E55.44382
G1 X-18.583 Y95.521 E55.48685
G1 X-18.431 Y95.053 E55.53156
G1 X-18.185 Y94.627 E55.57627
G1 X-17.856 Y94.262 E55.62098
G1 X-17.458 Y93.973 E55.66568
G1 X-17.009 Y93.773 E55.71039
M101 ; extruder on
G1 X-16.495 Y93.664 E55.75820 F1800.000
G1 X-16.034 Y93.671 E55.80015
G1 X-15.556 Y93.773 E55.84459
G1 X-15.107 Y93.973 E55.88930
G1 X-14.709 Y94.262 E55.93400
G1 X-14.380 Y94.627 E55.97871
G1 X-14.134 Y95.053 E56.02342
G1 X-13.982 Y95.521 E56.06813
G1 X-13.933 Y95.991 E56.11116
G1 X-13.933 Y97.028 E56.20543
G1 X-13.982 Y97.499 E56.24846
G1 X-14.134 Y97.966 E56.29317
G1 X-14.380 Y98.392 E56.33788
G1 X-14.709 Y98.758 E56.38259
G1 X-15.107 Y99.047 E56.42729
G1 X-15.556 Y99.247 E56.47200
G1 X-16.037 Y99.349 E56.51671
G1 X-16.468 Y99.349 E56.55596
G1 X-16.775 Y99.664 F7800.000
G1 X-9.807 Y102.410 F7800.000
M101 ; extruder on
G1 X-16.199 Y102.410 E57.13720 F1800.000
G1 X-17.403 Y102.283 E57.24735
G1 X-18.475 Y101.935 E57.34984
G1 X-19.451 Y101.372 E57.45233
G1 X-20.289 Y100.617 E57.55482
G1 X-20.952 Y99.706 E57.65730
G1 X-21.393 Y98.715 E57.75593
G1 X-21.683 Y96.884 E57.92447
G1 X-21.683 Y96.094 E57.99633
G1 X-21.556 Y94.889 E58.10648
G1 X-21.208 Y93.817 E58.20897
G1 X-20.644 Y92.841 E58.31146
G1 X-19.890 Y92.003 E58.41394
G1 X-18.978 Y91.341 E58.51643
G1 X-17.987 Y90.900 E58.61506
G1 X-16.157 Y90.610 E58.78360
G1 X25.796 Y90.610 E62.59835
G1 X26.383 Y89.896 E62.68236
G1 X27.382 Y88.989 E62.80507
G1 X27.471 Y88.929 E62.81479
G1 X28.621 Y88.364 E62.93131
G1 X28.767 Y88.316 E62.94533
G1 X29.807 Y88.098 E63.04188
G1 X30.052 Y88.075 E63.06433
G1 X30.744 Y88.064 E63.12722
G1 X31.440 Y88.138 E63.19085
G1 X32.197 Y88.317 E63.26162
G1 X33.020 Y88.651 E63.34235
G1 X33.488 Y88.914 E63.39120
G1 X34.078 Y89.339 E63.45727
G1 X34.613 Y89.832 E63.52342
G1 X35.083 Y90.610 E63.60606
G1 X215.872 Y90.610 E80.04510
G1 X217.077 Y90.736 E80.15531
G1 X218.149 Y91.085 E80.25781
G1 X219.125 Y91.648 E80.36025
G1 X219.962 Y92.402 E80.46274
G1 X220.625 Y93.314 E80.56528
G1 X221.066 Y94.305 E80.66385
G1 X221.356 Y96.136 E80.83239
G1 X221.356 Y96.498 E80.86538
G1 X221.567 Y97.253 E80.93663
G1 X221.677 Y98.130 E81.01701
G1 X221.674 Y98.815 E81.07924
G1 X221.608 Y99.395 E81.13233
G1 X221.519 Y99.814 E81.17136
G1 X221.134 Y100.999 E81.28458
G1 X221.278 Y101.818 E81.36024
G1 X221.311 Y102.182 E81.39343
G1 X221.297 Y102.959 E81.46417
G1 X221.135 Y103.845 E81.54603
G1 X220.814 Y104.697 E81.62877
G1 X220.361 Y105.460 E81.70948
G1 X219.930 Y105.981 E81.77104
G1 X219.377 Y106.501 E81.84001
G1 X218.824 Y106.905 E81.90232
G1 X218.279 Y107.224 E81.95972
G1 X217.706 Y107.493 E82.01725
G1 X217.126 Y107.707 E82.07348
G1 X216.555 Y107.868 E82.12741
G1 X215.677 Y108.031 E82.20865
G1 X214.809 Y108.107 E82.28788
G1 X213.850 Y108.101 E82.37505
G1 X213.177 Y108.033 E82.43661
G1 X212.490 Y107.903 E82.50013
G1 X211.808 Y107.707 E82.56472
G1 X210.517 Y107.202 E82.69077
G1 X209.376 Y107.686 E82.80346
G1 X208.910 Y107.838 E82.84802
G1 X208.147 Y108.011 E82.91912
G1 X207.412 Y108.098 E82.98647
G1 X206.615 Y108.110 E83.05893
G1 X206.243 Y108.089 E83.09278
G1 X205.684 Y108.024 E83.14394
G1 X205.329 Y107.961 E83.17678
G1 X204.747 Y107.819 E83.23127
G1 X204.417 Y107.715 E83.26273
G1 X203.648 Y107.418 E83.33764
G1 X202.508 Y107.704 E83.44449
G1 X201.731 Y108.609 E83.55294
G1 X201.269 Y109.019 E83.60910
G1 X200.501 Y109.515 E83.69228
G1 X200.006 Y109.743 E83.74186
G1 X199.372 Y109.949 E83.80245
G1 X198.788 Y110.067 E83.85665
G1 X198.038 Y110.132 E83.92507
G1 X197.426 Y110.118 E83.98073
G1 X196.769 Y110.030 E84.04106
G1 X196.022 Y109.828 E84.11138
G1 X195.529 Y109.632 E84.15961
G1 X194.892 Y109.291 E84.22538
G1 X194.328 Y108.894 E84.28807
G1 X193.450 Y108.117 E84.39467
G1 X192.274 Y108.109 E84.50159
G1 X191.769 Y108.070 E84.54769
G1 X191.254 Y107.996 E84.59503
G1 X190.311 Y107.791 E84.68278
G1 X189.534 Y107.990 E84.75572
G1 X188.960 Y108.080 E84.80851
G1 X188.435 Y108.115 E84.85635
G1 X187.840 Y108.099 E84.91052
G1 X187.114 Y107.997 E84.97718
G1 X186.578 Y107.857 E85.02755
G1 X185.802 Y107.576 E85.10252
G1 X184.673 Y107.911 E85.20961
G1 X183.904 Y108.053 E85.28073
G1 X183.134 Y108.113 E85.35100
G1 X182.672 Y108.111 E85.39299
G1 X181.257 Y108.032 E85.52186
G1 X180.016 Y110.028 E85.73565
G1 X179.944 Y110.115 E85.74589
G1 X178.940 Y111.018 E85.86864
G1 X178.849 Y111.079 E85.87862
G1 X177.704 Y111.635 E85.99437
G1 X177.553 Y111.685 E86.00884
G1 X176.523 Y111.898 E86.10450
G1 X176.269 Y111.922 E86.12762
G1 X175.459 Y111.928 E86.20131
G1 X174.743 Y111.833 E86.26695
G1 X174.057 Y111.655 E86.33144
G1 X173.380 Y111.385 E86.39776
G1 X172.925 Y111.142 E86.44460
G1 X171.441 Y110.136 E86.60762
G1 X170.072 Y111.115 E86.76068
G1 X169.551 Y111.406 E86.81496
G1 X169.005 Y111.634 E86.86867
G1 X168.451 Y111.796 E86.92120
G1 X167.902 Y111.895 E86.97190
G1 X167.373 Y111.937 E87.02018
G1 X166.824 Y111.928 E87.07012
G1 X166.227 Y111.855 E87.12475
G1 X165.650 Y111.720 E87.17872
G1 X165.098 Y111.527 E87.23183
G1 X164.575 Y111.282 E87.28437
G1 X164.246 Y111.092 E87.31888
G1 X163.822 Y110.802 E87.36562
G1 X163.277 Y110.345 E87.43032
G1 X162.866 Y109.914 E87.48447
G1 X162.471 Y109.393 E87.54387
G1 X161.737 Y108.162 E87.67420
G1 X160.545 Y108.029 E87.78324
G1 X160.160 Y107.963 E87.81879
G1 X159.595 Y107.830 E87.87154
G1 X159.239 Y107.723 E87.90539
G1 X158.671 Y107.510 E87.96051
G1 X158.339 Y107.362 E87.99360
G1 X157.380 Y106.854 E88.09225
G1 X155.997 Y107.521 E88.23191
G1 X155.782 Y107.607 E88.25298
G1 X155.363 Y107.753 E88.29331
G1 X154.680 Y107.932 E88.35755
G1 X153.999 Y108.048 E88.42031
G1 X153.024 Y108.116 E88.50924
G1 X152.386 Y108.107 E88.56717
G1 X151.776 Y108.061 E88.62282
G1 X151.164 Y107.976 E88.67906
G1 X150.539 Y107.847 E88.73701
G1 X149.619 Y107.567 E88.82447
G1 X149.026 Y107.324 E88.88283
G1 X148.407 Y107.009 E88.94592
G1 X146.793 Y106.042 E89.11700
G1 X145.549 Y107.962 E89.32500
G1 X145.232 Y108.380 E89.37272
G1 X144.831 Y108.837 E89.42797
G1 X144.605 Y109.063 E89.45710
G1 X143.951 Y109.623 E89.53532
G1 X143.483 Y109.954 E89.58751
G1 X142.984 Y110.254 E89.64041
G1 X142.473 Y110.515 E89.69266
G1 X141.930 Y110.747 E89.74628
G1 X141.088 Y111.021 E89.82682
G1 X140.532 Y111.154 E89.87880
G1 X139.973 Y111.251 E89.93037
G1 X139.413 Y111.317 E89.98163
G1 X138.861 Y111.352 E90.03199
G1 X138.182 Y111.356 E90.09369
G1 X137.566 Y111.328 E90.14978
G1 X137.081 Y111.280 E90.19413
G1 X136.520 Y111.194 E90.24566
G1 X135.979 Y111.079 E90.29602
G1 X135.480 Y110.942 E90.34305
G1 X134.899 Y110.740 E90.39898
G1 X134.456 Y110.553 E90.44271
G1 X133.870 Y110.255 E90.50247
G1 X132.588 Y109.470 E90.63919
G1 X131.005 Y110.313 E90.80230
G1 X130.642 Y110.475 E90.83841
G1 X129.855 Y110.762 E90.91455
G1 X129.055 Y110.975 E90.98984
G1 X128.662 Y111.053 E91.02633
G1 X128.294 Y111.111 E91.06021
G1 X127.472 Y111.190 E91.13529
G1 X126.833 Y111.210 E91.19340
G1 X124.081 Y111.201 E91.44365
G1 X123.356 Y111.125 E91.50992
G1 X122.108 Y110.823 E91.62671
G1 X121.154 Y111.048 E91.71582
G1 X120.662 Y111.128 E91.76112
G1 X119.722 Y111.202 E91.84687
G1 X113.939 Y111.200 E92.37273
G1 X113.064 Y111.088 E92.45294
G1 X112.531 Y110.952 E92.50295
G1 X111.609 Y110.611 E92.59235
G1 X110.715 Y110.914 E92.67820
G1 X110.066 Y111.074 E92.73899
G1 X109.696 Y111.136 E92.77313
G1 X109.069 Y111.196 E92.83034
G1 X104.210 Y111.213 E93.27215
G1 X103.774 Y111.235 E93.31186
G1 X103.566 Y111.268 E93.33108
G1 X101.797 Y111.335 E93.49204
G1 X100.278 Y110.734 E93.64052
G1 X99.194 Y109.682 E93.77786
G1 X98.968 Y109.342 E93.81498
G1 X98.722 Y108.885 E93.86216
G1 X97.815 Y106.683 E94.07876
G1 X95.927 Y107.531 E94.26691
G1 X95.098 Y107.813 E94.34655
G1 X94.260 Y107.998 E94.42462
G1 X93.897 Y108.050 E94.45796
G1 X93.008 Y108.113 E94.53897
G1 X92.155 Y108.094 E94.61653
G1 X91.719 Y108.053 E94.65642
G1 X90.848 Y107.901 E94.73678
G1 X89.989 Y107.652 E94.81810
G1 X89.669 Y107.531 E94.84919
G1 X88.711 Y107.100 E94.94476
G1 X87.559 Y107.587 E95.05844
G1 X87.239 Y107.699 E95.08926
G1 X86.343 Y107.935 E95.17359
G1 X85.482 Y108.066 E95.25276
G1 X84.567 Y108.117 E95.33604
G1 X83.938 Y108.102 E95.39330
G1 X83.577 Y108.072 E95.42623
G1 X82.861 Y107.964 E95.49202
G1 X81.917 Y107.715 E95.58083
G1 X80.648 Y107.219 E95.70467
G1 X79.364 Y107.704 E95.82951
G1 X78.486 Y107.935 E95.91209
G1 X78.204 Y107.988 E95.93812
G1 X77.612 Y108.067 E95.99247
G1 X77.036 Y108.109 E96.04498
G1 X75.533 Y108.131 E96.18169
G1 X74.900 Y109.373 E96.30848
G1 X74.615 Y109.807 E96.35566
G1 X74.206 Y110.298 E96.41377
G1 X73.788 Y110.694 E96.46616
G1 X73.207 Y111.121 E96.53164
G1 X72.695 Y111.406 E96.58496
G1 X72.142 Y111.637 E96.63945
G1 X71.719 Y111.766 E96.67970
G1 X71.178 Y111.876 E96.72990
G1 X70.509 Y111.937 E96.79099
G1 X69.959 Y111.928 E96.84102
G1 X69.511 Y111.879 E96.88199
G1 X68.931 Y111.758 E96.93581
G1 X68.225 Y111.520 E97.00359
G1 X67.863 Y111.355 E97.03973
G1 X67.392 Y111.091 E97.08888
G1 X66.826 Y110.695 E97.15170
G1 X66.420 Y110.346 E97.20036
G1 X66.111 Y110.030 E97.24057
G1 X65.698 Y109.514 E97.30063
G1 X64.893 Y108.198 E97.44090
G1 X63.373 Y107.975 E97.58059
G1 X62.203 Y107.680 E97.69036
G1 X61.022 Y107.991 E97.80140
G1 X60.658 Y108.053 E97.83493
G1 X60.093 Y108.107 E97.88659
G1 X59.570 Y108.116 E97.93410
G1 X59.057 Y108.087 E97.98088
G1 X58.548 Y108.021 E98.02752
G1 X57.486 Y107.794 E98.12622
G1 X56.723 Y107.990 E98.19787
G1 X56.150 Y108.080 E98.25065
G1 X55.613 Y108.115 E98.29954
G1 X55.057 Y108.103 E98.35016
G1 X54.303 Y107.997 E98.41932
G1 X53.783 Y107.861 E98.46823
G1 X52.553 Y107.386 E98.58812
G1 X51.258 Y107.816 E98.71217
G1 X50.921 Y107.901 E98.74378
G1 X50.452 Y107.994 E98.78731
G1 X49.578 Y108.096 E98.86730
G1 X49.200 Y108.113 E98.90170
G1 X48.345 Y108.094 E98.97947
G1 X47.489 Y107.994 E99.05780
G1 X46.680 Y107.815 E99.13319
G1 X45.437 Y107.408 E99.25210
G1 X44.474 Y107.798 E99.34654
G1 X43.886 Y107.968 E99.40225
G1 X43.307 Y108.070 E99.45566
G1 X42.747 Y108.113 E99.50679
G1 X41.939 Y108.084 E99.58025
G1 X40.739 Y107.880 E99.69096
G1 X39.627 Y108.083 E99.79376
G1 X39.410 Y108.101 E99.81354
G1 X38.582 Y108.097 E99.88885
G1 X37.884 Y108.003 E99.95283
G1 X37.368 Y107.874 E100.00126
G1 X36.410 Y107.529 E100.09384
G1 X35.504 Y107.832 E100.18073
G1 X34.924 Y107.977 E100.23510
G1 X34.084 Y108.094 E100.31216
G1 X33.791 Y108.111 E100.33885
G1 X32.958 Y108.094 E100.41461
G1 X32.387 Y108.024 E100.46691
G1 X31.618 Y107.867 E100.53831
G1 X31.150 Y107.978 E100.58199
G1 X30.394 Y108.092 E100.65155
