; generated by Slic3r 1.2.9 on 2017-04-17 at 18:59:13

; external perimeters extrusion width = 0.40mm
; perimeters extrusion width = 0.67mm
; infill extrusion width = 0.67mm
; solid infill extrusion width = 0.67mm
; top infill extrusion width = 0.67mm

M127
M104 S250 T0 ; set temperature
G28 ; home all axes
G1 Z5 F5000 ; lift nozzle

M73 P0
G1 Z0.350 F7800.000
G1 E-2.00000 F2400.00000
M103 ; extruder off
G1 X28.168 Y34.801 F7800.000
M101 ; extruder on
G1 E0.00000 F2400.00000
G1 X30.320 Y34.008 E0.20854 F1800.000
G1 X31.500 Y33.903 E0.31625
G1 X168.500 Y33.903 E12.77360
G1 X170.759 Y34.299 E12.98215
M101 ; extruder on
G1 X172.747 Y35.443 E13.19069 F1800.000
G1 X174.226 Y37.196 E13.39923
G1 X175.019 Y39.348 E13.60777
G1 X175.125 Y40.527 E13.71548
G1 X175.125 Y144.527 E23.17216
G1 X174.728 Y146.786 E23.38070
G1 X173.585 Y148.774 E23.58924
G1 X171.832 Y150.253 E23.79779
G1 X169.935 Y150.995 E23.98299
G1 X104.525 Y165.506 E30.07528
G1 X102.422 Y165.953 E30.27073
G1 X101.045 Y166.097 E30.39665
G1 X98.955 Y166.097 E30.58674
G1 X97.578 Y165.953 E30.71265
G1 X95.533 Y165.518 E30.90275
G1 X30.065 Y150.995 E37.00040
G1 X27.946 Y150.118 E37.20894
G1 X26.253 Y148.571 E37.41748
G1 X25.188 Y146.540 E37.62602
G1 X24.875 Y144.527 E37.81123
G1 X24.875 Y40.527 E47.26790
G1 X25.272 Y38.269 E47.47645
G1 X26.415 Y36.280 E47.68499
G1 X28.122 Y34.840 E47.88808
G1 E45.88808 F2400.00000
M103 ; extruder off
G1 X97.219 Y142.812 F7800.000
M101 ; extruder on
G1 E47.88808 F2400.00000
G1 X99.446 Y142.369 E48.09463 F1800.000
M101 ; extruder on
G1 X100.000 Y142.259 E48.14595 F1800.000
G1 X102.781 Y142.812 E48.40382
G1 X105.139 Y144.388 E48.66169
G1 X106.715 Y146.746 E48.91955
G1 X107.268 Y149.527 E49.17742
G1 X106.715 Y152.309 E49.43530
G1 X105.139 Y154.667 E49.69316
G1 X102.781 Y156.242 E49.95103
G1 X100.000 Y156.796 E50.20890
G1 X97.219 Y156.242 E50.46677
G1 X94.861 Y154.667 E50.72465
G1 X93.285 Y152.309 E50.98251
G1 X92.732 Y149.527 E51.24038
G1 X93.285 Y146.746 E51.49825
G1 X94.861 Y144.388 E51.75612
G1 X97.169 Y142.846 E52.00853
G1 X97.462 Y143.401 F7800.000
M101 ; extruder on
G1 X99.568 Y142.982 E52.20378 F1800.000
M101 ; extruder on
G1 X100.000 Y142.896 E52.24380 F1800.000
G1 X102.538 Y143.401 E52.47906
G1 X104.689 Y144.839 E52.71433
G1 X106.126 Y146.990 E52.94959
G1 X106.631 Y149.527 E53.18486
G1 X106.126 Y152.065 E53.42012
G1 X104.689 Y154.216 E53.65538
G1 X102.538 Y155.654 E53.89065
G1 X100.000 Y156.159 E54.12591
G1 X97.462 Y155.654 E54.36118
G1 X95.311 Y154.216 E54.59645
G1 X93.874 Y152.065 E54.83171
G1 X93.369 Y149.527 E55.06697
G1 X93.874 Y146.990 E55.30224
G1 X95.311 Y144.839 E55.53750
G1 X97.412 Y143.434 E55.76731
G1 X97.706 Y143.990 F7800.000
M101 ; extruder on
G1 X99.690 Y143.595 E55.95125 F1800.000
M101 ; extruder on
G1 X100.000 Y143.533 E55.97997 F1800.000
G1 X102.294 Y143.990 E56.19263
G1 X104.238 Y145.289 E56.40529
G1 X105.538 Y147.234 E56.61795
G1 X105.994 Y149.527 E56.83061
G1 X105.538 Y151.821 E57.04327
G1 X104.238 Y153.766 E57.25593
G1 X102.294 Y155.065 E57.46859
G1 X100.000 Y155.521 E57.68125
G1 X97.706 Y155.065 E57.89391
G1 X95.762 Y153.766 E58.10657
G1 X94.462 Y151.821 E58.31923
G1 X94.006 Y149.527 E58.53189
G1 X94.462 Y147.234 E58.74455
G1 X95.762 Y145.289 E58.95721
G1 X97.656 Y144.023 E59.16441
G1 X97.950 Y144.578 F7800.000
M101 ; extruder on
G1 X99.812 Y144.208 E59.33705 F1800.000
M101 ; extruder on
G1 X100.000 Y144.171 E59.35447 F1800.000
G1 X102.050 Y144.578 E59.54452
G1 X103.788 Y145.740 E59.73458
G1 X104.949 Y147.477 E59.92463
G1 X105.357 Y149.527 E60.11469
G1 X104.949 Y151.577 E60.30474
G1 X103.788 Y153.315 E60.49480
G1 X102.050 Y154.476 E60.68485
G1 X100.000 Y154.884 E60.87491
G1 X97.950 Y154.476 E61.06496
G1 X96.212 Y153.315 E61.25502
G1 X95.051 Y151.577 E61.44508
G1 X94.643 Y149.527 E61.63513
G1 X95.051 Y147.477 E61.82518
G1 X96.212 Y145.740 E62.01524
G1 X97.900 Y144.612 E62.19984
G1 X98.028 Y144.186 F7800.000
G1 E60.19984 F2400.00000
M103 ; extruder off
G1 X95.256 Y142.303 F7800.000
M101 ; extruder on
G1 E62.19984 F2400.00000
G1 X33.725 Y142.303 E67.79489 F1800.000
G1 X33.725 Y42.752 E76.84699
G1 X166.275 Y42.752 E88.89976
G1 X166.275 Y142.303 E97.95186
G1 X104.744 Y142.303 E103.54691
G1 X107.092 Y146.370 E103.97394
G1 X107.593 Y147.913 E104.12152
G1 X107.763 Y149.527 E104.26909
G1 X107.593 Y151.141 E104.41666
G1 X107.092 Y152.685 E104.56424
G1 X106.280 Y154.090 E104.71180
G1 X105.195 Y155.296 E104.85937
G1 X103.882 Y156.250 E105.00695
G1 X102.399 Y156.911 E105.15452
G1 X100.811 Y157.248 E105.30209
G1 X99.189 Y157.248 E105.44967
G1 X97.601 Y156.911 E105.59723
G1 X96.119 Y156.250 E105.74480
G1 X94.805 Y155.296 E105.89238
G1 X93.720 Y154.090 E106.03995
G1 X92.908 Y152.685 E106.18752
G1 X92.407 Y151.141 E106.33509
G1 X92.237 Y149.527 E106.48266
G1 X92.407 Y147.913 E106.63024
G1 X92.908 Y146.370 E106.77781
G1 X95.226 Y142.355 E107.19939
G1 X94.174 Y142.928 F7800.000
M101 ; extruder on
G1 X33.100 Y142.928 E112.75284 F1800.000
G1 X33.100 Y42.127 E121.91858
G1 X166.900 Y42.127 E134.08500
G1 X166.900 Y142.928 E143.25074
G1 X105.826 Y142.928 E148.80419
G1 X107.666 Y146.114 E149.13878
G1 X108.208 Y147.783 E149.29830
G1 X108.391 Y149.527 E149.45781
G1 X108.208 Y151.272 E149.61733
G1 X107.666 Y152.941 E149.77685
G1 X106.789 Y154.460 E149.93636
G1 X105.615 Y155.763 E150.09587
G1 X104.196 Y156.795 E150.25539
G1 X102.593 Y157.508 E150.41491
G1 X100.877 Y157.873 E150.57442
G1 X99.123 Y157.873 E150.73394
G1 X97.407 Y157.508 E150.89345
G1 X95.804 Y156.795 E151.05297
G1 X94.385 Y155.763 E151.21249
G1 X93.211 Y154.460 E151.37201
G1 X92.334 Y152.941 E151.53152
G1 X91.792 Y151.272 E151.69104
G1 X91.609 Y149.527 E151.85055
G1 X91.792 Y147.783 E152.01007
G1 X92.334 Y146.114 E152.16959
G1 X94.144 Y142.980 E152.49872
G1 X93.092 Y143.553 F7800.000
M101 ; extruder on
G1 X32.475 Y143.553 E158.01057 F1800.000
G1 X32.475 Y41.502 E167.28995
G1 X167.525 Y41.502 E179.57001
G1 X167.525 Y143.553 E188.84940
G1 X106.908 Y143.553 E194.36125
G1 X108.240 Y145.859 E194.60339
G1 X108.823 Y147.652 E194.77486
G1 X109.020 Y149.527 E194.94632
G1 X108.823 Y151.403 E195.11778
G1 X108.240 Y153.196 E195.28924
G1 X107.297 Y154.829 E195.46069
G1 X106.054 Y156.209 E195.62959
G1 X104.510 Y157.339 E195.80356
G1 X102.787 Y158.106 E195.97502
G1 X100.943 Y158.498 E196.14648
G1 X99.057 Y158.498 E196.31794
G1 X97.213 Y158.106 E196.48940
G1 X95.490 Y157.339 E196.66086
G1 X93.965 Y156.230 E196.83232
G1 X92.703 Y154.829 E197.00379
G1 X91.760 Y153.196 E197.17524
G1 X91.177 Y151.403 E197.34670
G1 X90.980 Y149.527 E197.51816
G1 X91.177 Y147.652 E197.68962
G1 X91.760 Y145.859 E197.86109
G1 X93.062 Y143.604 E198.09777
G1 X92.009 Y144.177 F7800.000
M101 ; extruder on
G1 X31.850 Y144.177 E203.56803 F1800.000
G1 X31.850 Y40.877 E212.96105
G1 X168.150 Y40.877 E225.35475
G1 X168.150 Y144.177 E234.74778
G1 X107.991 Y144.177 E240.21803
G1 X108.814 Y145.603 E240.36773
G1 X109.437 Y147.521 E240.55114
G1 X109.648 Y149.527 E240.73454
G1 X109.437 Y151.533 E240.91795
G1 X108.814 Y153.452 E241.10136
G1 X107.805 Y155.198 E241.28475
G1 X106.519 Y156.628 E241.45962
G1 X106.456 Y156.697 E241.46816
G1 X104.824 Y157.883 E241.65156
G1 X102.981 Y158.703 E241.83497
G1 X101.008 Y159.123 E242.01838
G1 X98.992 Y159.123 E242.20178
G1 X97.019 Y158.703 E242.38518
G1 X95.176 Y157.883 E242.56859
G1 X93.544 Y156.697 E242.75199
G1 X92.195 Y155.198 E242.93540
G1 X91.186 Y153.452 E243.11880
G1 X90.563 Y151.533 E243.30221
G1 X90.352 Y149.527 E243.48561
G1 X90.563 Y147.521 E243.66901
G1 X91.186 Y145.603 E243.85242
G1 X91.979 Y144.229 E243.99666
G1 X92.079 Y143.783 F7800.000
G1 X94.285 Y144.650 F7800.000
M101 ; extruder on
G1 X94.612 Y144.128 E244.05270 F1800.000
G1 X95.649 Y143.021 E244.19059
G1 X104.351 Y143.021 F7800.000
M101 ; extruder on
G1 X105.388 Y144.128 E244.32848 F1800.000
G1 X105.715 Y144.650 E244.38451
G1 X96.450 Y142.933 F7800.000
M101 ; extruder on
G1 X95.704 Y142.188 E244.48049 F1800.000
G1 X95.441 Y141.924 F7800.000
M101 ; extruder on
G1 X34.103 Y80.587 E252.37523 F1800.000
G1 X34.103 Y79.702 E252.45573
G1 X96.980 Y142.579 E260.54855
G1 X97.650 Y142.364 E260.61260
G1 X34.103 Y78.818 E268.79169
G1 X34.103 Y77.933 E268.87220
G1 X98.388 Y142.218 E277.14625
G1 X99.125 Y142.071 E277.21471
G1 X34.103 Y77.049 E285.58373
G1 X34.103 Y76.164 E285.66423
G1 X99.863 Y141.924 E294.12821
G1 X100.834 Y142.010 E294.21687
G1 X34.103 Y75.280 E302.80574
G1 X34.103 Y74.395 E302.88624
G1 X101.938 Y142.230 E311.61723
G1 X103.042 Y142.449 E311.71969
G1 X34.103 Y73.511 E320.59280
G1 X34.103 Y72.626 E320.67330
G1 X104.198 Y142.721 E329.69522
G1 X104.286 Y141.924 E329.76818
G1 X34.103 Y71.742 E338.80140
G1 X34.103 Y70.857 E338.88190
G1 X105.170 Y141.924 E348.02896
G1 X106.055 Y141.924 E348.10946
G1 X34.103 Y69.973 E357.37037
G1 X34.103 Y69.088 E357.45088
G1 X106.939 Y141.924 E366.82563
G1 X107.824 Y141.924 E366.90614
G1 X34.103 Y68.203 E376.39474
G1 X34.103 Y67.319 E376.47524
G1 X108.708 Y141.924 E386.07770
G1 X109.593 Y141.924 E386.15820
G1 X34.103 Y66.434 E395.87450
G1 X34.103 Y65.550 E395.95500
G1 X110.478 Y141.924 E405.78515
G1 X111.362 Y141.924 E405.86565
G1 X34.103 Y64.665 E415.80965
G1 X34.103 Y63.781 E415.89015
G1 X112.247 Y141.924 E425.94799
G1 X113.131 Y141.924 E426.02849
G1 X34.103 Y62.896 E436.20018
G1 X34.103 Y62.012 E436.28069
G1 X114.016 Y141.924 E446.56623
G1 X114.900 Y141.924 E446.64673
G1 X34.103 Y61.127 E457.04611
G1 X34.103 Y60.243 E457.12662
G1 X115.785 Y141.924 E467.63985
G1 X116.669 Y141.924 E467.72035
G1 X34.103 Y59.358 E478.34743
G1 X34.103 Y58.474 E478.42794
G1 X117.554 Y141.924 E489.16886
G1 X118.438 Y141.924 E489.24937
G1 X34.103 Y57.589 E500.10414
G1 X34.103 Y56.705 E500.18464
G1 X119.323 Y141.924 E511.15327
G1 X120.207 Y141.924 E511.23377
G1 X34.103 Y55.820 E522.31624
G1 X34.103 Y54.936 E522.39675
G1 X121.092 Y141.924 E533.59306
G1 X121.976 Y141.924 E533.67357
G1 X34.103 Y54.051 E544.98373
G1 X34.103 Y53.167 E545.06424
G1 X122.861 Y141.924 E556.48825
G1 X123.745 Y141.924 E556.56875
G1 X34.103 Y52.282 E568.10661
G1 X34.103 Y51.397 E568.18712
G1 X124.630 Y141.924 E579.83883
G1 X125.514 Y141.924 E579.91933
G1 X34.103 Y50.513 E591.68489
G1 X34.103 Y49.628 E591.76539
G1 X126.399 Y141.924 E603.64479
G1 X127.284 Y141.924 E603.72529
G1 X34.103 Y48.744 E615.71855
G1 X34.103 Y47.859 E615.79905
G1 X128.168 Y141.924 E627.90615
G1 X129.053 Y141.924 E627.98665
G1 X34.103 Y46.975 E640.20760
G1 X34.103 Y46.090 E640.28810
G1 X129.937 Y141.924 E652.62290
G1 X130.822 Y141.924 E652.70340
G1 X34.103 Y45.206 E665.15204
G1 X34.103 Y44.321 E665.23254
G1 X131.706 Y141.924 E677.79503
G1 X132.591 Y141.924 E677.87554
G1 X34.103 Y43.437 E690.55187
G1 X34.682 Y43.131 E690.61144
G1 X133.475 Y141.924 E703.32717
G1 X134.360 Y141.924 E703.40767
G1 X35.566 Y43.131 E716.12340
G1 X36.451 Y43.131 E716.20391
G1 X135.244 Y141.924 E728.91964
G1 X136.129 Y141.924 E729.00014
G1 X37.335 Y43.131 E741.71588
G1 X38.220 Y43.131 E741.79638
G1 X137.013 Y141.924 E754.51211
G1 X137.898 Y141.924 E754.59261
G1 X39.104 Y43.131 E767.30835
G1 X39.989 Y43.131 E767.38885
G1 X138.782 Y141.924 E780.10458
G1 X139.667 Y141.924 E780.18509
G1 X40.873 Y43.131 E792.90082
G1 X41.758 Y43.131 E792.98132
G1 X140.551 Y141.924 E805.69705
G1 X141.436 Y141.924 E805.77756
G1 X42.642 Y43.131 E818.49329
G1 X43.527 Y43.131 E818.57379
G1 X142.320 Y141.924 E831.28953
G1 X143.205 Y141.924 E831.37003
G1 X44.411 Y43.131 E844.08576
G1 X45.296 Y43.131 E844.16626
G1 X144.090 Y141.924 E856.88200
G1 X144.974 Y141.924 E856.96250
G1 X46.181 Y43.131 E869.67823
G1 X47.065 Y43.131 E869.75873
G1 X145.859 Y141.924 E882.47447
G1 X146.743 Y141.924 E882.55497
G1 X47.950 Y43.131 E895.27070
G1 X48.834 Y43.131 E895.35121
G1 X147.628 Y141.924 E908.06694
G1 X148.512 Y141.924 E908.14744
G1 X49.719 Y43.131 E920.86317
G1 X50.603 Y43.131 E920.94368
G1 X149.397 Y141.924 E933.65941
G1 X150.281 Y141.924 E933.73991
G1 X51.488 Y43.131 E946.45565
G1 X52.372 Y43.131 E946.53615
G1 X151.166 Y141.924 E959.25188
G1 X152.050 Y141.924 E959.33238
G1 X53.257 Y43.131 E972.04812
G1 X54.141 Y43.131 E972.12862
G1 X152.935 Y141.924 E984.84435
G1 X153.819 Y141.924 E984.92486
G1 X55.026 Y43.131 E997.64059
G1 X55.910 Y43.131 E997.72109
G1 X154.704 Y141.924 E1010.43682
G1 X155.588 Y141.924 E1010.51733
G1 X56.795 Y43.131 E1023.23306
G1 X57.679 Y43.131 E1023.31356
G1 X156.473 Y141.924 E1036.02930
G1 X157.357 Y141.924 E1036.10980
G1 X58.564 Y43.131 E1048.82553
G1 X59.448 Y43.131 E1048.90603
G1 X158.242 Y141.924 E1061.62177
G1 X159.126 Y141.924 E1061.70227
G1 X60.333 Y43.131 E1074.41800
G1 X61.217 Y43.131 E1074.49850
G1 X160.011 Y141.924 E1087.21424
G1 X160.896 Y141.924 E1087.29474
G1 X62.102 Y43.131 E1100.01047
G1 X62.987 Y43.131 E1100.09098
G1 X161.780 Y141.924 E1112.80671
G1 X162.665 Y141.924 E1112.88721
G1 X63.871 Y43.131 E1125.60295
G1 X64.756 Y43.131 E1125.68345
G1 X163.549 Y141.924 E1138.39918
G1 X164.434 Y141.924 E1138.47968
G1 X65.640 Y43.131 E1151.19542
G1 X66.525 Y43.131 E1151.27592
G1 X165.318 Y141.924 E1163.99165
G1 X165.897 Y141.618 E1164.05122
G1 X67.409 Y43.131 E1176.72757
G1 X68.294 Y43.131 E1176.80808
G1 X165.897 Y140.734 E1189.37059
G1 X165.897 Y139.849 E1189.45109
G1 X69.178 Y43.131 E1201.89975
G1 X70.063 Y43.131 E1201.98025
G1 X165.897 Y138.965 E1214.31506
G1 X165.897 Y138.080 E1214.39557
G1 X70.947 Y43.131 E1226.61653
G1 X71.832 Y43.131 E1226.69703
G1 X165.897 Y137.196 E1238.80415
G1 X165.897 Y136.311 E1238.88465
G1 X72.716 Y43.131 E1250.87792
G1 X73.601 Y43.131 E1250.95843
G1 X165.897 Y135.427 E1262.83785
G1 X165.897 Y134.542 E1262.91835
G1 X74.485 Y43.131 E1274.68393
G1 X75.370 Y43.131 E1274.76443
G1 X165.897 Y133.657 E1286.41616
G1 X165.897 Y132.773 E1286.49666
G1 X76.254 Y43.131 E1298.03454
G1 X77.139 Y43.131 E1298.11504
G1 X165.897 Y131.888 E1309.53907
G1 X165.897 Y131.004 E1309.61958
G1 X78.023 Y43.131 E1320.92976
G1 X78.908 Y43.131 E1321.01026
G1 X165.897 Y130.119 E1332.20660
G1 X165.897 Y129.235 E1332.28710
G1 X79.793 Y43.131 E1343.36959
G1 X80.677 Y43.131 E1343.45009
G1 X165.897 Y128.350 E1354.41874
G1 X165.897 Y127.466 E1354.49924
G1 X81.562 Y43.131 E1365.35403
G1 X82.446 Y43.131 E1365.43454
G1 X165.897 Y126.581 E1376.17548
G1 X165.897 Y125.697 E1376.25598
G1 X83.331 Y43.131 E1386.88308
G1 X84.215 Y43.131 E1386.96359
G1 X165.897 Y124.812 E1397.47684
G1 X165.897 Y123.928 E1397.55734
G1 X85.100 Y43.131 E1407.95674
G1 X85.984 Y43.131 E1408.03725
G1 X165.897 Y123.043 E1418.32280
G1 X165.897 Y122.159 E1418.40330
G1 X86.869 Y43.131 E1428.57501
G1 X87.753 Y43.131 E1428.65552
G1 X165.897 Y121.274 E1438.71338
G1 X165.897 Y120.390 E1438.79388
G1 X88.638 Y43.131 E1448.73789
G1 X89.522 Y43.131 E1448.81840
G1 X165.897 Y119.505 E1458.64856
G1 X165.897 Y118.621 E1458.72906
G1 X90.407 Y43.131 E1468.44538
G1 X91.291 Y43.131 E1468.52588
G1 X165.897 Y117.736 E1478.12835
G1 X165.897 Y116.851 E1478.20886
G1 X92.176 Y43.131 E1487.69748
G1 X93.060 Y43.131 E1487.77798
G1 X165.897 Y115.967 E1497.15276
G1 X165.897 Y115.082 E1497.23326
G1 X93.945 Y43.131 E1506.49419
G1 X94.830 Y43.131 E1506.57469
G1 X165.897 Y114.198 E1515.72177
G1 X165.897 Y113.313 E1515.80227
G1 X95.714 Y43.131 E1524.83551
G1 X96.599 Y43.131 E1524.91601
G1 X165.897 Y112.429 E1533.83539
G1 X165.897 Y111.544 E1533.91590
G1 X97.483 Y43.131 E1542.72143
G1 X98.368 Y43.131 E1542.80194
G1 X165.897 Y110.660 E1551.49363
G1 X165.897 Y109.775 E1551.57413
G1 X99.252 Y43.131 E1560.15197
G1 X100.137 Y43.131 E1560.23247
G1 X165.897 Y108.891 E1568.69647
G1 X165.897 Y108.006 E1568.77697
G1 X101.021 Y43.131 E1577.12712
G1 X101.906 Y43.131 E1577.20762
G1 X165.897 Y107.122 E1585.44392
G1 X165.897 Y106.237 E1585.52442
G1 X102.790 Y43.131 E1593.64687
G1 X103.675 Y43.131 E1593.72737
G1 X165.897 Y105.353 E1601.73598
G1 X165.897 Y104.468 E1601.81648
G1 X104.559 Y43.131 E1609.71124
G1 X105.444 Y43.131 E1609.79174
G1 X165.897 Y103.584 E1617.57265
G1 X165.897 Y102.699 E1617.65315
G1 X106.328 Y43.131 E1625.32021
G1 X107.213 Y43.131 E1625.40071
G1 X165.897 Y101.815 E1632.95393
G1 X165.897 Y100.930 E1633.03443
G1 X108.097 Y43.131 E1640.47380
G1 X108.982 Y43.131 E1640.55430
G1 X165.897 Y100.045 E1647.87982
G1 X165.897 Y99.161 E1647.96032
