; generated by Slic3r 1.2.9 on 2017-04-17 at 19:26:11

; external perimeters extrusion width = 0.40mm
; perimeters extrusion width = 0.67mm
; infill extrusion width = 0.67mm
; solid infill extrusion width = 0.67mm
; top infill extrusion width = 0.67mm

M127
M104 S250 T0 ; set temperature
G28 ; home all axes
G1 Z5 F5000 ; lift nozzle

M73 P0
G1 Z0.350 F7800.000
G1 E-2.00000 F2400.00000
M103 ; extruder off
G1 X72.479 Y91.126 F7800.000
M101 ; extruder on
G1 E0.00000 F2400.00000
G1 X72.886 Y90.830 E0.04568 F1800.000
G1 X73.588 Y90.385 E0.12132
G1 X74.028 Y90.143 E0.16700
G1 X74.781 Y89.788 E0.24262
G1 X75.248 Y89.603 E0.28829
G1 X76.040 Y89.346 E0.36397
G1 X76.838 Y89.149 E0.43873
G1 X82.039 Y88.078 E0.92161
G1 X83.375 Y87.942 E1.04371
G1 X124.100 Y87.942 E4.74683
G1 X126.359 Y88.339 E4.95537
M101 ; extruder on
G1 X128.839 Y89.938 E5.22369 F1800.000
G1 X129.816 Y90.938 E5.35080
G1 X131.110 Y92.831 E5.55935
G1 X131.702 Y95.567 E5.81387
G1 X131.702 Y103.567 E6.54131
G1 X131.305 Y105.826 E6.74985
G1 X130.161 Y107.814 E6.95839
G1 X128.409 Y109.293 E7.16693
G1 X126.996 Y109.908 E7.30706
G1 X120.831 Y111.774 E7.89272
G1 X118.912 Y112.058 E8.06910
G1 X117.614 Y112.056 E8.18713
G1 X83.239 Y111.351 E11.31349
G1 X81.850 Y111.174 E11.44085
G1 X76.648 Y109.943 E11.92688
G1 X76.040 Y109.788 E11.98397
G1 X75.248 Y109.531 E12.05966
G1 X74.781 Y109.346 E12.10534
G1 X74.028 Y108.992 E12.18096
G1 X73.588 Y108.750 E12.22664
G1 X72.886 Y108.304 E12.30228
G1 X72.479 Y108.009 E12.34796
G1 X71.839 Y107.479 E12.42358
G1 X71.472 Y107.135 E12.46927
G1 X70.903 Y106.528 E12.54494
G1 X70.582 Y106.141 E12.59061
G1 X70.093 Y105.468 E12.66633
G1 X69.824 Y105.043 E12.71200
G1 X69.424 Y104.315 E12.78757
G1 X69.210 Y103.861 E12.83324
G1 X68.904 Y103.088 E12.90883
G1 X68.748 Y102.610 E12.95454
G1 X68.541 Y101.803 E13.03028
G1 X68.447 Y101.310 E13.07595
G1 X68.343 Y100.484 E13.15162
G1 X68.311 Y99.982 E13.19733
G1 X68.311 Y99.152 E13.27285
G1 X68.343 Y98.651 E13.31852
G1 X68.447 Y97.825 E13.39419
G1 X68.541 Y97.331 E13.43987
G1 X68.748 Y96.524 E13.51563
G1 X68.904 Y96.047 E13.56131
G1 X69.210 Y95.274 E13.63690
G1 X69.424 Y94.819 E13.68258
G1 X69.824 Y94.091 E13.75814
G1 X70.093 Y93.667 E13.80382
G1 X70.582 Y92.993 E13.87953
G1 X70.903 Y92.606 E13.92521
G1 X71.472 Y92.000 E14.00087
G1 X71.839 Y91.656 E14.04655
G1 X72.433 Y91.164 E14.11673
G1 E12.11673 F2400.00000
M103 ; extruder off
G1 X115.625 Y97.167 F7800.000
M101 ; extruder on
G1 E14.11673 F2400.00000
G1 X123.477 Y97.167 E14.83069 F1800.000
G1 X123.477 Y101.967 E15.26720
G1 X88.125 Y101.967 E18.48172
G1 X88.125 Y103.127 E18.58719
G1 X84.975 Y103.127 E18.87367
G1 X84.975 Y101.970 E18.97889
G1 X82.871 Y101.967 E19.17018
G1 X83.203 Y101.262 E19.24103
G1 X83.381 Y100.712 E19.29359
G1 X83.490 Y100.144 E19.34613
G1 X83.526 Y99.567 E19.39871
G1 X83.490 Y98.990 E19.45128
G1 X83.381 Y98.423 E19.50383
G1 X83.197 Y97.856 E19.55804
G1 X82.869 Y97.168 E19.62730
G1 X84.975 Y97.164 E19.81874
G1 X84.975 Y96.167 E19.90943
G1 X88.125 Y96.167 E20.19590
G1 X88.125 Y97.167 E20.28683
G1 X91.395 Y97.167 E20.58416
G1 X91.911 Y96.167 E20.68647
G1 X95.000 Y96.167 E20.96739
G1 X95.000 Y97.167 E21.05832
G1 X105.148 Y97.167 E21.98105
G1 X105.662 Y96.167 E22.08327
G1 X108.750 Y96.167 E22.36412
G1 X108.750 Y97.167 E22.45505
G1 X112.020 Y97.167 E22.75239
G1 X112.536 Y96.167 E22.85469
G1 X115.625 Y96.167 E23.13561
G1 X115.625 Y97.107 E23.22109
G1 X116.250 Y96.542 F7800.000
M101 ; extruder on
G1 X124.102 Y96.542 E23.93505 F1800.000
G1 X124.102 Y102.592 E24.48519
G1 X88.750 Y102.592 E27.69972
G1 X88.750 Y103.752 E27.80519
G1 X84.350 Y103.752 E28.20531
G1 X84.350 Y102.594 E28.31063
G1 X81.574 Y102.589 E28.56303
G1 X82.140 Y101.905 E28.64381
G1 X82.408 Y101.483 E28.68922
G1 X82.621 Y101.031 E28.73464
G1 X82.775 Y100.556 E28.78005
G1 X82.869 Y100.066 E28.82545
G1 X82.900 Y99.567 E28.87087
G1 X82.869 Y99.069 E28.91628
G1 X82.775 Y98.578 E28.96169
G1 X82.615 Y98.087 E29.00862
G1 X82.407 Y97.649 E29.05274
G1 X82.140 Y97.230 E29.09793
G1 X81.574 Y96.545 E29.17872
G1 X84.350 Y96.541 E29.43112
G1 X84.350 Y95.542 E29.52190
G1 X88.750 Y95.542 E29.92202
G1 X88.750 Y96.542 E30.01295
G1 X91.014 Y96.542 E30.21882
G1 X91.442 Y95.713 E30.30361
G1 X91.577 Y95.594 E30.32005
G1 X91.775 Y95.542 E30.33863
G1 X95.625 Y95.542 E30.68874
G1 X95.625 Y96.542 E30.77967
G1 X104.766 Y96.542 E31.61088
G1 X105.192 Y95.713 E31.69566
G1 X105.327 Y95.594 E31.71201
G1 X105.525 Y95.542 E31.73060
G1 X109.375 Y95.542 E32.08071
G1 X109.375 Y96.542 E32.17164
G1 X111.639 Y96.542 E32.37752
G1 X112.067 Y95.713 E32.46231
G1 X112.202 Y95.594 E32.47874
G1 X112.400 Y95.542 E32.49732
G1 X116.250 Y95.542 E32.84743
G1 X116.250 Y96.482 E32.93291
G1 X116.875 Y95.917 F7800.000
M101 ; extruder on
G1 X118.100 Y95.917 E33.04429 F1800.000
G1 X118.100 Y94.917 E33.13522
G1 X118.562 Y94.917 E33.17724
G1 X118.562 Y95.917 E33.26817
G1 X123.288 Y95.917 E33.69789
G1 X123.288 Y94.917 E33.78882
G1 X123.750 Y94.917 E33.83084
G1 X123.750 Y95.917 E33.92177
G1 X124.727 Y95.917 E34.01059
G1 X124.727 Y103.217 E34.67437
G1 X118.562 Y103.217 E35.23494
G1 X118.562 Y105.083 E35.40456
G1 X118.100 Y105.083 E35.44658
G1 X118.100 Y103.217 E35.61621
G1 X103.125 Y103.217 E36.97787
G1 X103.125 Y104.377 E37.08334
G1 X102.695 Y104.377 E37.12241
G1 X102.159 Y103.217 E37.23860
G1 X98.436 Y103.217 E37.57720
G1 X97.898 Y104.377 E37.69346
G1 X97.475 Y104.377 E37.73189
G1 X97.475 Y103.217 E37.83736
G1 X89.375 Y103.217 E38.57388
G1 X89.375 Y104.377 E38.67935
G1 X83.725 Y104.377 E39.19311
G1 X83.725 Y103.218 E39.29853
G1 X79.497 Y103.211 E39.68300
G1 X79.456 Y102.883 E39.71303
G1 X79.958 Y102.754 E39.76024
G1 X80.350 Y102.599 E39.79850
G1 X80.718 Y102.396 E39.83676
G1 X81.059 Y102.149 E39.87503
G1 X81.366 Y101.861 E39.91329
G1 X81.634 Y101.537 E39.95155
G1 X81.859 Y101.181 E39.98981
G1 X82.038 Y100.801 E40.02807
G1 X82.168 Y100.401 E40.06633
G1 X82.247 Y99.987 E40.10459
G1 X82.274 Y99.567 E40.14285
G1 X82.247 Y99.147 E40.18112
G1 X82.168 Y98.734 E40.21938
G1 X82.034 Y98.319 E40.25901
G1 X81.859 Y97.952 E40.29599
G1 X81.634 Y97.598 E40.33417
G1 X81.366 Y97.274 E40.37243
G1 X81.059 Y96.986 E40.41069
G1 X80.718 Y96.738 E40.44896
G1 X80.350 Y96.535 E40.48722
G1 X79.958 Y96.381 E40.52548
G1 X79.456 Y96.251 E40.57269
G1 X79.497 Y95.924 E40.60272
G1 X83.725 Y95.917 E40.98719
G1 X83.725 Y94.917 E41.07806
G1 X89.375 Y94.917 E41.59183
G1 X89.375 Y95.917 E41.68275
G1 X90.634 Y95.917 E41.79718
G1 X90.940 Y95.323 E41.85798
G1 X91.275 Y95.026 E41.89866
G1 X91.695 Y94.917 E41.93811
G1 X96.250 Y94.917 E42.35232
G1 X96.250 Y95.917 E42.44325
G1 X104.385 Y95.917 E43.18294
G1 X104.690 Y95.323 E43.24371
G1 X105.025 Y95.026 E43.28436
G1 X105.445 Y94.917 E43.32382
G1 X110.000 Y94.917 E43.73802
G1 X110.000 Y95.917 E43.82895
G1 X111.259 Y95.917 E43.94338
G1 X111.565 Y95.323 E44.00417
G1 X111.900 Y95.026 E44.04485
G1 X112.320 Y94.917 E44.08431
G1 X116.875 Y94.917 E44.49851
G1 X116.875 Y95.857 E44.58398
G1 X116.875 Y96.317 F7800.000
G1 X79.132 Y96.020 F7800.000
M101 ; extruder on
G1 X78.267 Y96.130 E44.66323 F1800.000
G1 X77.842 Y96.239 E44.70319
G1 X77.462 Y96.389 E44.74031
G1 X77.022 Y96.631 E44.78593
G1 X76.692 Y96.871 E44.82304
G1 X76.395 Y97.150 E44.86015
G1 X76.075 Y97.537 E44.90579
G1 X75.856 Y97.881 E44.94289
G1 X75.669 Y98.279 E44.98286
G1 X75.533 Y98.697 E45.02282
G1 X75.457 Y99.098 E45.05992
G1 X75.424 Y99.567 E45.10272
G1 X75.457 Y100.037 E45.14552
G1 X75.533 Y100.438 E45.18262
G1 X75.669 Y100.856 E45.22259
G1 X75.856 Y101.253 E45.26256
G1 X76.075 Y101.598 E45.29965
G1 X76.395 Y101.985 E45.34529
G1 X76.692 Y102.264 E45.38240
G1 X77.022 Y102.504 E45.41951
G1 X77.462 Y102.746 E45.46514
G1 X77.842 Y102.895 E45.50225
G1 X78.267 Y103.005 E45.54222
G1 X79.132 Y103.115 E45.62146
G1 X83.556 Y101.288 F7800.000
M101 ; extruder on
G1 X83.857 Y101.589 E45.66068 F1800.000
G1 X84.754 Y101.591 F7800.000
M101 ; extruder on
G1 X83.765 Y100.602 E45.78954 F1800.000
G1 X83.881 Y99.823 E45.86212
G1 X86.807 Y102.749 E46.24335
G1 X87.702 Y102.749 E46.32585
G1 X83.873 Y98.919 E46.82480
G1 X83.616 Y97.767 E46.93355
G1 X87.747 Y101.898 E47.47171
G1 X88.333 Y101.589 F7800.000
M101 ; extruder on
G1 X84.288 Y97.544 E47.99876 F1800.000
G1 X85.182 Y97.542 E48.08112
G1 X89.229 Y101.589 E48.60837
G1 X90.124 Y101.589 E48.69087
G1 X85.353 Y96.818 E49.31250
G1 X85.976 Y96.546 E49.37515
G1 X91.020 Y101.589 E50.03228
G1 X91.915 Y101.589 E50.11477
G1 X87.872 Y97.546 E50.64160
G1 X88.767 Y97.546 E50.72410
G1 X92.811 Y101.589 E51.25092
G1 X93.706 Y101.589 E51.33342
G1 X89.663 Y97.546 E51.86025
G1 X90.558 Y97.546 E51.94274
G1 X94.601 Y101.589 E52.46957
G1 X95.497 Y101.589 E52.55207
G1 X91.454 Y97.546 E53.07889
G1 X91.838 Y97.034 E53.13781
G1 X96.392 Y101.589 E53.73124
G1 X97.288 Y101.589 E53.81374
G1 X92.244 Y96.546 E54.47086
G1 X94.622 Y97.132 F7800.000
M101 ; extruder on
G1 X94.035 Y96.546 E54.54728 F1800.000
G1 X93.140 Y96.546 E54.62978
G1 X98.183 Y101.589 E55.28690
G1 X99.079 Y101.589 E55.36940
G1 X95.035 Y97.546 E55.89622
G1 X95.931 Y97.546 E55.97872
G1 X99.974 Y101.589 E56.50555
G1 X100.869 Y101.589 E56.58805
G1 X96.826 Y97.546 E57.11487
G1 X97.722 Y97.546 E57.19737
G1 X101.765 Y101.589 E57.72419
G1 X102.660 Y101.589 E57.80669
G1 X98.617 Y97.546 E58.33352
G1 X99.512 Y97.546 E58.41602
G1 X103.556 Y101.589 E58.94284
G1 X104.451 Y101.589 E59.02534
G1 X100.408 Y97.546 E59.55216
G1 X101.303 Y97.546 E59.63466
G1 X105.347 Y101.589 E60.16149
G1 X106.242 Y101.589 E60.24399
G1 X102.199 Y97.546 E60.77081
G1 X103.094 Y97.546 E60.85331
G1 X107.137 Y101.589 E61.38013
G1 X108.033 Y101.589 E61.46263
G1 X103.989 Y97.546 E61.98946
G1 X104.885 Y97.546 E62.07196
G1 X108.928 Y101.589 E62.59878
G1 X109.824 Y101.589 E62.68128
G1 X105.481 Y97.246 E63.24708
G1 X105.785 Y96.655 E63.30835
G1 X110.719 Y101.589 E63.95124
G1 X111.614 Y101.589 E64.03374
G1 X106.571 Y96.546 E64.69086
G1 X107.467 Y96.546 E64.77336
G1 X112.510 Y101.589 E65.43048
G1 X113.405 Y101.589 E65.51298
G1 X109.362 Y97.546 E66.03980
G1 X110.257 Y97.546 E66.12230
G1 X114.301 Y101.589 E66.64912
G1 X115.196 Y101.589 E66.73162
G1 X111.153 Y97.546 E67.25845
G1 X112.048 Y97.546 E67.34095
G1 X116.092 Y101.589 E67.86777
G1 X116.987 Y101.589 E67.95027
G1 X112.453 Y97.054 E68.54110
G1 X112.839 Y96.546 E68.59998
G1 X117.882 Y101.589 E69.25710
G1 X118.778 Y101.589 E69.33959
G1 X113.735 Y96.546 E69.99672
G1 X114.630 Y96.546 E70.07921
G1 X115.247 Y97.162 E70.15957
G1 X115.630 Y97.546 F7800.000
M101 ; extruder on
G1 X119.673 Y101.589 E70.68639 F1800.000
G1 X120.569 Y101.589 E70.76889
G1 X116.525 Y97.546 E71.29572
G1 X117.421 Y97.546 E71.37822
G1 X121.464 Y101.589 E71.90504
G1 X122.360 Y101.589 E71.98754
G1 X118.316 Y97.546 E72.51436
G1 X119.212 Y97.546 E72.59686
G1 X123.099 Y101.432 E73.10330
G1 X123.099 Y100.537 E73.18580
G1 X120.107 Y97.546 E73.57556
G1 X121.003 Y97.546 E73.65806
G1 X123.099 Y99.642 E73.93116
G1 X123.099 Y98.746 E74.01366
G1 X121.898 Y97.546 E74.17008
G1 X122.793 Y97.546 E74.25258
G1 X123.099 Y97.851 E74.29234
G1 X87.747 Y97.421 F7800.000
M101 ; extruder on
G1 X86.872 Y96.546 E74.40633 F1800.000
G1 X85.353 Y102.191 F7800.000
M101 ; extruder on
G1 X85.912 Y102.749 E74.47908 F1800.000
M104 S240 T0 ; set temperature
M140 S125 ; wait for bed temperature to be reached
M73 P4
G1 Z0.550 F7800.000
G1 X82.098 Y99.166 F7800.000
M101 ; extruder on
G1 X82.123 Y99.567 E74.49101 F900.000
G1 X82.098 Y99.968 E74.50294
G1 X82.023 Y100.363 E74.51488
G1 X81.899 Y100.745 E74.52681
G1 X81.728 Y101.109 E74.53874
G1 X81.512 Y101.448 E74.55068
G1 X81.256 Y101.758 E74.56261
G1 X80.963 Y102.033 E74.57454
G1 X80.638 Y102.269 E74.58647
G1 X80.286 Y102.463 E74.59841
G1 X79.912 Y102.611 E74.61034
G1 X79.523 Y102.711 E74.62228
G1 X79.124 Y102.761 E74.63421
G1 X78.722 Y102.761 E74.64614
G1 X78.323 Y102.711 E74.65808
G1 X77.934 Y102.611 E74.67001
G1 X77.560 Y102.463 E74.68194
G1 X77.208 Y102.269 E74.69387
G1 X76.883 Y102.033 E74.70581
G1 X76.590 Y101.758 E74.71774
G1 X76.334 Y101.448 E74.72967
G1 X76.119 Y101.109 E74.74161
G1 X75.947 Y100.745 E74.75354
G1 X75.823 Y100.363 E74.76547
G1 X75.748 Y99.968 E74.77741
G1 X75.723 Y99.567 E74.78934
G1 X75.747 Y99.170 E74.80116
G1 X75.823 Y98.771 E74.81321
G1 X75.947 Y98.389 E74.82514
G1 X76.119 Y98.025 E74.83708
G1 X76.334 Y97.686 E74.84901
G1 X76.590 Y97.376 E74.86094
G1 X76.883 Y97.101 E74.87287
G1 X77.208 Y96.865 E74.88481
G1 X77.560 Y96.671 E74.89674
G1 X77.934 Y96.524 E74.90867
G1 X78.323 Y96.424 E74.92061
G1 X78.722 Y96.373 E74.93254
M101 ; extruder on
G1 X79.124 Y96.373 E74.94447 F900.000
G1 X79.523 Y96.424 E74.95641
G1 X79.912 Y96.524 E74.96834
G1 X80.286 Y96.671 E74.98027
G1 X80.638 Y96.865 E74.99221
G1 X80.963 Y97.101 E75.00414
G1 X81.256 Y97.376 E75.01607
G1 X81.512 Y97.686 E75.02801
G1 X81.728 Y98.025 E75.03994
G1 X81.899 Y98.389 E75.05187
G1 X82.023 Y98.771 E75.06381
G1 X82.087 Y99.107 E75.07396
G1 X82.464 Y99.329 F7800.000
G1 X84.696 Y96.886 F7800.000
M101 ; extruder on
G1 X84.696 Y95.888 E75.12609 F3600.000
G1 X88.404 Y95.888 E75.31981
G1 X88.404 Y96.888 E75.37206
G1 X91.225 Y96.888 E75.51945
G1 X91.741 Y95.888 E75.57823
G1 X95.279 Y95.888 E75.76308
G1 X95.279 Y96.888 E75.81533
G1 X104.978 Y96.888 E76.32204
G1 X105.491 Y95.888 E76.38077
G1 X109.029 Y95.888 E76.56560
G1 X109.029 Y96.888 E76.61784
G1 X111.850 Y96.888 E76.76524
G1 X112.366 Y95.888 E76.82402
G1 X115.904 Y95.888 E77.00887
G1 X115.904 Y96.888 E77.06111
G1 X123.756 Y96.888 E77.47133
G1 X123.756 Y102.246 E77.75125
G1 X88.404 Y102.246 E79.59820
G1 X88.404 Y103.406 E79.65880
G1 X84.696 Y103.406 E79.85253
G1 X84.696 Y102.248 E79.91302
G1 X82.335 Y102.244 E80.03638
G1 X82.712 Y101.650 E80.07316
G1 X82.943 Y101.159 E80.10153
G1 X83.111 Y100.642 E80.12989
G1 X83.213 Y100.109 E80.15825
G1 X83.247 Y99.567 E80.18663
G1 X83.213 Y99.025 E80.21500
G1 X83.111 Y98.492 E80.24336
G1 X82.943 Y97.976 E80.27173
G1 X82.712 Y97.484 E80.30010
G1 X82.335 Y96.890 E80.33687
G1 X84.636 Y96.886 E80.45710
G1 X84.068 Y96.259 F7800.000
M101 ; extruder on
G1 X84.068 Y95.260 E80.50929 F3600.000
G1 X89.032 Y95.260 E80.76867
G1 X89.032 Y96.260 E80.82091
G1 X90.842 Y96.260 E80.91547
G1 X91.215 Y95.537 E80.95797
G1 X91.441 Y95.337 E80.97370
G1 X91.739 Y95.260 E80.98979
G1 X95.907 Y95.260 E81.20758
G1 X95.907 Y96.260 E81.25983
G1 X104.594 Y96.260 E81.71367
G1 X104.966 Y95.537 E81.75615
G1 X105.191 Y95.337 E81.77185
G1 X105.489 Y95.260 E81.78794
G1 X109.657 Y95.260 E82.00573
G1 X109.657 Y96.260 E82.05798
G1 X111.467 Y96.260 E82.15254
G1 X111.840 Y95.537 E82.19503
G1 X112.066 Y95.337 E82.21076
G1 X112.364 Y95.260 E82.22686
G1 X116.532 Y95.260 E82.44465
G1 X116.532 Y96.260 E82.49689
G1 X124.384 Y96.260 E82.90711
G1 X124.384 Y102.875 E83.25269
G1 X102.782 Y102.875 E84.38127
G1 X102.782 Y103.043 E84.39006
G1 X102.486 Y103.108 E84.40590
G1 X102.379 Y102.875 E84.41933
G1 X98.217 Y102.875 E84.63677
G1 X98.113 Y103.097 E84.64958
G1 X97.818 Y103.032 E84.66541
G1 X97.818 Y102.875 E84.67363
G1 X89.032 Y102.875 E85.13261
G1 X89.032 Y104.034 E85.19321
G1 X84.068 Y104.034 E85.45259
G1 X84.068 Y102.876 E85.51313
G1 X81.091 Y102.871 E85.66863
G1 X81.007 Y102.610 E85.68293
G1 X81.278 Y102.414 E85.70043
G1 X81.616 Y102.096 E85.72466
G1 X81.912 Y101.739 E85.74890
G1 X82.160 Y101.347 E85.77313
G1 X82.358 Y100.927 E85.79737
G1 X82.501 Y100.486 E85.82161
G1 X82.588 Y100.030 E85.84584
G1 X82.617 Y99.567 E85.87008
G1 X82.588 Y99.104 E85.89432
G1 X82.501 Y98.649 E85.91855
G1 X82.358 Y98.207 E85.94279
G1 X82.160 Y97.788 E85.96703
G1 X81.912 Y97.396 E85.99126
G1 X81.616 Y97.039 E86.01550
G1 X81.278 Y96.721 E86.03973
G1 X81.007 Y96.524 E86.05723
G1 X81.091 Y96.264 E86.07152
G1 X84.008 Y96.259 E86.22389
G1 X83.575 Y95.767 F7800.000
M101 ; extruder on
G1 X83.575 Y94.767 E86.25357 F1800.000
G1 X89.525 Y94.767 E86.43024
G1 X89.525 Y95.767 E86.45993
G1 X90.542 Y95.767 E86.49013
G1 X90.819 Y95.229 E86.50810
G1 X91.202 Y94.890 E86.52328
G1 X91.676 Y94.767 E86.53780
G1 X96.400 Y94.767 E86.67808
G1 X96.400 Y95.767 E86.70777
G1 X97.325 Y95.767 E86.73523
G1 X97.325 Y94.767 E86.76492
G1 X97.942 Y94.767 E86.78323
G1 X97.942 Y95.767 E86.81293
G1 X102.652 Y95.767 E86.95278
G1 X102.652 Y94.767 E86.98247
