; generated by Slic3r 1.2.9 on 2017-04-17 at 19:33:27

; external perimeters extrusion width = 0.40mm
; perimeters extrusion width = 0.67mm
; infill extrusion width = 0.67mm
; solid infill extrusion width = 0.67mm
; top infill extrusion width = 0.67mm

M127
M104 S250 T0 ; set temperature
G28 ; home all axes
G1 Z5 F5000 ; lift nozzle

M73 P0
G1 Z0.350 F7800.000
G1 E-2.00000 F2400.00000
M103 ; extruder off
G1 X79.341 Y79.341 F7800.000
M101 ; extruder on
G1 E0.00000 F2400.00000
G1 X79.704 Y78.977 E0.04674 F1800.000
G1 X81.582 Y77.661 E0.25528
G1 X84.389 Y77.037 E0.51671
G1 X89.402 Y77.037 E0.97254
G1 X91.661 Y77.434 E1.18109
M101 ; extruder on
G1 X94.086 Y78.977 E1.44248 F1800.000
G1 X121.023 Y105.914 E4.90645
G1 X122.340 Y107.792 E5.11499
G1 X122.963 Y110.598 E5.37636
G1 X122.963 Y115.611 E5.83220
G1 X122.566 Y117.870 E6.04074
G1 X121.023 Y120.296 E6.30217
G1 X120.296 Y121.023 E6.39565
G1 X118.418 Y122.339 E6.60419
G1 X115.611 Y122.963 E6.86562
G1 X110.598 Y122.963 E7.32145
G1 X108.339 Y122.566 E7.52999
G1 X105.914 Y121.023 E7.79138
G1 X78.977 Y94.086 E11.25534
G1 X77.661 Y92.208 E11.46388
G1 X77.037 Y89.402 E11.72527
G1 X77.037 Y84.389 E12.18110
G1 X77.434 Y82.130 E12.38965
G1 X78.977 Y79.704 E12.65107
G1 X79.298 Y79.383 E12.69236
G1 E10.69236 F2400.00000
M103 ; extruder off
G1 X114.738 Y114.738 F7800.000
M101 ; extruder on
G1 E12.69236 F2400.00000
G1 X111.261 Y114.738 E13.00857 F1800.000
G1 X85.262 Y88.739 E16.35194
G1 X85.262 Y85.262 E16.66815
G1 X88.739 Y85.262 E16.98436
G1 X114.738 Y111.261 E20.32773
G1 X114.738 Y114.678 E20.63849
G1 X115.363 Y115.208 F7800.000
M101 ; extruder on
G1 X115.208 Y115.363 E20.65853 F1800.000
G1 X111.002 Y115.363 E21.04092
G1 X84.637 Y88.998 E24.43136
G1 X84.637 Y84.792 E24.81376
G1 X84.792 Y84.637 E24.83380
G1 X88.998 Y84.637 E25.21620
G1 X115.363 Y111.002 E28.60664
G1 X115.363 Y115.148 E28.98358
G1 X115.988 Y115.208 F7800.000
M101 ; extruder on
G1 X115.988 Y115.466 E29.00712 F1800.000
G1 X115.466 Y115.988 E29.07423
G1 X110.743 Y115.988 E29.50370
G1 X84.012 Y89.257 E32.94121
G1 X84.012 Y84.534 E33.37068
G1 X84.534 Y84.012 E33.43779
G1 X89.257 Y84.012 E33.86726
G1 X89.390 Y84.145 E33.88444
M101 ; extruder on
G1 X115.988 Y110.743 E37.30477 F1800.000
G1 X115.988 Y115.148 E37.70525
G1 X115.764 Y115.337 F7800.000
G1 X114.360 Y111.633 F7800.000
M101 ; extruder on
G1 X88.367 Y85.640 E41.14270 F1800.000
G1 X87.458 Y85.640 E41.22768
G1 X114.360 Y112.542 E44.78532
G1 X114.360 Y113.451 E44.87030
G1 X86.549 Y85.640 E48.54812
G1 X85.660 Y85.660 E48.63125
G1 X114.340 Y114.340 E52.42396
G1 X113.451 Y114.360 E52.50710
G1 X85.640 Y86.549 E56.18492
G1 X85.640 Y87.458 E56.26990
G1 X112.542 Y114.360 E59.82754
G1 X111.634 Y114.360 E59.91252
G1 X85.640 Y88.366 E63.34997
M104 S240 T0 ; set temperature
M140 S125 ; wait for bed temperature to be reached
M73 P0
G1 Z0.550 F7800.000
G1 X115.706 Y114.925 F7800.000
M101 ; extruder on
G1 X114.789 Y115.842 E63.41772 F3600.000
G1 X111.420 Y115.842 E63.59372
G1 X84.158 Y88.580 E65.60803
G1 X84.158 Y85.211 E65.78403
G1 X85.211 Y84.158 E65.86183
G1 X88.580 Y84.158 E66.03783
G1 X88.800 Y84.378 E66.05410
M101 ; extruder on
G1 X115.842 Y111.420 E68.05215 F3600.000
G1 X115.842 Y114.789 E68.22815
G1 X115.749 Y114.883 E68.23507
G1 X116.150 Y115.370 F7800.000
M101 ; extruder on
G1 X115.049 Y116.471 E68.31641 F3600.000
G1 X111.160 Y116.471 E68.51960
G1 X83.529 Y88.840 E70.56111
G1 X83.529 Y84.951 E70.76430
G1 X84.951 Y83.529 E70.86930
G1 X88.840 Y83.529 E71.07249
G1 X89.244 Y83.934 E71.10236
M101 ; extruder on
G1 X116.471 Y111.160 E73.11400 F3600.000
G1 X116.471 Y115.049 E73.31720
G1 X116.193 Y115.327 E73.33772
G1 X116.499 Y115.718 F7800.000
M101 ; extruder on
G1 X115.678 Y116.538 E73.37216 F1800.000
M101 ; extruder on
G1 X115.254 Y116.963 E73.40356 F3600.000
G1 X110.956 Y116.963 E73.62807
G1 X110.531 Y116.538 E73.65947
M101 ; extruder on
G1 X83.462 Y89.469 E74.79611 F1800.000
M101 ; extruder on
G1 X83.037 Y89.044 E74.82751 F3600.000
G1 X83.037 Y84.746 E75.05203
G1 X83.462 Y84.322 E75.08343
M101 ; extruder on
G1 X84.322 Y83.462 E75.11953 F1800.000
M101 ; extruder on
G1 X84.746 Y83.037 E75.15093 F3600.000
G1 X89.044 Y83.037 E75.37544
G1 X89.469 Y83.462 E75.40684
M101 ; extruder on
G1 X116.538 Y110.531 E76.54348 F1800.000
M101 ; extruder on
G1 X116.963 Y110.956 E76.57488 F3600.000
G1 X116.963 Y115.254 E76.79940
G1 X116.541 Y115.676 E76.83058
G1 E74.83058 F2400.00000
M103 ; extruder off
G1 X114.415 Y115.461 F7800.000
M101 ; extruder on
G1 E76.83058 F2400.00000
G1 X115.461 Y114.415 E76.90820 F1200.000
G1 X115.461 Y113.523 E76.95497
G1 X113.523 Y115.461 E77.09872
G1 X112.631 Y115.461 E77.14549
G1 X115.461 Y112.631 E77.35538
G1 X115.461 Y111.739 E77.40214
G1 X111.739 Y115.461 E77.67816
G1 X111.188 Y115.121 E77.71214
G1 X115.121 Y111.188 E78.00380
G1 X114.675 Y110.742 E78.03687
G1 X110.742 Y114.675 E78.32853
G1 X110.296 Y114.229 E78.36160
G1 X114.229 Y110.296 E78.65326
G1 X113.783 Y109.850 E78.68632
G1 X109.850 Y113.783 E78.97798
G1 X109.404 Y113.337 E79.01105
G1 X113.337 Y109.404 E79.30271
G1 X112.891 Y108.958 E79.33577
G1 X108.958 Y112.891 E79.62743
G1 X108.512 Y112.445 E79.66050
G1 X112.445 Y108.512 E79.95216
G1 X112.000 Y108.066 E79.98523
G1 X108.067 Y112.000 E80.27689
G1 X107.621 Y111.554 E80.30995
G1 X111.554 Y107.621 E80.60161
G1 X111.108 Y107.175 E80.63468
G1 X107.175 Y111.108 E80.92634
G1 X106.729 Y110.662 E80.95941
G1 X110.662 Y106.729 E81.25107
G1 X110.216 Y106.283 E81.28413
G1 X106.283 Y110.216 E81.57579
G1 X105.837 Y109.770 E81.60886
G1 X109.770 Y105.837 E81.90052
G1 X109.324 Y105.391 E81.93359
G1 X105.391 Y109.324 E82.22525
G1 X104.945 Y108.878 E82.25831
G1 X108.878 Y104.945 E82.54997
G1 X108.432 Y104.499 E82.58304
G1 X104.499 Y108.432 E82.87470
G1 X104.053 Y107.986 E82.90776
G1 X107.986 Y104.053 E83.19942
G1 X107.540 Y103.607 E83.23249
G1 X103.607 Y107.540 E83.52415
G1 X103.161 Y107.095 E83.55722
G1 X107.095 Y103.161 E83.84888
G1 X106.649 Y102.716 E83.88194
G1 X102.716 Y106.649 E84.17360
G1 X102.270 Y106.203 E84.20667
G1 X106.203 Y102.270 E84.49833
G1 X105.757 Y101.824 E84.53140
G1 X101.824 Y105.757 E84.82306
G1 X101.378 Y105.311 E84.85612
G1 X105.311 Y101.378 E85.14778
G1 X104.865 Y100.932 E85.18085
G1 X100.932 Y104.865 E85.47251
G1 X100.486 Y104.419 E85.50558
G1 X104.419 Y100.486 E85.79724
G1 X103.973 Y100.040 E85.83030
G1 X100.040 Y103.973 E86.12196
G1 X99.594 Y103.527 E86.15503
G1 X103.527 Y99.594 E86.44669
G1 X103.081 Y99.148 E86.47976
G1 X99.148 Y103.081 E86.77141
G1 X98.702 Y102.635 E86.80448
G1 X102.635 Y98.702 E87.09614
G1 X102.189 Y98.256 E87.12921
G1 X98.256 Y102.189 E87.42087
G1 X97.811 Y101.744 E87.45393
G1 X101.744 Y97.810 E87.74559
G1 X101.298 Y97.365 E87.77866
G1 X97.365 Y101.298 E88.07032
G1 X96.919 Y100.852 E88.10339
G1 X100.852 Y96.919 E88.39505
G1 X100.406 Y96.473 E88.42811
G1 X96.473 Y100.406 E88.71977
G1 X96.027 Y99.960 E88.75284
G1 X99.960 Y96.027 E89.04450
G1 X99.514 Y95.581 E89.07757
G1 X95.581 Y99.514 E89.36923
G1 X95.135 Y99.068 E89.40229
G1 X99.068 Y95.135 E89.69395
G1 X98.622 Y94.689 E89.72702
G1 X94.689 Y98.622 E90.01868
G1 X94.243 Y98.176 E90.05175
G1 X98.176 Y94.243 E90.34340
G1 X97.730 Y93.797 E90.37647
G1 X93.797 Y97.730 E90.66813
G1 X93.351 Y97.284 E90.70120
G1 X97.284 Y93.351 E90.99286
G1 X96.839 Y92.905 E91.02592
G1 X92.905 Y96.839 E91.31758
G1 X92.460 Y96.393 E91.35065
G1 X96.393 Y92.460 E91.64231
G1 X95.947 Y92.014 E91.67538
G1 X92.014 Y95.947 E91.96704
G1 X91.568 Y95.501 E92.00010
G1 X95.501 Y91.568 E92.29176
G1 X95.055 Y91.122 E92.32483
G1 X91.122 Y95.055 E92.61649
G1 X90.676 Y94.609 E92.64956
G1 X94.609 Y90.676 E92.94122
G1 X94.163 Y90.230 E92.97428
G1 X90.230 Y94.163 E93.26594
G1 X89.784 Y93.717 E93.29901
G1 X93.717 Y89.784 E93.59067
G1 X93.271 Y89.338 E93.62373
G1 X89.338 Y93.271 E93.91539
G1 X88.892 Y92.825 E93.94846
G1 X92.825 Y88.892 E94.24012
G1 X92.379 Y88.446 E94.27319
G1 X88.446 Y92.379 E94.56485
G1 X88.000 Y91.933 E94.59791
G1 X91.933 Y88.000 E94.88957
G1 X91.488 Y87.554 E94.92264
G1 X87.555 Y91.488 E95.21430
G1 X87.109 Y91.042 E95.24737
G1 X91.042 Y87.109 E95.53903
G1 X90.596 Y86.663 E95.57209
G1 X86.663 Y90.596 E95.86375
G1 X86.217 Y90.150 E95.89682
G1 X90.150 Y86.217 E96.18848
G1 X89.704 Y85.771 E96.22155
G1 X85.771 Y89.704 E96.51321
G1 X85.325 Y89.258 E96.54627
G1 X89.258 Y85.325 E96.83793
G1 X88.812 Y84.879 E96.87100
G1 X84.879 Y88.812 E97.16266
G1 X84.539 Y88.261 E97.19664
G1 X88.261 Y84.539 E97.47266
G1 X87.369 Y84.539 E97.51942
G1 X84.539 Y87.369 E97.72930
G1 X84.539 Y86.477 E97.77607
G1 X86.477 Y84.539 E97.91982
G1 X85.585 Y84.539 E97.96658
G1 X84.539 Y85.585 E98.04420
M73 P0
G1 Z0.750 F7800.000
G1 X115.906 Y115.125 F7800.000
M101 ; extruder on
G1 X114.753 Y116.279 E98.12941 F3600.000
G1 X111.457 Y116.279 E98.30161
G1 X83.721 Y88.543 E100.35085
G1 X83.721 Y85.247 E100.52305
G1 X85.247 Y83.721 E100.63578
G1 X88.543 Y83.721 E100.80798
G1 X88.870 Y84.048 E100.83210
M101 ; extruder on
G1 X116.279 Y111.457 E102.85722 F3600.000
G1 X116.279 Y114.753 E103.02942
G1 X115.949 Y115.083 E103.05381
G1 X116.350 Y115.570 F7800.000
M101 ; extruder on
G1 X115.013 Y116.907 E103.15262 F3600.000
G1 X111.197 Y116.907 E103.35201
G1 X83.093 Y88.803 E105.42845
G1 X83.093 Y84.987 E105.62784
G1 X84.987 Y83.093 E105.76776
G1 X88.803 Y83.093 E105.96716
G1 X89.314 Y83.604 E106.00487
M101 ; extruder on
G1 X116.907 Y111.197 E108.04360 F3600.000
G1 X116.907 Y115.013 E108.24299
G1 X116.393 Y115.527 E108.28097
G1 X116.699 Y115.918 F7800.000
M101 ; extruder on
G1 X115.254 Y117.363 E108.34166 F1800.000
M101 ; extruder on
G1 X115.217 Y117.400 E108.34434 F3600.000
G1 X110.993 Y117.400 E108.56506
G1 X110.956 Y117.363 E108.56775
M101 ; extruder on
G1 X82.637 Y89.044 E109.75687 F1800.000
M101 ; extruder on
G1 X82.600 Y89.007 E109.75956 F3600.000
G1 X82.600 Y84.783 E109.98028
G1 X82.637 Y84.746 E109.98296
M101 ; extruder on
G1 X84.746 Y82.637 E110.07155 F1800.000
M101 ; extruder on
G1 X84.783 Y82.600 E110.07424 F3600.000
G1 X89.007 Y82.600 E110.29495
G1 X89.044 Y82.637 E110.29764
M101 ; extruder on
G1 X117.363 Y110.956 E111.48677 F1800.000
M101 ; extruder on
G1 X117.400 Y110.993 E111.48945 F3600.000
G1 X117.400 Y115.217 E111.71017
G1 X117.363 Y115.254 E111.71286
M101 ; extruder on
G1 X116.741 Y115.876 E111.73898 F1800.000
G1 X116.312 Y115.814 F7800.000
G1 E109.73898 F2400.00000
M103 ; extruder off
G1 X115.461 Y111.795 F7800.000
M101 ; extruder on
G1 E111.73898 F2400.00000
G1 X88.205 Y84.539 E113.81638 F1200.000
G1 X87.288 Y84.539 E113.86578
G1 X115.461 Y112.712 E116.01304
G1 X115.461 Y113.628 E116.06244
G1 X86.372 Y84.539 E118.27956
G1 X85.455 Y84.539 E118.32896
G1 X115.461 Y114.545 E120.61595
G1 X115.071 Y115.071 E120.65126
G1 X84.929 Y84.929 E122.94865
G1 X84.539 Y85.455 E122.98397
G1 X114.545 Y115.461 E125.27096
G1 X113.628 Y115.461 E125.32036
G1 X84.539 Y86.372 E127.53748
G1 X84.539 Y87.288 E127.58688
G1 X112.712 Y115.461 E129.73415
G1 X111.795 Y115.461 E129.78355
G1 X84.539 Y88.205 E131.86096
M126
M73 P1
G1 Z0.950 F7800.000
G1 X116.106 Y115.325 F7800.000
M101 ; extruder on
G1 X114.953 Y116.479 E131.94616 F3600.000
G1 X111.257 Y116.479 E132.13926
G1 X83.521 Y88.743 E134.18851
G1 X83.521 Y85.047 E134.38160
G1 X85.047 Y83.521 E134.49433
G1 X88.743 Y83.521 E134.68743
G1 X88.940 Y83.718 E134.70194
M101 ; extruder on
G1 X116.479 Y111.257 E136.73667 F3600.000
G1 X116.479 Y114.953 E136.92977
G1 X116.149 Y115.283 E136.95416
G1 X116.550 Y115.770 F7800.000
M101 ; extruder on
G1 X115.213 Y117.107 E137.05296 F3600.000
G1 X110.997 Y117.107 E137.27325
G1 X82.893 Y89.003 E139.34969
G1 X82.893 Y84.787 E139.56998
G1 X84.787 Y82.893 E139.70991
G1 X89.003 Y82.893 E139.93020
G1 X89.384 Y83.273 E139.95830
M101 ; extruder on
G1 X117.107 Y110.997 E142.00664 F3600.000
G1 X117.107 Y115.213 E142.22693
G1 X116.593 Y115.727 E142.26491
G1 X116.899 Y116.118 F7800.000
M101 ; extruder on
G1 X115.417 Y117.600 E142.32712 F1800.000
G1 X110.793 Y117.600 E142.46444
G1 X82.400 Y89.207 E143.65662
G1 X82.400 Y84.583 E143.79393
G1 X84.583 Y82.400 E143.88557
G1 X89.207 Y82.400 E144.02288
G1 X89.732 Y82.925 E144.04491
M101 ; extruder on
G1 X117.600 Y110.792 E145.21506 F1800.000
G1 X117.600 Y115.417 E145.35237
G1 X116.941 Y116.076 E145.38002
G1 X116.512 Y116.014 F7800.000
G1 E143.38002 F2400.00000
M103 ; extruder off
G1 X115.945 Y114.022 F7800.000
M101 ; extruder on
G1 E145.38002 F2400.00000
G1 X115.562 Y113.919 E145.40071 F4800.000
G1 X113.595 Y115.886 E145.54601
G1 X113.611 Y115.945 E145.54918
G1 X114.732 Y115.945 E145.60772
G1 X115.945 Y114.732 E145.69734
G1 X115.945 Y114.022 E145.73442
G1 X115.493 Y111.026 F7800.000
M101 ; extruder on
G1 X115.049 Y110.582 E145.76725 F4800.000
G1 X114.235 Y111.396 E145.82735
G1 X112.600 Y110.957 E145.91579
G1 X110.633 Y112.924 E146.06109
G1 X111.072 Y114.559 E146.14954
G1 X110.582 Y115.049 E146.18570
G1 X111.026 Y115.493 E146.21853
G1 X111.516 Y115.003 E146.25469
G1 X113.151 Y115.442 E146.34313
G1 X115.118 Y113.475 E146.48843
G1 X114.679 Y111.840 E146.57688
G1 X115.493 Y111.026 E146.63698
G1 X112.531 Y108.065 F7800.000
M101 ; extruder on
G1 X112.087 Y107.620 E146.66980 F4800.000
G1 X111.273 Y108.434 E146.72990
G1 X109.638 Y107.996 E146.81835
G1 X107.672 Y109.962 E146.96365
G1 X108.110 Y111.597 E147.05209
G1 X107.620 Y112.087 E147.08825
G1 X108.065 Y112.531 E147.12108
G1 X108.554 Y112.042 E147.15724
G1 X110.189 Y112.480 E147.24569
G1 X112.156 Y110.513 E147.39099
G1 X111.718 Y108.878 E147.47943
G1 X112.531 Y108.065 E147.53953
G1 X109.569 Y105.103 F7800.000
M101 ; extruder on
G1 X109.125 Y104.658 E147.57236 F4800.000
G1 X108.311 Y105.472 E147.63246
G1 X106.676 Y105.034 E147.72090
G1 X104.710 Y107.000 E147.86620
G1 X105.148 Y108.635 E147.95465
G1 X104.658 Y109.125 E147.99081
G1 X105.103 Y109.569 E148.02364
G1 X105.592 Y109.080 E148.05980
G1 X107.227 Y109.518 E148.14824
G1 X109.194 Y107.551 E148.29354
G1 X108.756 Y105.916 E148.38199
G1 X109.569 Y105.103 E148.44209
G1 X106.607 Y102.141 F7800.000
M101 ; extruder on
G1 X106.163 Y101.696 E148.47491 F4800.000
G1 X105.349 Y102.510 E148.53501
G1 X103.714 Y102.072 E148.62346
G1 X101.748 Y104.038 E148.76876
G1 X102.186 Y105.673 E148.85720
G1 X101.696 Y106.163 E148.89336
G1 X102.141 Y106.607 E148.92619
G1 X102.630 Y106.118 E148.96235
G1 X104.265 Y106.556 E149.05080
G1 X106.232 Y104.589 E149.19610
G1 X105.794 Y102.954 E149.28454
G1 X106.607 Y102.141 E149.34464
G1 X103.645 Y99.179 F7800.000
M101 ; extruder on
G1 X103.201 Y98.734 E149.37747 F4800.000
G1 X102.388 Y99.548 E149.43757
G1 X100.752 Y99.110 E149.52601
G1 X98.786 Y101.076 E149.67132
G1 X99.224 Y102.712 E149.75976
G1 X98.734 Y103.201 E149.79592
G1 X99.179 Y103.645 E149.82875
G1 X99.668 Y103.156 E149.86491
G1 X101.303 Y103.594 E149.95335
G1 X103.270 Y101.627 E150.09865
G1 X102.832 Y99.992 E150.18710
G1 X103.645 Y99.179 E150.24720
G1 X100.683 Y96.217 F7800.000
M101 ; extruder on
G1 X100.239 Y95.773 E150.28003 F4800.000
G1 X99.426 Y96.586 E150.34013
G1 X97.790 Y96.148 E150.42857
G1 X95.824 Y98.114 E150.57387
G1 X96.262 Y99.750 E150.66232
G1 X95.773 Y100.239 E150.69848
G1 X96.217 Y100.683 E150.73130
G1 X96.706 Y100.194 E150.76746
G1 X98.341 Y100.632 E150.85591
G1 X100.308 Y98.665 E151.00121
G1 X99.870 Y97.030 E151.08965
G1 X100.683 Y96.217 E151.14975
G1 X97.721 Y93.255 F7800.000
M101 ; extruder on
G1 X97.277 Y92.811 E151.18258 F4800.000
G1 X96.464 Y93.624 E151.24268
G1 X94.828 Y93.186 E151.33113
G1 X92.862 Y95.152 E151.47643
G1 X93.300 Y96.788 E151.56487
G1 X92.811 Y97.277 E151.60103
G1 X93.255 Y97.721 E151.63386
G1 X93.744 Y97.232 E151.67002
G1 X95.380 Y97.670 E151.75846
G1 X97.346 Y95.704 E151.90377
G1 X96.908 Y94.068 E151.99221
G1 X97.721 Y93.255 E152.05231
G1 X94.759 Y90.293 F7800.000
M101 ; extruder on
G1 X94.315 Y89.849 E152.08514 F4800.000
G1 X93.502 Y90.662 E152.14524
G1 X91.867 Y90.224 E152.23368
G1 X89.900 Y92.191 E152.37898
G1 X90.338 Y93.826 E152.46743
G1 X89.849 Y94.315 E152.50359
G1 X90.293 Y94.759 E152.53642
G1 X90.782 Y94.270 E152.57258
G1 X92.418 Y94.708 E152.66102
G1 X94.384 Y92.742 E152.80632
G1 X93.946 Y91.106 E152.89477
G1 X94.759 Y90.293 E152.95487
G1 X91.798 Y87.331 F7800.000
M101 ; extruder on
