; generated by Slic3r 1.2.9 on 2017-04-17 at 19:56:27

; external perimeters extrusion width = 0.40mm
; perimeters extrusion width = 0.67mm
; infill extrusion width = 0.67mm
; solid infill extrusion width = 0.67mm
; top infill extrusion width = 0.67mm

M127
M104 S250 T0 ; set temperature
G28 ; home all axes
G1 Z5 F5000 ; lift nozzle

M73 P0
G1 Z0.350 F7800.000
G1 E-2.00000 F2400.00000
M103 ; extruder off
G1 X69.397 Y70.953 F7800.000
M101 ; extruder on
G1 E0.00000 F2400.00000
G1 X69.702 Y70.704 E0.03578 F1800.000
G1 X70.759 Y69.999 E0.15131
G1 X71.104 Y69.814 E0.18691
G1 X72.312 Y69.313 E0.30589
G1 X72.689 Y69.198 E0.34171
G1 X73.946 Y68.947 E0.45826
G1 X74.997 Y68.875 E0.55408
G1 X125.000 Y68.875 E5.10083
G1 X125.663 Y68.908 E5.16115
M101 ; extruder on
G1 X126.051 Y68.947 E5.19661 F1800.000
G1 X127.315 Y69.200 E5.31386
G1 X127.690 Y69.314 E5.34950
G1 X128.874 Y69.803 E5.46596
G1 X129.220 Y69.987 E5.50159
G1 X130.315 Y70.718 E5.62129
G1 X130.619 Y70.967 E5.65701
G1 X131.531 Y71.879 E5.77431
G1 X131.780 Y72.182 E5.80997
G1 X132.511 Y73.278 E5.92974
G1 X132.695 Y73.624 E5.96537
G1 X133.184 Y74.808 E6.08183
G1 X133.298 Y75.183 E6.11747
G1 X133.548 Y76.413 E6.23165
G1 X133.589 Y76.801 E6.26713
G1 X133.625 Y77.497 E6.33052
G1 X133.625 Y122.500 E10.42263
G1 X133.589 Y123.197 E10.48602
G1 X133.548 Y123.585 E10.52149
G1 X133.299 Y124.813 E10.63548
G1 X133.184 Y125.190 E10.67133
G1 X132.695 Y126.374 E10.78778
G1 X132.510 Y126.722 E10.82362
G1 X131.781 Y127.814 E10.94301
G1 X131.531 Y128.119 E10.97884
G1 X130.619 Y129.031 E11.09614
G1 X130.314 Y129.281 E11.13199
G1 X129.236 Y130.002 E11.24992
G1 X128.887 Y130.189 E11.28589
G1 X127.690 Y130.685 E11.40370
G1 X127.315 Y130.799 E11.43934
G1 X126.068 Y131.050 E11.55505
G1 X125.680 Y131.090 E11.59052
G1 X125.000 Y131.125 E11.65238
G1 X74.995 Y131.125 E16.19931
G1 X74.350 Y131.094 E16.25811
G1 X73.962 Y131.056 E16.29356
G1 X72.681 Y130.801 E16.41232
G1 X72.306 Y130.687 E16.44796
G1 X71.109 Y130.191 E16.56578
G1 X70.763 Y130.006 E16.60146
G1 X69.681 Y129.283 E16.71976
G1 X69.377 Y129.033 E16.75553
G1 X68.465 Y128.121 E16.87282
G1 X68.215 Y127.816 E16.90869
G1 X67.485 Y126.722 E17.02824
G1 X67.301 Y126.376 E17.06391
G1 X66.812 Y125.192 E17.18034
G1 X66.698 Y124.817 E17.21598
G1 X66.444 Y123.550 E17.33353
G1 X66.375 Y122.520 E17.42733
G1 X66.375 Y77.497 E21.52125
G1 X66.447 Y76.446 E21.61707
G1 X66.699 Y75.188 E21.73372
G1 X66.813 Y74.812 E21.76952
G1 X67.310 Y73.611 E21.88770
G1 X67.496 Y73.264 E21.92344
G1 X68.211 Y72.193 E22.04055
G1 X68.459 Y71.889 E22.07621
G1 X69.354 Y70.995 E22.19128
G1 E20.19128 F2400.00000
M103 ; extruder off
G1 X125.352 Y123.352 F7800.000
M101 ; extruder on
G1 E22.19128 F2400.00000
G1 X74.647 Y123.352 E26.80187 F1800.000
G1 X74.647 Y115.647 E27.50257
G1 X125.352 Y115.647 E32.11315
G1 X125.352 Y123.292 E32.80840
G1 X125.352 Y123.752 F7800.000
G1 X125.352 Y114.852 F7800.000
M101 ; extruder on
G1 X74.647 Y114.852 E37.41898 F1800.000
G1 X74.647 Y85.147 E40.12014
G1 X125.352 Y85.147 E44.73072
G1 X125.352 Y114.792 E47.42642
G1 X125.352 Y115.252 F7800.000
G1 X125.352 Y84.352 F7800.000
M101 ; extruder on
G1 X74.647 Y84.352 E52.03701 F1800.000
G1 X74.647 Y76.647 E52.73762
G1 X125.352 Y76.647 E57.34820
G1 X125.352 Y84.292 E58.04336
G1 X125.352 Y84.752 F7800.000
G1 X126.650 Y84.352 F7800.000
M101 ; extruder on
G1 X126.650 Y122.482 E61.51046 F1800.000
G1 X126.615 Y122.819 E61.54123
G1 X126.521 Y123.129 E61.57075
G1 X126.369 Y123.414 E61.60012
G1 X126.164 Y123.664 E61.62949
G1 X125.914 Y123.869 E61.65889
G1 X125.629 Y124.022 E61.68830
G1 X125.319 Y124.116 E61.71774
G1 X124.983 Y124.150 E61.74850
G1 X75.013 Y124.150 E66.29224
G1 X74.676 Y124.118 E66.32298
G1 X74.367 Y124.024 E66.35234
G1 X74.082 Y123.871 E66.38175
G1 X73.832 Y123.666 E66.41115
G1 X73.627 Y123.416 E66.44052
G1 X73.475 Y123.131 E66.46989
G1 X73.381 Y122.822 E66.49931
G1 X73.349 Y122.503 E66.52842
G1 X73.349 Y77.515 E70.61915
G1 X73.383 Y77.179 E70.64983
G1 X73.477 Y76.869 E70.67932
G1 X73.630 Y76.584 E70.70874
G1 X73.834 Y76.334 E70.73803
G1 X74.085 Y76.130 E70.76744
G1 X74.369 Y75.977 E70.79681
G1 X74.679 Y75.883 E70.82628
G1 X75.015 Y75.849 E70.85696
G1 X124.983 Y75.850 E75.40053
M101 ; extruder on
G1 X125.320 Y75.883 E75.43127 F1800.000
G1 X125.629 Y75.977 E75.46070
G1 X125.914 Y76.129 E75.49006
G1 X126.164 Y76.334 E75.51943
G1 X126.369 Y76.584 E75.54880
G1 X126.521 Y76.869 E75.57816
G1 X126.615 Y77.179 E75.60768
G1 X126.650 Y77.516 E75.63845
G1 X126.650 Y84.292 E76.25464
G1 X126.304 Y84.552 F7800.000
G1 X125.302 Y84.749 F7800.000
M101 ; extruder on
G1 X74.698 Y84.749 E80.85594 F1800.000
G1 X74.231 Y76.343 F7800.000
M101 ; extruder on
G1 X74.041 Y77.102 E81.00695 F1800.000
G1 X73.998 Y77.548 E81.09318
G1 X73.998 Y122.471 E89.75381
G1 X74.040 Y122.898 E89.83657
G1 X74.229 Y123.657 E89.98729
G1 X74.422 Y123.681 F7800.000
M101 ; extruder on
G1 X74.752 Y123.738 E90.01767 F1800.000
G1 X75.032 Y123.751 E90.04320
G1 X124.962 Y123.751 E94.58330
G1 X125.243 Y123.737 E94.60886
G1 X125.570 Y123.681 E94.63904
G1 X125.770 Y123.651 F7800.000
M101 ; extruder on
G1 X125.958 Y122.897 E94.78887 F1800.000
G1 X126.001 Y122.448 E94.87581
G1 X126.001 Y77.550 E103.53157
G1 X125.958 Y77.101 E103.61851
G1 X125.770 Y76.347 E103.76834
G1 X125.572 Y76.319 F7800.000
M101 ; extruder on
G1 X125.244 Y76.263 E103.79865 F1800.000
G1 X124.963 Y76.249 E103.82419
G1 X75.035 Y76.248 E108.36413
G1 X74.755 Y76.263 E108.38960
G1 X74.427 Y76.319 E108.41993
G1 X74.698 Y115.249 F7800.000
M101 ; extruder on
G1 X125.302 Y115.249 E113.02123 F1800.000
M104 S240 T0 ; set temperature
M140 S125 ; wait for bed temperature to be reached
M73 P1
G1 Z0.550 F7800.000
G1 X125.202 Y115.796 F7800.000
M101 ; extruder on
G1 X125.202 Y123.202 E113.24113 F1800.000
G1 X74.797 Y123.202 E114.73772
G1 X74.797 Y115.796 E114.95761
G1 X125.142 Y115.796 E116.45242
G1 X125.602 Y115.796 F7800.000
G1 E114.45242 F2400.00000
M103 ; extruder off
G1 X74.305 Y123.701 F7800.000
M101 ; extruder on
G1 E116.45242 F2400.00000
G1 X73.914 Y123.225 E116.48461 F3600.000
G1 X73.794 Y123.000 E116.49795
G1 X73.719 Y122.754 E116.51137
G1 X73.692 Y122.486 E116.52544
G1 X73.692 Y77.532 E118.87404
G1 X73.721 Y77.247 E118.88902
G1 X73.796 Y77.001 E118.90246
G1 X73.916 Y76.775 E118.91585
G1 X74.305 Y76.300 E118.94788
G1 X74.305 Y123.641 E121.42120
G1 X74.797 Y114.702 F7800.000
M101 ; extruder on
G1 X74.797 Y85.296 E122.29430 F1800.000
G1 X125.202 Y85.296 E123.79089
G1 X125.202 Y114.702 E124.66400
G1 X74.857 Y114.702 E126.15880
G1 X74.397 Y114.702 F7800.000
G1 X74.797 Y84.203 F7800.000
M101 ; extruder on
G1 X74.797 Y76.797 E126.37867 F1800.000
G1 X125.202 Y76.797 E127.87526
G1 X125.202 Y84.203 E128.09512
G1 X74.857 Y84.203 E129.58993
G1 X74.397 Y84.203 F7800.000
G1 E127.58993 F2400.00000
M103 ; extruder off
G1 X125.695 Y76.304 F7800.000
M101 ; extruder on
G1 E129.58993 F2400.00000
G1 X126.082 Y76.775 E129.62179 F3600.000
G1 X126.202 Y77.000 E129.63514
G1 X126.278 Y77.248 E129.64865
G1 X126.308 Y77.534 E129.66368
G1 X126.308 Y122.464 E132.01105
G1 X126.278 Y122.750 E132.02608
G1 X126.202 Y122.998 E132.03960
G1 X126.082 Y123.223 E132.05294
G1 X125.695 Y123.694 E132.08480
G1 X125.695 Y76.364 E134.55759
G1 X125.886 Y75.944 F7800.000
M101 ; extruder on
G1 X125.998 Y76.004 E134.56134 F1800.000
G1 X126.270 Y76.228 E134.57181
G1 X126.494 Y76.500 E134.58228
G1 X126.660 Y76.811 E134.59275
G1 X126.763 Y77.149 E134.60324
G1 X126.800 Y77.508 E134.61395
G1 X126.800 Y122.490 E135.94952
G1 X126.763 Y122.849 E135.96023
G1 X126.660 Y123.187 E135.97072
G1 X126.494 Y123.498 E135.98119
G1 X126.270 Y123.770 E135.99166
G1 X125.998 Y123.994 E136.00214
G1 X125.687 Y124.161 E136.01262
G1 X125.349 Y124.264 E136.02310
G1 X124.990 Y124.300 E136.03380
G1 X75.005 Y124.300 E137.51792
G1 X74.647 Y124.265 E137.52861
G1 X74.309 Y124.163 E137.53908
G1 X73.998 Y123.996 E137.54956
G1 X73.726 Y123.772 E137.56004
G1 X73.502 Y123.500 E137.57051
G1 X73.336 Y123.189 E137.58097
G1 X73.234 Y122.851 E137.59145
G1 X73.200 Y122.511 E137.60161
G1 X73.200 Y77.508 E138.93781
G1 X73.236 Y77.150 E138.94848
G1 X73.338 Y76.811 E138.95898
G1 X73.505 Y76.500 E138.96947
G1 X73.728 Y76.228 E138.97992
G1 X74.001 Y76.005 E138.99039
G1 X74.312 Y75.838 E139.00086
G1 X74.650 Y75.736 E139.01135
G1 X75.008 Y75.700 E139.02203
G1 X124.991 Y75.700 E140.50609
M101 ; extruder on
G1 X125.349 Y75.736 E140.51679 F1800.000
G1 X125.687 Y75.838 E140.52726
G1 X125.833 Y75.916 E140.53219
G1 X125.891 Y76.071 F7800.000
G1 X125.449 Y76.273 F7800.000
M101 ; extruder on
G1 X124.963 Y76.249 E140.58473 F1200.000
G1 X75.035 Y76.248 E145.97989
G1 X74.551 Y76.273 E146.03225
G1 X74.551 Y84.749 F7800.000
M101 ; extruder on
G1 X125.449 Y84.749 E151.53218 F1200.000
G1 X125.449 Y115.249 F7800.000
M101 ; extruder on
G1 X74.551 Y115.249 E157.03210 F1200.000
G1 X74.551 Y123.728 F7800.000
M101 ; extruder on
G1 X75.032 Y123.751 E157.08414 F1200.000
G1 X124.962 Y123.751 E162.47948
G1 X125.449 Y123.726 E162.53216
M73 P2
G1 Z0.750 F7800.000
G1 X125.202 Y115.796 F7800.000
M101 ; extruder on
G1 X125.202 Y123.202 E162.75206 F1800.000
G1 X74.797 Y123.202 E164.24865
G1 X74.797 Y115.796 E164.46854
G1 X125.142 Y115.796 E165.96335
G1 X125.602 Y115.796 F7800.000
G1 E163.96335 F2400.00000
M103 ; extruder off
G1 X74.305 Y123.701 F7800.000
M101 ; extruder on
G1 E165.96335 F2400.00000
G1 X73.914 Y123.225 E165.99554 F3600.000
G1 X73.794 Y123.000 E166.00888
G1 X73.719 Y122.754 E166.02230
G1 X73.692 Y122.486 E166.03637
G1 X73.692 Y77.532 E168.38497
G1 X73.721 Y77.247 E168.39995
G1 X73.796 Y77.001 E168.41339
G1 X73.916 Y76.775 E168.42678
G1 X74.305 Y76.300 E168.45881
G1 X74.305 Y123.641 E170.93213
G1 X74.797 Y114.702 F7800.000
M101 ; extruder on
G1 X74.797 Y85.296 E171.80523 F1800.000
G1 X125.202 Y85.296 E173.30182
G1 X125.202 Y114.702 E174.17493
G1 X74.857 Y114.702 E175.66973
G1 X74.397 Y114.702 F7800.000
G1 X74.797 Y84.203 F7800.000
M101 ; extruder on
G1 X74.797 Y76.797 E175.88960 F1800.000
G1 X125.202 Y76.797 E177.38619
G1 X125.202 Y84.203 E177.60605
G1 X74.857 Y84.203 E179.10086
G1 X74.397 Y84.203 F7800.000
G1 E177.10086 F2400.00000
M103 ; extruder off
G1 X125.695 Y76.304 F7800.000
M101 ; extruder on
G1 E179.10086 F2400.00000
G1 X126.082 Y76.775 E179.13272 F3600.000
G1 X126.202 Y77.000 E179.14607
G1 X126.278 Y77.248 E179.15958
G1 X126.308 Y77.534 E179.17461
G1 X126.308 Y122.464 E181.52198
G1 X126.278 Y122.750 E181.53701
G1 X126.202 Y122.998 E181.55053
G1 X126.082 Y123.223 E181.56387
G1 X125.695 Y123.694 E181.59573
G1 X125.695 Y76.364 E184.06852
G1 X125.886 Y75.944 F7800.000
M101 ; extruder on
G1 X125.998 Y76.004 E184.07227 F1800.000
G1 X126.270 Y76.228 E184.08274
G1 X126.494 Y76.500 E184.09321
G1 X126.660 Y76.811 E184.10368
G1 X126.763 Y77.149 E184.11417
G1 X126.800 Y77.508 E184.12488
G1 X126.800 Y122.490 E185.46045
G1 X126.763 Y122.849 E185.47116
G1 X126.660 Y123.187 E185.48165
G1 X126.494 Y123.498 E185.49212
G1 X126.270 Y123.770 E185.50259
G1 X125.998 Y123.994 E185.51307
G1 X125.687 Y124.161 E185.52355
G1 X125.349 Y124.264 E185.53403
G1 X124.990 Y124.300 E185.54473
G1 X75.005 Y124.300 E187.02885
G1 X74.647 Y124.265 E187.03954
G1 X74.309 Y124.163 E187.05001
G1 X73.998 Y123.996 E187.06049
G1 X73.726 Y123.772 E187.07097
G1 X73.502 Y123.500 E187.08144
G1 X73.336 Y123.189 E187.09190
G1 X73.234 Y122.851 E187.10238
G1 X73.200 Y122.511 E187.11254
G1 X73.200 Y77.508 E188.44874
G1 X73.236 Y77.150 E188.45941
G1 X73.338 Y76.811 E188.46992
G1 X73.505 Y76.500 E188.48040
G1 X73.728 Y76.228 E188.49085
G1 X74.001 Y76.005 E188.50132
G1 X74.312 Y75.838 E188.51179
G1 X74.650 Y75.736 E188.52229
G1 X75.008 Y75.700 E188.53296
G1 X124.991 Y75.700 E190.01702
M101 ; extruder on
G1 X125.349 Y75.736 E190.02772 F1800.000
G1 X125.687 Y75.838 E190.03819
G1 X125.833 Y75.916 E190.04312
G1 X125.891 Y76.071 F7800.000
G1 X125.449 Y76.273 F7800.000
M101 ; extruder on
G1 X124.963 Y76.249 E190.09566 F1200.000
G1 X75.035 Y76.248 E195.49082
G1 X74.551 Y76.273 E195.54318
G1 X74.551 Y84.749 F7800.000
M101 ; extruder on
G1 X125.449 Y84.749 E201.04311 F1200.000
G1 X125.449 Y115.249 F7800.000
M101 ; extruder on
G1 X74.551 Y115.249 E206.54304 F1200.000
G1 X74.551 Y123.728 F7800.000
M101 ; extruder on
G1 X75.032 Y123.751 E206.59507 F1200.000
G1 X124.962 Y123.751 E211.99042
G1 X125.449 Y123.726 E212.04309
M126
M73 P4
G1 Z0.950 F7800.000
G1 X125.202 Y115.796 F7800.000
M101 ; extruder on
G1 X125.202 Y123.202 E212.26299 F1800.000
G1 X74.797 Y123.202 E213.75958
G1 X74.797 Y115.796 E213.97947
G1 X125.142 Y115.796 E215.47428
G1 X125.602 Y115.796 F7800.000
G1 E213.47428 F2400.00000
M103 ; extruder off
G1 X74.305 Y123.701 F7800.000
M101 ; extruder on
G1 E215.47428 F2400.00000
G1 X73.914 Y123.225 E215.50647 F3600.000
G1 X73.794 Y123.000 E215.51981
G1 X73.719 Y122.754 E215.53323
G1 X73.692 Y122.486 E215.54730
G1 X73.692 Y77.532 E217.89590
G1 X73.721 Y77.247 E217.91088
G1 X73.796 Y77.001 E217.92432
G1 X73.916 Y76.775 E217.93771
G1 X74.305 Y76.300 E217.96974
G1 X74.305 Y123.641 E220.44306
G1 X74.797 Y114.702 F7800.000
M101 ; extruder on
G1 X74.797 Y85.296 E221.31616 F1800.000
G1 X125.202 Y85.296 E222.81275
G1 X125.202 Y114.702 E223.68586
G1 X74.857 Y114.702 E225.18067
G1 X74.397 Y114.702 F7800.000
G1 X74.797 Y84.203 F7800.000
M101 ; extruder on
G1 X74.797 Y76.797 E225.40053 F1800.000
G1 X125.202 Y76.797 E226.89712
G1 X125.202 Y84.203 E227.11698
G1 X74.857 Y84.203 E228.61179
G1 X74.397 Y84.203 F7800.000
G1 E226.61179 F2400.00000
M103 ; extruder off
G1 X125.695 Y76.304 F7800.000
M101 ; extruder on
G1 E228.61179 F2400.00000
G1 X126.082 Y76.775 E228.64365 F3600.000
G1 X126.202 Y77.000 E228.65700
G1 X126.278 Y77.248 E228.67051
G1 X126.308 Y77.534 E228.68555
G1 X126.308 Y122.464 E231.03291
G1 X126.278 Y122.750 E231.04794
G1 X126.202 Y122.998 E231.06146
G1 X126.082 Y123.223 E231.07480
G1 X125.695 Y123.694 E231.10666
G1 X125.695 Y76.364 E233.57945
G1 X125.886 Y75.944 F7800.000
M101 ; extruder on
G1 X125.998 Y76.004 E233.58320 F1800.000
G1 X126.270 Y76.228 E233.59367
G1 X126.494 Y76.500 E233.60414
G1 X126.660 Y76.811 E233.61461
G1 X126.763 Y77.149 E233.62510
G1 X126.800 Y77.508 E233.63581
G1 X126.800 Y122.490 E234.97138
G1 X126.763 Y122.849 E234.98209
G1 X126.660 Y123.187 E234.99258
G1 X126.494 Y123.498 E235.00305
G1 X126.270 Y123.770 E235.01352
G1 X125.998 Y123.994 E235.02400
G1 X125.687 Y124.161 E235.03448
G1 X125.349 Y124.264 E235.04496
G1 X124.990 Y124.300 E235.05566
G1 X75.005 Y124.300 E236.53978
G1 X74.647 Y124.265 E236.55048
G1 X74.309 Y124.163 E236.56094
G1 X73.998 Y123.996 E236.57142
G1 X73.726 Y123.772 E236.58190
G1 X73.502 Y123.500 E236.59237
G1 X73.336 Y123.189 E236.60283
G1 X73.234 Y122.851 E236.61331
G1 X73.200 Y122.511 E236.62347
G1 X73.200 Y77.508 E237.95967
G1 X73.236 Y77.150 E237.97034
G1 X73.338 Y76.811 E237.98085
G1 X73.505 Y76.500 E237.99133
G1 X73.728 Y76.228 E238.00178
G1 X74.001 Y76.005 E238.01226
G1 X74.312 Y75.838 E238.02272
G1 X74.650 Y75.736 E238.03322
G1 X75.008 Y75.700 E238.04389
G1 X124.991 Y75.700 E239.52795
M101 ; extruder on
G1 X125.349 Y75.736 E239.53865 F1800.000
G1 X125.687 Y75.838 E239.54913
G1 X125.833 Y75.916 E239.55405
G1 X125.891 Y76.071 F7800.000
G1 X125.449 Y76.273 F7800.000
M101 ; extruder on
G1 X124.963 Y76.249 E239.60659 F1200.000
G1 X75.035 Y76.248 E245.00175
G1 X74.551 Y76.273 E245.05411
G1 X74.551 Y84.749 F7800.000
M101 ; extruder on
G1 X125.449 Y84.749 E250.55404 F1200.000
G1 X125.449 Y115.249 F7800.000
M101 ; extruder on
G1 X74.551 Y115.249 E256.05397 F1200.000
G1 X74.551 Y123.728 F7800.000
M101 ; extruder on
G1 X75.032 Y123.751 E256.10600 F1200.000
G1 X124.962 Y123.751 E261.50135
G1 X125.449 Y123.726 E261.55402
M73 P5
G1 Z1.150 F7800.000
G1 X125.202 Y115.796 F7800.000
M101 ; extruder on
G1 X125.202 Y123.202 E261.77392 F1800.000
G1 X74.797 Y123.202 E263.27051
G1 X74.797 Y115.796 E263.49040
G1 X125.142 Y115.796 E264.98521
G1 X125.602 Y115.796 F7800.000
G1 E262.98521 F2400.00000
M103 ; extruder off
G1 X74.305 Y123.701 F7800.000
M101 ; extruder on
G1 E264.98521 F2400.00000
G1 X73.914 Y123.225 E265.01740 F3600.000
G1 X73.794 Y123.000 E265.03074
G1 X73.719 Y122.754 E265.04416
G1 X73.692 Y122.486 E265.05823
