; generated by Slic3r 1.2.9 on 2017-04-17 at 22:03:45

; external perimeters extrusion width = 0.40mm
; perimeters extrusion width = 0.67mm
; infill extrusion width = 0.67mm
; solid infill extrusion width = 0.67mm
; top infill extrusion width = 0.67mm

M127
M104 S250 T0 ; set temperature
G28 ; home all axes
G1 Z5 F5000 ; lift nozzle

M73 P0
G1 Z0.350 F7800.000
G1 E-2.00000 F2400.00000
M103 ; extruder off
G1 X65.770 Y78.441 F7800.000
M101 ; extruder on
G1 E0.00000 F2400.00000
G1 X67.605 Y77.066 E0.20854 F1800.000
G1 X70.600 Y76.350 E0.48856
G1 X130.600 Y76.350 E5.94433
G1 X132.859 Y76.747 E6.15288
M101 ; extruder on
G1 X134.847 Y77.890 E6.36142 F1800.000
G1 X136.326 Y79.643 E6.56996
G1 X137.119 Y81.795 E6.77850
G1 X137.225 Y82.975 E6.88621
G1 X137.225 Y117.975 E10.06875
G1 X136.828 Y120.234 E10.27729
G1 X135.685 Y122.222 E10.48583
G1 X133.932 Y123.701 E10.69438
G1 X131.780 Y124.494 E10.90292
G1 X130.600 Y124.600 E11.01063
G1 X69.400 Y124.600 E16.57552
G1 X67.141 Y124.203 E16.78406
G1 X65.153 Y123.060 E16.99260
G1 X63.674 Y121.307 E17.20114
G1 X62.881 Y119.155 E17.40969
G1 X62.775 Y117.975 E17.51740
G1 X62.775 Y103.695 E18.81587
G1 X63.986 Y82.592 E20.73792
G1 X64.513 Y80.360 E20.94646
G1 X65.737 Y78.491 E21.14955
G1 E19.14955 F2400.00000
M103 ; extruder off
G1 X129.000 Y116.375 F7800.000
M101 ; extruder on
G1 E21.14955 F2400.00000
G1 X71.000 Y116.375 E26.42350 F1800.000
G1 X71.000 Y105.295 E27.43104
G1 X129.000 Y105.295 E32.70500
G1 X129.000 Y116.315 E33.70708
G1 X129.625 Y117.000 F7800.000
M101 ; extruder on
G1 X70.375 Y117.000 E39.09468 F1800.000
G1 X70.375 Y104.670 E40.21586
G1 X129.625 Y104.670 E45.60346
G1 X129.625 Y116.940 E46.71919
G1 X130.250 Y117.625 F7800.000
M101 ; extruder on
G1 X69.750 Y117.625 E52.22043 F1800.000
G1 X69.750 Y104.045 E53.45525
G1 X130.250 Y104.045 E58.95649
G1 X130.250 Y117.565 E60.18586
G1 X129.904 Y117.425 F7800.000
G1 X128.622 Y105.978 F7800.000
M101 ; extruder on
G1 X128.317 Y105.673 E60.22549 F1800.000
G1 X127.424 Y105.673 E60.30750
G1 X128.622 Y106.871 E60.46311
G1 X128.622 Y107.764 E60.54512
G1 X126.531 Y105.673 E60.81671
G1 X125.638 Y105.673 E60.89871
G1 X128.622 Y108.657 E61.28627
G1 X128.622 Y109.549 E61.36828
G1 X124.746 Y105.673 E61.87182
G1 X123.853 Y105.673 E61.95382
G1 X128.622 Y110.442 E62.57333
G1 X128.622 Y111.335 E62.65534
G1 X122.960 Y105.673 E63.39083
G1 X122.067 Y105.673 E63.47283
G1 X128.622 Y112.228 E64.32429
G1 X128.622 Y113.120 E64.40630
G1 X121.175 Y105.673 E65.37374
G1 X120.282 Y105.673 E65.45574
G1 X128.622 Y114.013 E66.53915
G1 X128.622 Y114.906 E66.62116
G1 X119.389 Y105.673 E67.82054
G1 X118.496 Y105.673 E67.90255
G1 X128.622 Y115.799 E69.21791
G1 X127.927 Y115.997 E69.28427
G1 X117.604 Y105.673 E70.62534
G1 X116.711 Y105.673 E70.70735
G1 X127.034 Y115.997 E72.04842
G1 X126.141 Y115.997 E72.13042
G1 X115.818 Y105.673 E73.47149
G1 X114.925 Y105.673 E73.55350
G1 X125.249 Y115.997 E74.89457
G1 X124.356 Y115.997 E74.97657
G1 X114.032 Y105.673 E76.31764
G1 X113.140 Y105.673 E76.39965
G1 X123.463 Y115.997 E77.74072
G1 X122.570 Y115.997 E77.82272
G1 X112.247 Y105.673 E79.16379
G1 X111.354 Y105.673 E79.24580
G1 X121.678 Y115.997 E80.58687
G1 X120.785 Y115.997 E80.66887
G1 X110.461 Y105.673 E82.00994
G1 X109.569 Y105.673 E82.09195
G1 X119.892 Y115.997 E83.43302
G1 X118.999 Y115.997 E83.51502
G1 X108.676 Y105.673 E84.85609
G1 X107.783 Y105.673 E84.93810
G1 X118.107 Y115.997 E86.27917
G1 X117.214 Y115.997 E86.36117
G1 X106.890 Y105.673 E87.70224
G1 X105.998 Y105.673 E87.78425
G1 X116.321 Y115.997 E89.12532
G1 X115.428 Y115.997 E89.20732
G1 X105.105 Y105.673 E90.54839
G1 X104.212 Y105.673 E90.63040
G1 X114.536 Y115.997 E91.97147
G1 X113.643 Y115.997 E92.05347
G1 X103.319 Y105.673 E93.39454
G1 X102.427 Y105.673 E93.47655
G1 X112.750 Y115.997 E94.81762
G1 X111.857 Y115.997 E94.89962
G1 X101.534 Y105.673 E96.24069
G1 X100.641 Y105.673 E96.32270
G1 X110.965 Y115.997 E97.66377
G1 X110.072 Y115.997 E97.74577
G1 X99.748 Y105.673 E99.08684
G1 X98.856 Y105.673 E99.16885
G1 X109.179 Y115.997 E100.50992
G1 X108.286 Y115.997 E100.59192
G1 X97.963 Y105.673 E101.93299
G1 X97.070 Y105.673 E102.01500
G1 X107.394 Y115.997 E103.35607
G1 X106.501 Y115.997 E103.43807
G1 X96.177 Y105.673 E104.77914
G1 X95.285 Y105.673 E104.86115
G1 X105.608 Y115.997 E106.20222
G1 X104.715 Y115.997 E106.28422
G1 X94.392 Y105.673 E107.62529
G1 X93.499 Y105.673 E107.70730
G1 X103.822 Y115.997 E109.04837
G1 X102.930 Y115.997 E109.13037
G1 X92.606 Y105.673 E110.47144
G1 X91.714 Y105.673 E110.55345
G1 X102.037 Y115.997 E111.89452
G1 X101.144 Y115.997 E111.97652
G1 X90.821 Y105.673 E113.31759
G1 X89.928 Y105.673 E113.39960
G1 X100.251 Y115.997 E114.74067
G1 X99.359 Y115.997 E114.82267
G1 X89.035 Y105.673 E116.16374
G1 X88.143 Y105.673 E116.24575
G1 X98.466 Y115.997 E117.58682
G1 X97.573 Y115.997 E117.66882
G1 X87.250 Y105.673 E119.00989
G1 X86.357 Y105.673 E119.09190
G1 X96.680 Y115.997 E120.43297
G1 X95.788 Y115.997 E120.51497
G1 X85.464 Y105.673 E121.85604
G1 X84.572 Y105.673 E121.93805
G1 X94.895 Y115.997 E123.27912
G1 X94.002 Y115.997 E123.36112
G1 X83.679 Y105.673 E124.70219
G1 X82.786 Y105.673 E124.78420
G1 X93.109 Y115.997 E126.12527
G1 X92.217 Y115.997 E126.20727
G1 X81.893 Y105.673 E127.54834
G1 X81.001 Y105.673 E127.63035
G1 X91.324 Y115.997 E128.97142
G1 X90.431 Y115.997 E129.05342
G1 X80.108 Y105.673 E130.39449
G1 X79.215 Y105.673 E130.47650
G1 X89.538 Y115.997 E131.81757
G1 X88.646 Y115.997 E131.89957
G1 X78.322 Y105.673 E133.24064
G1 X77.430 Y105.673 E133.32265
G1 X87.753 Y115.997 E134.66372
G1 X86.860 Y115.997 E134.74572
G1 X76.537 Y105.673 E136.08679
G1 X75.644 Y105.673 E136.16880
G1 X85.967 Y115.997 E137.50986
G1 X85.075 Y115.997 E137.59187
G1 X74.751 Y105.673 E138.93294
G1 X73.859 Y105.673 E139.01495
G1 X84.182 Y115.997 E140.35601
G1 X83.289 Y115.997 E140.43802
G1 X72.966 Y105.673 E141.77909
G1 X72.073 Y105.673 E141.86110
G1 X82.396 Y115.997 E143.20216
G1 X81.504 Y115.997 E143.28417
G1 X71.378 Y105.871 E144.59953
G1 X71.378 Y106.764 E144.68153
G1 X80.611 Y115.997 E145.88091
G1 X79.718 Y115.997 E145.96292
G1 X71.378 Y107.657 E147.04632
G1 X71.378 Y108.550 E147.12833
G1 X78.825 Y115.997 E148.09576
G1 X77.933 Y115.997 E148.17777
G1 X71.378 Y109.442 E149.02922
G1 X71.378 Y110.335 E149.11123
G1 X77.040 Y115.997 E149.84671
G1 X76.147 Y115.997 E149.92871
G1 X71.378 Y111.228 E150.54822
G1 X71.378 Y112.121 E150.63023
G1 X75.254 Y115.997 E151.13376
G1 X74.362 Y115.997 E151.21576
G1 X71.378 Y113.013 E151.60332
G1 X71.378 Y113.906 E151.68533
G1 X73.469 Y115.997 E151.95691
G1 X72.576 Y115.997 E152.03891
G1 X71.378 Y114.799 E152.19452
G1 X71.378 Y115.692 E152.27653
G1 X71.683 Y115.997 E152.31616
G1 E150.31616 F2400.00000
M103 ; extruder off
G1 X129.000 Y95.375 F7800.000
M101 ; extruder on
G1 E152.31616 F2400.00000
G1 X72.200 Y95.375 E157.48100 F1800.000
G1 X72.200 Y84.575 E158.46308
G1 X129.000 Y84.575 E163.62792
G1 X129.000 Y95.315 E164.60454
G1 X129.625 Y96.000 F7800.000
M101 ; extruder on
G1 X71.575 Y96.000 E169.88303 F1800.000
G1 X71.575 Y83.950 E170.97875
G1 X129.625 Y83.950 E176.25723
G1 X129.625 Y95.940 E177.34750
G1 X130.250 Y96.625 F7800.000
M101 ; extruder on
G1 X70.950 Y96.625 E182.73962 F1800.000
G1 X70.950 Y83.325 E183.94898
G1 X130.250 Y83.325 E189.34111
G1 X130.250 Y96.565 E190.54501
G1 X129.904 Y96.425 F7800.000
G1 X128.622 Y85.258 F7800.000
M101 ; extruder on
G1 X128.317 Y84.953 E190.58430 F1800.000
G1 X127.432 Y84.953 E190.66485
G1 X128.622 Y86.143 E190.81806
G1 X128.622 Y87.028 E190.89862
G1 X126.547 Y84.953 E191.16575
G1 X125.662 Y84.953 E191.24630
G1 X128.622 Y87.913 E191.62735
G1 X128.622 Y88.798 E191.70791
G1 X124.777 Y84.953 E192.20288
G1 X123.892 Y84.953 E192.28343
G1 X128.622 Y89.683 E192.89233
G1 X128.622 Y90.567 E192.97289
G1 X123.008 Y84.953 E193.69570
G1 X122.123 Y84.953 E193.77626
G1 X128.622 Y91.452 E194.61300
G1 X128.622 Y92.337 E194.69355
G1 X121.238 Y84.953 E195.64421
G1 X120.353 Y84.953 E195.72477
G1 X128.622 Y93.222 E196.78935
G1 X128.622 Y94.107 E196.86991
G1 X119.468 Y84.953 E198.04841
G1 X118.584 Y84.953 E198.12897
G1 X128.604 Y94.974 E199.41916
G1 X127.742 Y94.997 E199.49768
G1 X117.699 Y84.953 E200.79078
G1 X116.814 Y84.953 E200.87133
G1 X126.857 Y94.997 E202.16443
G1 X125.972 Y94.997 E202.24499
G1 X115.929 Y84.953 E203.53808
G1 X115.044 Y84.953 E203.61864
G1 X125.088 Y94.997 E204.91173
G1 X124.203 Y94.997 E204.99229
G1 X114.159 Y84.953 E206.28539
G1 X113.275 Y84.953 E206.36594
G1 X123.318 Y94.997 E207.65904
G1 X122.433 Y94.997 E207.73959
G1 X112.390 Y84.953 E209.03269
G1 X111.505 Y84.953 E209.11325
G1 X121.548 Y94.997 E210.40634
G1 X120.663 Y94.997 E210.48690
G1 X110.620 Y84.953 E211.78000
G1 X109.735 Y84.953 E211.86055
G1 X119.779 Y94.997 E213.15365
G1 X118.894 Y94.997 E213.23420
G1 X108.851 Y84.953 E214.52730
G1 X107.966 Y84.953 E214.60786
G1 X118.009 Y94.997 E215.90095
G1 X117.124 Y94.997 E215.98151
G1 X107.081 Y84.953 E217.27460
G1 X106.196 Y84.953 E217.35516
G1 X116.239 Y94.997 E218.64826
G1 X115.355 Y94.997 E218.72881
G1 X105.311 Y84.953 E220.02191
G1 X104.426 Y84.953 E220.10246
G1 X114.470 Y94.997 E221.39556
G1 X113.585 Y94.997 E221.47612
G1 X103.542 Y84.953 E222.76921
G1 X102.657 Y84.953 E222.84977
G1 X112.700 Y94.997 E224.14287
G1 X111.815 Y94.997 E224.22342
G1 X101.772 Y84.953 E225.51652
G1 X100.887 Y84.953 E225.59707
G1 X110.931 Y94.997 E226.89017
G1 X110.046 Y94.997 E226.97073
G1 X100.002 Y84.953 E228.26382
G1 X99.118 Y84.953 E228.34438
G1 X109.161 Y94.997 E229.63747
G1 X108.276 Y94.997 E229.71803
G1 X98.233 Y84.953 E231.01113
G1 X97.348 Y84.953 E231.09168
G1 X107.391 Y94.997 E232.38478
G1 X106.506 Y94.997 E232.46533
G1 X96.463 Y84.953 E233.75843
G1 X95.578 Y84.953 E233.83899
G1 X105.622 Y94.997 E235.13208
G1 X104.737 Y94.997 E235.21264
G1 X94.694 Y84.953 E236.50574
G1 X93.809 Y84.953 E236.58629
G1 X103.852 Y94.997 E237.87939
G1 X102.967 Y94.997 E237.95994
G1 X92.924 Y84.953 E239.25304
G1 X92.039 Y84.953 E239.33360
G1 X102.082 Y94.997 E240.62669
G1 X101.198 Y94.997 E240.70725
G1 X91.154 Y84.953 E242.00034
G1 X90.269 Y84.953 E242.08090
G1 X100.313 Y94.997 E243.37400
G1 X99.428 Y94.997 E243.45455
G1 X89.385 Y84.953 E244.74765
G1 X88.500 Y84.953 E244.82820
G1 X98.543 Y94.997 E246.12130
G1 X97.658 Y94.997 E246.20186
G1 X87.615 Y84.953 E247.49495
G1 X86.730 Y84.953 E247.57551
G1 X96.773 Y94.997 E248.86861
G1 X95.889 Y94.997 E248.94916
G1 X85.845 Y84.953 E250.24226
G1 X84.961 Y84.953 E250.32281
G1 X95.004 Y94.997 E251.61591
G1 X94.119 Y94.997 E251.69646
G1 X84.076 Y84.953 E252.98956
G1 X83.191 Y84.953 E253.07012
G1 X93.234 Y94.997 E254.36321
G1 X92.349 Y94.997 E254.44377
G1 X82.306 Y84.953 E255.73687
G1 X81.421 Y84.953 E255.81742
G1 X91.465 Y94.997 E257.11052
G1 X90.580 Y94.997 E257.19107
G1 X80.536 Y84.953 E258.48417
G1 X79.652 Y84.953 E258.56473
G1 X89.695 Y94.997 E259.85782
G1 X88.810 Y94.997 E259.93838
G1 X78.767 Y84.953 E261.23147
G1 X77.882 Y84.953 E261.31203
G1 X87.925 Y94.997 E262.60513
G1 X87.040 Y94.997 E262.68568
G1 X76.997 Y84.953 E263.97878
G1 X76.112 Y84.953 E264.05933
G1 X86.156 Y94.997 E265.35243
G1 X85.271 Y94.997 E265.43299
G1 X75.228 Y84.953 E266.72608
G1 X74.343 Y84.953 E266.80664
G1 X84.386 Y94.997 E268.09973
G1 X83.501 Y94.997 E268.18029
G1 X73.458 Y84.953 E269.47339
G1 X72.596 Y84.976 E269.55191
G1 X82.616 Y94.997 E270.84209
G1 X81.732 Y94.997 E270.92265
G1 X72.578 Y85.843 E272.10115
G1 X72.578 Y86.728 E272.18170
G1 X80.847 Y94.997 E273.24628
G1 X79.962 Y94.997 E273.32684
G1 X72.578 Y87.613 E274.27749
G1 X72.578 Y88.498 E274.35805
G1 X79.077 Y94.997 E275.19478
G1 X78.192 Y94.997 E275.27534
G1 X72.578 Y89.383 E275.99815
G1 X72.578 Y90.267 E276.07871
G1 X77.308 Y94.997 E276.68760
G1 X76.423 Y94.997 E276.76815
G1 X72.578 Y91.152 E277.26312
G1 X72.578 Y92.037 E277.34367
G1 X75.538 Y94.997 E277.72472
G1 X74.653 Y94.997 E277.80528
G1 X72.578 Y92.922 E278.07240
G1 X72.578 Y93.807 E278.15295
G1 X73.768 Y94.997 E278.30616
G1 X72.883 Y94.997 E278.38671
G1 X72.578 Y94.692 E278.42599
M104 S240 T0 ; set temperature
M140 S125 ; wait for bed temperature to be reached
M73 P0
G1 Z0.550 F7800.000
G1 E276.42599 F2400.00000
M103 ; extruder off
G1 X129.279 Y105.016 F7800.000
M101 ; extruder on
G1 E278.42599 F2400.00000
G1 X129.279 Y116.654 E279.03402 F3600.000
G1 X70.721 Y116.654 E282.09337
G1 X70.721 Y105.016 E282.70139
G1 X129.219 Y105.016 E285.75762
G1 X129.907 Y104.388 F7800.000
M101 ; extruder on
G1 X129.907 Y117.282 E286.43129 F3600.000
G1 X70.093 Y117.282 E289.55630
G1 X70.093 Y104.388 E290.22998
G1 X129.847 Y104.388 E293.35185
G1 X130.400 Y103.895 F7800.000
M101 ; extruder on
G1 X130.400 Y117.775 E293.76397 F1800.000
G1 X69.600 Y117.775 E295.56920
G1 X69.600 Y103.895 E295.98131
G1 X130.340 Y103.895 E297.78476
G1 X130.200 Y104.241 F7800.000
G1 X128.592 Y116.273 F7800.000
M101 ; extruder on
G1 X128.898 Y115.967 E297.80759 F1200.000
G1 X128.898 Y115.071 E297.85474
G1 X127.696 Y116.273 E297.94425
G1 X126.801 Y116.273 E297.99141
G1 X128.898 Y114.176 E298.14760
G1 X128.898 Y113.280 E298.19475
G1 X125.905 Y116.273 E298.41763
G1 X125.010 Y116.273 E298.46478
G1 X128.898 Y112.385 E298.75435
G1 X128.898 Y111.489 E298.80150
G1 X124.114 Y116.273 E299.15775
G1 X123.218 Y116.273 E299.20490
G1 X128.898 Y110.593 E299.62783
G1 X128.898 Y109.698 E299.67498
G1 X122.323 Y116.273 E300.16459
G1 X121.427 Y116.273 E300.21174
G1 X128.898 Y108.802 E300.76804
G1 X128.898 Y107.907 E300.81519
G1 X120.532 Y116.273 E301.43817
G1 X119.636 Y116.273 E301.48532
G1 X128.898 Y107.011 E302.17499
G1 X128.898 Y106.116 E302.22214
G1 X118.741 Y116.273 E302.97849
G1 X117.845 Y116.273 E303.02564
G1 X128.722 Y105.397 E303.83553
G1 X127.826 Y105.397 E303.88268
G1 X116.950 Y116.273 E304.69258
G1 X116.054 Y116.273 E304.73973
G1 X126.931 Y105.397 E305.54962
G1 X126.035 Y105.397 E305.59677
G1 X115.159 Y116.273 E306.40667
G1 X114.263 Y116.273 E306.45382
G1 X125.140 Y105.397 E307.26371
G1 X124.244 Y105.397 E307.31086
G1 X113.368 Y116.273 E308.12076
G1 X112.472 Y116.273 E308.16791
G1 X123.349 Y105.397 E308.97780
G1 X122.453 Y105.397 E309.02496
G1 X111.577 Y116.273 E309.83485
G1 X110.681 Y116.273 E309.88200
G1 X121.558 Y105.397 E310.69189
G1 X120.662 Y105.397 E310.73905
G1 X109.786 Y116.273 E311.54894
G1 X108.890 Y116.273 E311.59609
G1 X119.767 Y105.397 E312.40598
G1 X118.871 Y105.397 E312.45314
G1 X107.995 Y116.273 E313.26303
G1 X107.099 Y116.273 E313.31018
G1 X117.976 Y105.397 E314.12007
G1 X117.080 Y105.397 E314.16723
G1 X106.204 Y116.273 E314.97712
G1 X105.308 Y116.273 E315.02427
G1 X116.184 Y105.397 E315.83417
G1 X115.289 Y105.397 E315.88132
G1 X104.413 Y116.273 E316.69121
G1 X103.517 Y116.273 E316.73836
G1 X114.393 Y105.397 E317.54826
G1 X113.498 Y105.397 E317.59541
G1 X102.621 Y116.273 E318.40530
G1 X101.726 Y116.273 E318.45245
G1 X112.602 Y105.397 E319.26235
G1 X111.707 Y105.397 E319.30950
G1 X100.830 Y116.273 E320.11939
G1 X99.935 Y116.273 E320.16654
G1 X110.811 Y105.397 E320.97644
G1 X109.916 Y105.397 E321.02359
G1 X99.039 Y116.273 E321.83348
G1 X98.144 Y116.273 E321.88063
G1 X109.020 Y105.397 E322.69053
G1 X108.125 Y105.397 E322.73768
G1 X97.248 Y116.273 E323.54757
G1 X96.353 Y116.273 E323.59472
G1 X107.229 Y105.397 E324.40462
G1 X106.334 Y105.397 E324.45177
G1 X95.457 Y116.273 E325.26166
G1 X94.562 Y116.273 E325.30882
G1 X105.438 Y105.397 E326.11871
G1 X104.543 Y105.397 E326.16586
G1 X93.666 Y116.273 E326.97575
G1 X92.771 Y116.273 E327.02291
G1 X103.647 Y105.397 E327.83280
G1 X102.752 Y105.397 E327.87995
G1 X91.875 Y116.273 E328.68984
G1 X90.980 Y116.273 E328.73700
G1 X101.856 Y105.397 E329.54689
G1 X100.961 Y105.397 E329.59404
G1 X90.084 Y116.273 E330.40393
G1 X89.189 Y116.273 E330.45109
G1 X100.065 Y105.397 E331.26098
G1 X99.170 Y105.397 E331.30813
G1 X88.293 Y116.273 E332.11803
G1 X87.398 Y116.273 E332.16518
G1 X98.274 Y105.397 E332.97507
G1 X97.378 Y105.397 E333.02222
G1 X86.502 Y116.273 E333.83212
G1 X85.607 Y116.273 E333.87927
G1 X96.483 Y105.397 E334.68916
G1 X95.587 Y105.397 E334.73631
G1 X84.711 Y116.273 E335.54621
G1 X83.815 Y116.273 E335.59336
G1 X94.692 Y105.397 E336.40325
G1 X93.796 Y105.397 E336.45040
G1 X82.920 Y116.273 E337.26030
