; generated by Slic3r 1.2.9 on 2017-04-17 at 22:38:23

; external perimeters extrusion width = 0.40mm
; perimeters extrusion width = 0.67mm
; infill extrusion width = 0.67mm
; solid infill extrusion width = 0.67mm
; top infill extrusion width = 0.67mm

M127
M104 S250 T0 ; set temperature
G28 ; home all axes
G1 Z5 F5000 ; lift nozzle

M73 P0
G1 Z0.350 F7800.000
G1 E-2.00000 F2400.00000
M103 ; extruder off
G1 X67.081 Y71.331 F7800.000
M101 ; extruder on
G1 E0.00000 F2400.00000
G1 X68.834 Y69.852 E0.20854 F1800.000
G1 X70.986 Y69.059 E0.41708
G1 X72.166 Y68.953 E0.52479
G1 X73.696 Y68.953 E0.66397
G1 X75.955 Y69.350 E0.87251
M101 ; extruder on
G1 X77.943 Y70.493 E1.08106 F1800.000
G1 X79.423 Y72.246 E1.28960
G1 X80.215 Y74.398 E1.49814
G1 X80.321 Y75.578 E1.60585
G1 X80.321 Y124.422 E6.04721
G1 X79.924 Y126.681 E6.25576
G1 X78.781 Y128.669 E6.46430
G1 X77.028 Y130.148 E6.67284
G1 X74.876 Y130.941 E6.88138
G1 X73.696 Y131.047 E6.98909
G1 X72.166 Y131.047 E7.12827
G1 X69.907 Y130.650 E7.33681
G1 X67.919 Y129.507 E7.54535
G1 X66.440 Y127.754 E7.75390
G1 X65.647 Y125.602 E7.96244
G1 X65.541 Y124.422 E8.07015
G1 X65.541 Y75.578 E12.51151
G1 X65.938 Y73.319 E12.72006
G1 X67.051 Y71.383 E12.92314
G1 E10.92314 F2400.00000
M103 ; extruder off
G1 X73.346 Y124.072 F7800.000
M101 ; extruder on
G1 E12.92314 F2400.00000
G1 X72.516 Y124.072 E12.99867 F1800.000
G1 X72.516 Y75.928 E17.37638
G1 X73.346 Y75.928 E17.45191
G1 X73.346 Y124.012 E21.82417
G1 X73.000 Y123.872 F7800.000
G1 X72.931 Y123.760 F7800.000
M101 ; extruder on
G1 X72.931 Y76.240 E26.14505 F1800.000
M104 S240 T0 ; set temperature
M140 S125 ; wait for bed temperature to be reached
M73 P0
G1 Z0.550 F7800.000
G1 X73.004 Y123.729 F7800.000
M101 ; extruder on
G1 X71.966 Y123.729 E26.19928 F3600.000
M101 ; extruder on
G1 X71.944 Y123.729 E26.20041 F3600.000
G1 X71.944 Y104.758 E27.19155
G1 X71.888 Y104.758 E27.19450
G1 X71.888 Y76.271 E28.68283
G1 X71.966 Y76.271 E28.68692
M101 ; extruder on
G1 X73.004 Y76.271 E28.74114 F3600.000
G1 X73.004 Y123.669 E31.21748
G1 X73.496 Y124.222 F7800.000
M101 ; extruder on
G1 X71.966 Y124.222 E31.26292 F1800.000
M101 ; extruder on
G1 X71.451 Y124.222 E31.28980 F3600.000
G1 X71.451 Y105.251 E32.28094
G1 X71.395 Y105.251 E32.28389
G1 X71.395 Y75.778 E33.82370
G1 X71.966 Y75.778 E33.85353
M101 ; extruder on
G1 X73.496 Y75.778 E33.89897 F1800.000
G1 X73.496 Y124.162 E35.33556
G1 X73.150 Y124.022 F7800.000
G1 X72.474 Y123.415 F7800.000
M101 ; extruder on
G1 X72.474 Y104.444 E37.38553 F1200.000
G1 X72.446 Y104.288 E37.40268
G1 X72.446 Y76.585 E40.39624
M73 P1
G1 Z0.750 F7800.000
G1 X71.944 Y104.758 F7800.000
M101 ; extruder on
G1 X71.531 Y104.758 E40.41781 F3600.000
G1 X71.531 Y94.244 E40.96715
G1 X71.561 Y94.244 E40.96871
G1 X71.561 Y76.271 E41.90771
G1 X73.004 Y76.271 E41.98308
G1 X73.004 Y123.729 E44.46255
G1 X71.944 Y123.729 E44.51791
G1 X71.944 Y104.818 E45.50591
G1 X71.451 Y105.251 F7800.000
M101 ; extruder on
G1 X71.039 Y105.251 E45.51817 F1800.000
G1 X71.039 Y93.751 E45.85962
G1 X71.069 Y93.751 E45.86051
G1 X71.069 Y75.778 E46.39415
G1 X73.496 Y75.778 E46.46624
G1 X73.496 Y124.222 E47.90460
G1 X71.451 Y124.222 E47.96532
G1 X71.451 Y105.311 E48.52681
G1 X71.451 Y104.851 F7800.000
G1 X72.474 Y123.415 F7800.000
M101 ; extruder on
G1 X72.474 Y104.444 E50.57679 F1200.000
G1 X72.268 Y104.022 E50.62756
G1 X72.282 Y76.585 E53.59239
M126
M73 P2
G1 Z0.950 F7800.000
G1 X71.803 Y104.130 F7800.000
M101 ; extruder on
G1 X71.803 Y94.872 E54.07607 F900.000
G1 X72.375 Y94.872 E54.10597
G1 X72.375 Y104.130 E54.58965
G1 X71.863 Y104.130 E54.61642
G1 X71.944 Y104.758 F7800.000
M101 ; extruder on
G1 X71.175 Y104.758 E54.65661 F3600.000
G1 X71.175 Y94.244 E55.20595
G1 X71.561 Y94.244 E55.22613
G1 X71.561 Y76.271 E56.16513
G1 X73.004 Y76.271 E56.24050
G1 X73.004 Y123.729 E58.71997
G1 X71.944 Y123.729 E58.77533
G1 X71.944 Y104.818 E59.76333
G1 X71.451 Y105.251 F7800.000
M101 ; extruder on
G1 X70.682 Y105.251 E59.78617 F1800.000
G1 X70.682 Y93.751 E60.12762
G1 X71.069 Y93.751 E60.13909
G1 X71.069 Y75.778 E60.67273
G1 X73.496 Y75.778 E60.74482
G1 X73.496 Y124.222 E62.18319
G1 X71.451 Y124.222 E62.24391
G1 X71.451 Y105.311 E62.80540
G1 X71.451 Y104.851 F7800.000
G1 X72.474 Y104.444 F7800.000
M101 ; extruder on
G1 X72.474 Y123.415 E64.85538 F1200.000
G1 X72.282 Y94.558 F7800.000
M101 ; extruder on
G1 X72.282 Y76.585 E66.79751 F1200.000
M126
M73 P2
G1 Z1.150 F7800.000
G1 X71.447 Y104.130 F7800.000
M101 ; extruder on
G1 X71.447 Y94.872 E67.28119 F900.000
G1 X72.375 Y94.872 E67.32971
G1 X72.375 Y104.130 E67.81340
G1 X71.507 Y104.130 E67.85878
G1 X71.944 Y104.758 F7800.000
M101 ; extruder on
G1 X70.818 Y104.758 E67.91760 F3600.000
G1 X70.818 Y94.244 E68.46693
G1 X71.561 Y94.244 E68.50574
G1 X71.561 Y76.271 E69.44473
G1 X73.004 Y76.271 E69.52010
G1 X73.004 Y123.729 E71.99957
G1 X71.944 Y123.729 E72.05493
G1 X71.944 Y104.818 E73.04293
G1 X71.451 Y105.251 F7800.000
M101 ; extruder on
G1 X70.326 Y105.251 E73.07636 F1800.000
G1 X70.326 Y93.751 E73.41781
G1 X71.069 Y93.751 E73.43986
G1 X71.069 Y75.778 E73.97351
G1 X73.496 Y75.778 E74.04560
G1 X73.496 Y124.222 E75.48396
G1 X71.451 Y124.222 E75.54468
G1 X71.451 Y105.311 E76.10617
G1 X71.451 Y104.851 F7800.000
G1 X72.474 Y104.444 F7800.000
M101 ; extruder on
G1 X72.474 Y123.415 E78.15615 F1200.000
G1 X71.911 Y103.816 F7800.000
M101 ; extruder on
G1 X71.911 Y95.186 E78.60700 F1200.000
G1 X72.282 Y94.558 F7800.000
M101 ; extruder on
G1 X72.282 Y76.585 E80.54914 F1200.000
M73 P3
G1 Z1.350 F7800.000
G1 X71.139 Y104.130 F7800.000
M101 ; extruder on
G1 X71.139 Y94.872 E81.03282 F900.000
G1 X72.375 Y94.872 E81.09740
G1 X72.375 Y104.130 E81.58109
G1 X71.199 Y104.130 E81.64254
G1 X71.944 Y104.758 F7800.000
M101 ; extruder on
G1 X70.511 Y104.758 E81.71742 F3600.000
G1 X70.511 Y94.244 E82.26675
G1 X71.561 Y94.244 E82.32162
G1 X71.561 Y76.271 E83.26062
G1 X73.004 Y76.271 E83.33599
G1 X73.004 Y123.729 E85.81546
G1 X71.944 Y123.729 E85.87082
G1 X71.944 Y104.818 E86.85882
G1 X71.451 Y105.251 F7800.000
M101 ; extruder on
G1 X70.018 Y105.251 E86.90138 F1800.000
G1 X70.018 Y93.751 E87.24283
G1 X71.069 Y93.751 E87.27401
G1 X71.069 Y75.778 E87.80765
G1 X73.496 Y75.778 E87.87974
G1 X73.496 Y124.222 E89.31811
G1 X71.451 Y124.222 E89.37883
G1 X71.451 Y105.311 E89.94032
G1 X71.451 Y104.851 F7800.000
G1 X72.474 Y104.444 F7800.000
M101 ; extruder on
G1 X72.474 Y123.415 E91.99029 F1200.000
G1 X71.757 Y103.816 F7800.000
M101 ; extruder on
G1 X71.757 Y95.186 E92.92280 F1200.000
G1 X72.282 Y94.558 F7800.000
M101 ; extruder on
G1 X72.282 Y76.585 E94.86493 F1200.000
M126
M73 P4
G1 Z1.550 F7800.000
G1 X72.573 Y122.556 F7800.000
M101 ; extruder on
G1 X73.896 Y122.556 E94.93411 F3600.000
M101 ; extruder on
M126
G1 X93.076 Y122.556 E95.93616 F3600.000
G1 X93.076 Y123.101 E95.96463
G1 X73.896 Y123.101 E96.96669
M126
M101 ; extruder on
G1 X72.573 Y123.101 E97.03586 F3600.000
G1 X72.573 Y122.616 E97.06120
G1 X72.421 Y104.130 F7800.000
M101 ; extruder on
G1 X70.927 Y104.130 E97.13929 F900.000
G1 X70.927 Y94.872 E97.62297
G1 X72.421 Y94.872 E97.70107
G1 X72.421 Y104.070 E98.18161
G1 E96.18161 F2400.00000
M103 ; extruder off
G1 X119.720 Y122.556 F7800.000
M101 ; extruder on
G1 E98.18161 F2400.00000
M126
G1 X119.720 Y116.397 E98.50339 F3600.000
G1 X121.724 Y116.397 E98.60809
G1 X121.724 Y87.231 E100.13187
G1 X119.720 Y87.231 E100.23656
G1 X119.720 Y78.875 E100.67311
G1 X132.078 Y91.432 E101.59358
G1 X132.078 Y123.100 E103.24808
G1 X108.921 Y123.101 E104.45797
G1 X108.921 Y122.556 E104.48644
G1 X119.660 Y122.556 E105.04750
M126
G1 E103.04750 F2400.00000
M103 ; extruder off
G1 X73.050 Y121.928 F7800.000
M101 ; extruder on
G1 E105.04750 F2400.00000
G1 X73.896 Y121.928 E105.09173 F3600.000
M101 ; extruder on
M126
G1 X93.705 Y121.928 E106.12661 F3600.000
G1 X93.705 Y123.729 E106.22074
G1 X73.896 Y123.729 E107.25562
M126
M101 ; extruder on
G1 X71.944 Y123.729 E107.35762 F3600.000
G1 X71.944 Y104.758 E108.34876
G1 X70.298 Y104.758 E108.43474
G1 X70.298 Y94.244 E108.98407
G1 X71.561 Y94.244 E109.05005
G1 X71.561 Y76.271 E109.98905
G1 X73.896 Y76.271 E110.11105
M101 ; extruder on
M126
G1 X118.038 Y76.271 E112.41720 F3600.000
G1 X132.707 Y91.175 E113.50974
G1 X132.707 Y123.728 E115.21051
G1 X108.292 Y123.729 E116.48605
G1 X108.292 Y121.928 E116.58017
G1 X119.091 Y121.928 E117.14437
G1 X119.091 Y115.769 E117.46614
G1 X121.095 Y115.769 E117.57084
G1 X121.095 Y87.859 E119.02897
G1 X119.091 Y87.859 E119.13366
G1 X119.091 Y77.618 E119.66871
G1 X112.892 Y77.618 E119.99257
G1 X112.892 Y77.555 E119.99586
G1 X90.805 Y77.555 E121.14982
G1 X90.805 Y77.618 E121.15311
G1 X73.896 Y77.618 E122.03648
M126
M101 ; extruder on
G1 X73.050 Y77.618 E122.08072 F3600.000
G1 X73.050 Y121.868 E124.39252
G1 X73.543 Y121.435 F7800.000
M101 ; extruder on
G1 X73.896 Y121.435 E124.40303 F1800.000
M101 ; extruder on
M126
G1 X94.197 Y121.435 E125.46366 F3600.000
G1 X94.197 Y124.222 E125.60926
G1 X73.896 Y124.222 E126.66989
M126
M101 ; extruder on
G1 X71.451 Y124.222 E126.74248 F1800.000
G1 X71.451 Y105.251 E127.30576
G1 X69.806 Y105.251 E127.35462
G1 X69.806 Y93.751 E127.69607
G1 X71.069 Y93.751 E127.73356
G1 X71.069 Y75.778 E128.26721
G1 X73.896 Y75.778 E128.35117
M101 ; extruder on
M126
G1 X118.244 Y75.778 E130.66810 F3600.000
G1 X133.200 Y90.973 E131.78197
G1 X133.200 Y124.221 E133.51902
G1 X107.799 Y124.222 E134.84604
G1 X107.799 Y121.435 E134.99165
G1 X118.598 Y121.435 E135.55584
G1 X118.598 Y115.276 E135.87762
G1 X120.602 Y115.276 E135.98232
G1 X120.602 Y88.352 E137.38896
G1 X118.598 Y88.352 E137.49366
G1 X118.598 Y78.111 E138.02870
G1 X112.400 Y78.111 E138.35256
G1 X112.400 Y78.048 E138.35585
G1 X91.297 Y78.048 E139.45833
G1 X91.297 Y78.111 E139.46162
G1 X73.896 Y78.111 E140.37073
M126
M101 ; extruder on
G1 X73.543 Y78.111 E140.38124 F1800.000
G1 X73.543 Y121.375 E141.66581
G1 X73.543 Y121.789 F7800.000
G1 X72.497 Y122.242 F7800.000
M101 ; extruder on
G1 X72.497 Y104.444 E143.58900 F1200.000
G1 X71.674 Y103.816 F7800.000
M101 ; extruder on
G1 X71.674 Y95.186 E144.52150 F1200.000
G1 X72.305 Y94.558 F7800.000
M101 ; extruder on
G1 X72.305 Y77.304 E146.38591 F1200.000
G1 X72.342 Y77.052 E146.41346
G1 X72.736 Y76.944 E146.45750
G1 X90.287 Y76.944 E148.35411
G1 X90.491 Y76.913 E148.37634
G1 X113.206 Y76.913 E150.83097
G1 X117.755 Y76.944 E151.32253
G1 X112.153 Y76.944 E151.92789
G1 E149.92789 F2400.00000
M103 ; extruder off
G1 X122.043 Y81.840 F7800.000
M101 ; extruder on
G1 E151.92789 F2400.00000
M126
G1 X120.069 Y79.866 E152.07418 F3600.000
G1 X120.049 Y80.483 E152.10653
G1 X131.749 Y92.183 E152.97354
G1 X131.749 Y92.821 E153.00693
G1 X120.049 Y81.121 E153.87393
G1 X120.049 Y81.758 E153.90732
G1 X131.749 Y93.458 E154.77432
G1 X131.749 Y94.095 E154.80771
G1 X120.049 Y82.395 E155.67471
G1 X120.049 Y83.032 E155.70810
G1 X131.749 Y94.732 E156.57510
G1 X131.749 Y95.370 E156.60849
G1 X120.049 Y83.669 E157.47549
G1 X120.049 Y84.307 E157.50888
G1 X131.749 Y96.007 E158.37589
G1 X131.749 Y96.644 E158.40928
G1 X120.049 Y84.944 E159.27628
G1 X120.049 Y85.581 E159.30967
G1 X121.369 Y86.902 E159.40752
G1 X120.732 Y86.902 E159.44090
G1 X120.049 Y86.218 E159.49153
M126
G1 X122.053 Y87.585 F7800.000
M101 ; extruder on
M126
G1 X131.749 Y97.281 E160.21003 F3600.000
G1 X131.749 Y97.918 E160.24342
G1 X122.053 Y88.222 E160.96193
G1 X122.053 Y88.860 E160.99531
G1 X131.749 Y98.556 E161.71382
G1 X131.749 Y99.193 E161.74721
G1 X122.053 Y89.497 E162.46571
G1 X122.053 Y90.134 E162.49910
G1 X131.749 Y99.830 E163.21760
G1 X131.749 Y100.467 E163.25099
G1 X122.053 Y90.771 E163.96949
G1 X122.053 Y91.408 E164.00288
G1 X131.749 Y101.105 E164.72138
G1 X131.749 Y101.742 E164.75477
G1 X122.053 Y92.046 E165.47327
G1 X122.053 Y92.683 E165.50666
G1 X131.749 Y102.379 E166.22516
G1 X131.749 Y103.016 E166.25855
G1 X122.053 Y93.320 E166.97705
G1 X122.053 Y93.957 E167.01044
G1 X131.749 Y103.653 E167.72894
G1 X131.749 Y104.291 E167.76233
G1 X122.053 Y94.595 E168.48084
G1 X122.053 Y95.232 E168.51423
G1 X131.749 Y104.928 E169.23273
G1 X131.749 Y105.565 E169.26612
G1 X122.053 Y95.869 E169.98462
G1 X122.053 Y96.506 E170.01801
G1 X131.749 Y106.202 E170.73651
G1 X131.749 Y106.840 E170.76990
G1 X122.053 Y97.143 E171.48840
G1 X122.053 Y97.781 E171.52179
G1 X131.749 Y107.477 E172.24029
G1 X131.749 Y108.114 E172.27368
G1 X122.053 Y98.418 E172.99218
G1 X122.053 Y99.055 E173.02557
G1 X131.749 Y108.751 E173.74407
G1 X131.749 Y109.388 E173.77746
G1 X122.053 Y99.692 E174.49596
G1 X122.053 Y100.330 E174.52935
G1 X131.749 Y110.026 E175.24786
G1 X131.749 Y110.663 E175.28125
G1 X122.053 Y100.967 E175.99975
G1 X122.053 Y101.604 E176.03314
G1 X131.749 Y111.300 E176.75164
G1 X131.749 Y111.937 E176.78503
G1 X122.053 Y102.241 E177.50353
G1 X122.053 Y102.879 E177.53692
G1 X131.749 Y112.575 E178.25542
G1 X131.749 Y113.212 E178.28881
G1 X122.053 Y103.516 E179.00731
G1 X122.053 Y104.153 E179.04070
G1 X131.749 Y113.849 E179.75920
G1 X131.749 Y114.486 E179.79259
G1 X122.053 Y104.790 E180.51109
G1 X122.053 Y105.427 E180.54448
G1 X131.749 Y115.124 E181.26298
G1 X131.749 Y115.761 E181.29637
G1 X122.053 Y106.065 E182.01488
G1 X122.053 Y106.702 E182.04827
G1 X131.749 Y116.398 E182.76677
G1 X131.749 Y117.035 E182.80016
G1 X122.053 Y107.339 E183.51866
G1 X122.053 Y107.976 E183.55205
G1 X131.749 Y117.672 E184.27055
G1 X131.749 Y118.310 E184.30394
G1 X122.053 Y108.614 E185.02244
G1 X122.053 Y109.251 E185.05583
G1 X131.749 Y118.947 E185.77433
G1 X131.749 Y119.584 E185.80772
G1 X122.053 Y109.888 E186.52622
G1 X122.053 Y110.525 E186.55961
G1 X131.749 Y120.221 E187.27811
G1 X131.749 Y120.859 E187.31150
G1 X122.053 Y111.162 E188.03000
G1 X122.053 Y111.800 E188.06339
G1 X131.749 Y121.496 E188.78190
G1 X131.749 Y122.133 E188.81529
G1 X122.053 Y112.437 E189.53379
G1 X122.053 Y113.074 E189.56718
G1 X131.729 Y122.750 E190.28421
G1 X131.112 Y122.771 E190.31656
G1 X122.053 Y113.711 E190.98787
G1 X122.053 Y114.349 E191.02126
G1 X130.475 Y122.771 E191.64536
G1 X129.838 Y122.771 E191.67875
G1 X122.053 Y114.986 E192.25563
G1 X122.053 Y115.623 E192.28902
G1 X129.201 Y122.771 E192.81868
G1 X128.563 Y122.771 E192.85206
G1 X122.053 Y116.260 E193.33451
M126
G1 X121.882 Y116.726 F7800.000
M101 ; extruder on
M126
G1 X127.926 Y122.771 E193.78240 F3600.000
G1 X127.289 Y122.771 E193.81579
G1 X121.245 Y116.726 E194.26369
G1 X120.607 Y116.726 E194.29708
G1 X126.652 Y122.771 E194.74498
G1 X126.015 Y122.771 E194.77837
G1 X120.049 Y116.805 E195.22044
G1 X120.049 Y117.442 E195.25383
G1 X125.377 Y122.771 E195.64869
G1 X124.740 Y122.771 E195.68207
G1 X120.049 Y118.080 E196.02971
G1 X120.049 Y118.717 E196.06310
G1 X124.103 Y122.771 E196.36352
G1 X123.466 Y122.771 E196.39691
G1 X120.049 Y119.354 E196.65011
G1 X120.049 Y119.991 E196.68350
G1 X122.829 Y122.771 E196.88948
G1 X122.191 Y122.771 E196.92287
G1 X120.049 Y120.628 E197.08163
G1 X120.049 Y121.266 E197.11502
G1 X121.554 Y122.771 E197.22657
G1 X120.917 Y122.771 E197.25996
G1 X120.049 Y121.903 E197.32429
G1 X120.049 Y122.540 E197.35767
G1 X120.280 Y122.771 E197.37479
M126
M127
M73 P4
G1 Z1.750 F7800.000
G1 E195.37479 F2400.00000
M103 ; extruder off
G1 X72.573 Y122.556 F7800.000
M101 ; extruder on
G1 E197.37479 F2400.00000
G1 X93.076 Y122.556 E198.44601 F3600.000
G1 X93.076 Y123.101 E198.47449
G1 X72.573 Y123.101 E199.54571
G1 X72.573 Y122.616 E199.57105
G1 X72.421 Y104.130 F7800.000
M101 ; extruder on
G1 X70.714 Y104.130 E199.66025 F900.000
G1 X70.714 Y94.872 E200.14393
G1 X72.421 Y94.872 E200.23313
G1 X72.421 Y104.070 E200.71367
G1 E198.71367 F2400.00000
M103 ; extruder off
G1 X119.720 Y122.556 F7800.000
M101 ; extruder on
G1 E200.71367 F2400.00000
G1 X119.720 Y116.397 E201.03545 F3600.000
G1 X121.724 Y116.397 E201.14015
G1 X121.724 Y87.231 E202.66392
G1 X119.720 Y87.231 E202.76862
G1 X119.720 Y78.875 E203.20516
G1 X132.078 Y91.432 E204.12564
G1 X132.078 Y123.100 E205.78014
G1 X108.921 Y123.101 E206.99003
G1 X108.921 Y122.556 E207.01850
G1 X119.660 Y122.556 E207.57955
G1 X119.091 Y121.928 F7800.000
M101 ; extruder on
G1 X119.091 Y115.769 E207.90133 F3600.000
G1 X121.095 Y115.769 E208.00603
G1 X121.095 Y87.859 E209.46415
G1 X119.091 Y87.859 E209.56885
