; generated by Slic3r 1.2.9 on 2017-04-17 at 22:41:09

; external perimeters extrusion width = 0.40mm
; perimeters extrusion width = 0.67mm
; infill extrusion width = 0.67mm
; solid infill extrusion width = 0.67mm
; top infill extrusion width = 0.67mm

M127
M104 S250 T0 ; set temperature
G28 ; home all axes
G1 Z5 F5000 ; lift nozzle

M73 P0
G1 Z0.350 F7800.000
G1 E-2.00000 F2400.00000
M103 ; extruder off
G1 X89.280 Y88.499 F7800.000
M101 ; extruder on
G1 E0.00000 F2400.00000
G1 X91.034 Y87.022 E0.20854 F1800.000
G1 X93.187 Y86.232 E0.41708
G1 X94.359 Y86.128 E0.52406
G1 X96.141 Y86.128 E0.68605
G1 X98.400 Y86.525 E0.89459
M101 ; extruder on
G1 X100.825 Y88.068 E1.15604 F1800.000
G1 X111.935 Y99.178 E2.58465
G1 X113.251 Y101.056 E2.79319
G1 X113.875 Y103.862 E3.05461
G1 X113.875 Y105.643 E3.21650
G1 X113.478 Y107.902 E3.42505
G1 X112.335 Y109.890 E3.63359
G1 X110.582 Y111.369 E3.84213
G1 X108.430 Y112.162 E4.05067
G1 X107.257 Y112.268 E4.15770
G1 X95.194 Y112.281 E5.25465
G1 X94.363 Y112.229 E5.33037
G1 X93.323 Y112.030 E5.42664
G1 X92.531 Y111.773 E5.50230
G1 X91.673 Y111.377 E5.58827
G1 X90.779 Y110.810 E5.68457
G1 X90.055 Y110.202 E5.77053
G1 X89.485 Y109.595 E5.84618
G1 X88.863 Y108.738 E5.94247
G1 X88.462 Y108.009 E6.01811
G1 X88.107 Y107.133 E6.10408
G1 X87.844 Y106.107 E6.20040
G1 X87.740 Y105.282 E6.27601
G1 X87.720 Y104.744 E6.32495
G1 X87.734 Y92.744 E7.41610
G1 X88.134 Y90.486 E7.62465
G1 X89.250 Y88.551 E7.82773
G1 E5.82773 F2400.00000
M103 ; extruder off
G1 X95.791 Y104.212 F7800.000
M101 ; extruder on
G1 E7.82773 F2400.00000
G1 X106.900 Y104.212 E8.83789 F1800.000
G1 X106.900 Y105.293 E8.93614
G1 X95.216 Y105.304 E9.99859
G1 X95.068 Y105.276 E10.01223
G1 X94.898 Y105.178 E10.03011
G1 X94.801 Y105.075 E10.04301
G1 X94.749 Y104.985 E10.05247
G1 X94.715 Y104.894 E10.06127
G1 X94.697 Y104.747 E10.07472
G1 X94.709 Y93.102 E11.13357
G1 X95.791 Y93.102 E11.23191
G1 X95.791 Y104.152 E12.23667
G1 X95.791 Y104.612 F7800.000
G1 X95.250 Y93.415 F7800.000
M101 ; extruder on
G1 X95.250 Y104.525 E14.37850 F1800.000
G1 X95.286 Y104.715 E14.41590
G1 X95.478 Y104.752 E14.45370
G1 X106.588 Y104.752 E16.59544
M104 S240 T0 ; set temperature
M140 S125 ; wait for bed temperature to be reached
M73 P1
G1 Z0.550 F7800.000
G1 X95.966 Y104.023 F7800.000
M101 ; extruder on
G1 X106.557 Y104.023 E17.14879 F2030.207
G1 X106.557 Y105.482 E17.22498
G1 X95.204 Y105.480 E17.81812
G1 X94.941 Y105.409 E17.83236
G1 X94.788 Y105.311 E17.84186
G1 X94.660 Y105.175 E17.85162
G1 X94.586 Y105.045 E17.85944
G1 X94.549 Y104.943 E17.86511
G1 X94.523 Y104.735 E17.87606
G1 X94.534 Y93.445 E18.46589
G1 X95.966 Y93.445 E18.54067
G1 X95.966 Y103.963 E19.09019
G1 X96.458 Y103.531 F7800.000
M101 ; extruder on
G1 X107.050 Y103.531 E19.64355 F3600.000
G1 X107.050 Y103.662 E19.65042
M101 ; extruder on
G1 X107.050 Y105.843 E19.71517 F1015.103
M101 ; extruder on
G1 X107.050 Y105.974 E19.72204 F3600.000
G1 X95.173 Y105.973 E20.34254
G1 X95.027 Y105.954 E20.35024
G1 X94.730 Y105.858 E20.36657
G1 X94.471 Y105.694 E20.38257
G1 X94.261 Y105.469 E20.39864
G1 X94.137 Y105.252 E20.41172
G1 X94.067 Y105.059 E20.42243
G1 X94.028 Y104.747 E20.43885
G1 X94.042 Y104.562 E20.44855
G1 X94.042 Y92.952 E21.05510
G1 X94.159 Y92.952 E21.06125
M101 ; extruder on
G1 X96.341 Y92.952 E21.12602 F1015.103
M101 ; extruder on
G1 X96.458 Y92.952 E21.13216 F3600.000
G1 X96.458 Y103.471 E21.68168
G1 E19.68168 F2400.00000
M103 ; extruder off
G1 X95.250 Y93.759 F7800.000
M101 ; extruder on
G1 E21.68168 F2400.00000
G1 X95.250 Y104.337 E22.82473 F676.736
G1 X95.322 Y104.686 E22.86325
G1 X95.652 Y104.752 E22.89950
G1 X106.243 Y104.752 E24.04402
M73 P3
G1 Z0.750 F7800.000
G1 E22.04402 F2400.00000
M103 ; extruder off
G1 X95.609 Y104.412 F7800.000
M101 ; extruder on
G1 E24.04402 F2400.00000
G1 X105.929 Y104.412 E24.58319 F3113.979
G1 X105.929 Y105.094 E24.61878
G1 X95.227 Y105.103 E25.17789
G1 X95.100 Y105.070 E25.18473
G1 X94.994 Y104.993 E25.19161
G1 X94.921 Y104.876 E25.19880
G1 X94.891 Y104.661 E25.21013
G1 X94.891 Y94.073 E25.76330
G1 X95.609 Y94.073 E25.80080
G1 X95.609 Y104.352 E26.33782
G1 X96.237 Y103.784 F7800.000
M101 ; extruder on
G1 X106.557 Y103.784 E26.87699 F3113.979
G1 X106.557 Y105.721 E26.97821
G1 X95.188 Y105.731 E27.57219
G1 X94.947 Y105.685 E27.58502
G1 X94.832 Y105.640 E27.59145
G1 X94.725 Y105.581 E27.59789
G1 X94.535 Y105.424 E27.61073
G1 X94.391 Y105.225 E27.62357
G1 X94.338 Y105.113 E27.63001
G1 X94.306 Y105.013 E27.63552
G1 X94.263 Y104.705 E27.65179
G1 X94.263 Y93.445 E28.24004
G1 X96.237 Y93.445 E28.34320
G1 X96.237 Y103.724 E28.88022
G1 X96.730 Y103.291 F7800.000
M101 ; extruder on
G1 X107.050 Y103.291 E29.18663 F1556.990
G1 X107.050 Y106.214 E29.27340
G1 X95.157 Y106.224 E29.62651
G1 X94.794 Y106.155 E29.63748
G1 X94.622 Y106.087 E29.64298
G1 X94.460 Y105.997 E29.64848
G1 X94.175 Y105.762 E29.65945
G1 X93.958 Y105.463 E29.67042
G1 X93.879 Y105.295 E29.67592
G1 X93.823 Y105.124 E29.68127
G1 X93.770 Y104.739 E29.69282
G1 X93.770 Y92.952 E30.04276
G1 X96.730 Y92.952 E30.13064
G1 X96.730 Y103.231 E30.43584
G1 X96.730 Y103.691 F7800.000
G1 E28.43584 F2400.00000
M103 ; extruder off
G1 X95.250 Y94.388 F7800.000
M101 ; extruder on
G1 E30.43584 F2400.00000
G1 X95.261 Y104.748 E30.97714 F1037.993
G1 X105.615 Y104.753 E31.51807
M126
M73 P4
G1 Z0.950 F7800.000
G1 E29.51807 F2400.00000
M103 ; extruder off
G1 X95.783 Y104.197 F7800.000
M101 ; extruder on
G1 E31.51807 F2400.00000
G1 X95.800 Y104.699 E31.54433 F900.000
G1 X95.730 Y105.306 E31.57623
G1 X95.315 Y105.306 E31.59794
G1 X95.129 Y105.288 E31.60768
G1 X95.016 Y105.250 E31.61391
G1 X94.900 Y105.176 E31.62111
G1 X94.810 Y105.074 E31.62819
G1 X94.718 Y104.889 E31.63900
G1 X94.700 Y104.752 E31.64619
G1 X94.711 Y104.349 E31.66728
G1 X95.191 Y104.205 E31.69348
G1 X95.723 Y104.198 E31.72125
G1 X96.390 Y103.561 F7800.000
M101 ; extruder on
G1 X96.429 Y104.725 E31.78209 F900.000
G1 X96.291 Y105.934 E31.84570
G1 X95.284 Y105.934 E31.89830
G1 X95.020 Y105.908 E31.91218
G1 X94.748 Y105.819 E31.92711
G1 X94.498 Y105.661 E31.94255
G1 X94.282 Y105.419 E31.95951
G1 X94.148 Y105.169 E31.97433
G1 X94.108 Y105.046 E31.98110
G1 X94.071 Y104.752 E31.99655
G1 X94.083 Y103.882 E32.04204
G1 X95.095 Y103.578 E32.09726
G1 X96.330 Y103.561 E32.16179
G1 X96.910 Y103.078 F7800.000
M101 ; extruder on
G1 X107.050 Y103.078 E32.46286 F1800.000
G1 X107.050 Y104.159 E32.49497
G1 X96.903 Y104.159 E32.79624
G1 X96.923 Y104.744 E32.81362
G1 X96.854 Y105.345 E32.83158
G1 X107.050 Y105.345 E33.13431
G1 X107.050 Y106.427 E33.16642
G1 X95.260 Y106.427 E33.51649
G1 X94.934 Y106.395 E33.52622
G1 X94.733 Y106.343 E33.53237
G1 X94.538 Y106.266 E33.53861
G1 X94.354 Y106.165 E33.54484
G1 X94.184 Y106.041 E33.55108
G1 X94.033 Y105.899 E33.55724
G1 X93.868 Y105.689 E33.56516
G1 X93.693 Y105.363 E33.57615
G1 X93.630 Y105.168 E33.58223
G1 X93.590 Y104.962 E33.58847
G1 X93.577 Y104.752 E33.59470
G1 X93.590 Y104.549 E33.60076
G1 X93.590 Y92.952 E33.94507
G1 X94.681 Y92.952 E33.97746
G1 X94.681 Y103.188 E34.28136
G1 X95.019 Y103.086 E34.29185
G1 X95.819 Y103.075 E34.31560
G1 X95.819 Y92.952 E34.61616
G1 X96.910 Y92.952 E34.64855
G1 X96.910 Y103.018 E34.94741
G1 X96.910 Y103.478 F7800.000
G1 X96.365 Y103.315 F7800.000
M101 ; extruder on
G1 X96.365 Y93.199 E36.04051 F1200.000
G1 E34.04051 F2400.00000
M103 ; extruder off
G1 X94.135 Y93.199 F7800.000
M101 ; extruder on
G1 E36.04051 F2400.00000
G1 X94.135 Y103.609 E37.16538 F1200.000
G1 X95.398 Y104.617 F7800.000
M101 ; extruder on
G1 X95.122 Y104.893 E37.18577 F1200.000
G1 X96.544 Y105.886 F7800.000
M101 ; extruder on
G1 X106.804 Y105.886 E38.29439 F1200.000
G1 E36.29439 F2400.00000
M103 ; extruder off
G1 X106.804 Y103.619 F7800.000
M101 ; extruder on
G1 E38.29439 F2400.00000
G1 X96.638 Y103.619 E39.39282 F1200.000
M73 P6
G1 Z1.150 F7800.000
G1 X95.963 Y104.054 F7800.000
M101 ; extruder on
G1 X95.956 Y104.842 E39.43399 F900.000
G1 X95.735 Y105.462 E39.46837
G1 X95.117 Y105.451 E39.50068
G1 X94.869 Y105.353 E39.51461
G1 X94.728 Y105.235 E39.52424
G1 X94.627 Y105.095 E39.53323
G1 X94.561 Y104.929 E39.54255
G1 X94.536 Y104.711 E39.55403
G1 X94.536 Y104.364 E39.57216
G1 X95.030 Y104.053 E39.60262
G1 X95.183 Y104.007 E39.61099
G1 X95.317 Y104.007 E39.61799
G1 X95.471 Y104.054 E39.62641
G1 X95.903 Y104.054 E39.64896
G1 X96.590 Y103.425 F7800.000
M101 ; extruder on
G1 X96.580 Y104.921 E39.72707 F900.000
G1 X96.552 Y105.071 E39.73509
G1 X96.171 Y106.090 E39.79188
G1 X95.165 Y106.091 E39.84444
G1 X94.999 Y106.070 E39.85322
G1 X94.679 Y105.966 E39.87077
G1 X94.532 Y105.885 E39.87957
G1 X94.271 Y105.668 E39.89729
G1 X94.075 Y105.398 E39.91469
G1 X93.951 Y105.086 E39.93225
G1 X93.908 Y104.731 E39.95094
G1 X93.908 Y104.017 E39.98822
G1 X94.767 Y103.476 E40.04126
G1 X95.091 Y103.379 E40.05891
G1 X95.409 Y103.379 E40.07558
G1 X95.564 Y103.425 E40.08400
G1 X96.530 Y103.425 E40.13450
G1 X97.084 Y103.683 F7800.000
M101 ; extruder on
G1 X97.070 Y104.982 E40.17310 F1800.000
G1 X97.028 Y105.204 E40.17981
G1 X96.797 Y105.822 E40.19939
G1 X107.050 Y105.822 E40.50382
G1 X107.050 Y106.572 E40.52608
G1 X95.135 Y106.583 E40.87987
G1 X94.906 Y106.554 E40.88670
G1 X94.683 Y106.497 E40.89354
G1 X94.469 Y106.412 E40.90038
G1 X94.267 Y106.301 E40.90722
G1 X94.096 Y106.177 E40.91349
G1 X93.912 Y106.008 E40.92093
G1 X93.766 Y105.831 E40.92774
G1 X93.642 Y105.636 E40.93458
G1 X93.544 Y105.428 E40.94142
G1 X93.473 Y105.209 E40.94826
G1 X93.430 Y104.982 E40.95510
G1 X93.415 Y104.746 E40.96213
G1 X93.416 Y92.952 E41.31230
G1 X94.169 Y92.952 E41.33466
G1 X94.169 Y103.270 E41.64101
G1 X94.561 Y103.024 E41.65475
G1 X95.018 Y102.886 E41.66892
G1 X95.482 Y102.886 E41.68269
G1 X95.636 Y102.933 E41.68748
G1 X96.331 Y102.933 E41.70810
G1 X96.331 Y92.952 E42.00442
G1 X97.084 Y92.952 E42.02678
G1 X97.084 Y102.933 E42.32311
G1 X107.050 Y102.933 E42.61902
G1 X107.050 Y103.683 E42.64129
G1 X97.144 Y103.683 E42.93542
G1 X96.684 Y103.680 F7800.000
G1 X96.837 Y103.308 F7800.000
M101 ; extruder on
G1 X106.804 Y103.308 E43.45614 F1200.000
G1 E41.45614 F2400.00000
M103 ; extruder off
G1 X106.804 Y106.197 F7800.000
M101 ; extruder on
G1 E43.45614 F2400.00000
G1 X96.392 Y106.202 E44.00008 F1200.000
G1 X95.583 Y104.741 F7800.000
M101 ; extruder on
G1 X95.276 Y104.434 E44.02274 F1200.000
G1 X93.792 Y103.799 F7800.000
M101 ; extruder on
G1 X93.793 Y93.199 E44.57653 F1200.000
G1 E42.57653 F2400.00000
M103 ; extruder off
G1 X96.707 Y93.199 F7800.000
M101 ; extruder on
G1 E44.57653 F2400.00000
G1 X96.707 Y103.179 E45.09795 F1200.000
M73 P7
G1 Z1.350 F7800.000
G1 X96.081 Y103.908 F7800.000
M101 ; extruder on
G1 X96.090 Y104.718 E45.14026 F900.000
G1 X96.062 Y104.961 E45.15302
G1 X95.748 Y105.597 E45.19006
G1 X95.318 Y105.597 E45.21255
G1 X95.078 Y105.572 E45.22514
G1 X94.893 Y105.511 E45.23530
G1 X94.716 Y105.398 E45.24628
G1 X94.555 Y105.218 E45.25891
G1 X94.438 Y104.961 E45.27365
G1 X94.409 Y104.712 E45.28677
G1 X94.410 Y104.244 E45.31121
G1 X95.030 Y103.853 E45.34948
G1 X95.183 Y103.807 E45.35785
G1 X95.317 Y103.807 E45.36485
G1 X95.653 Y103.908 E45.38320
G1 X96.021 Y103.908 E45.40243
G1 X96.703 Y103.280 F7800.000
M101 ; extruder on
G1 X96.719 Y104.735 E45.47842 F900.000
G1 X96.672 Y105.117 E45.49858
G1 X96.619 Y105.280 E45.50753
G1 X96.130 Y106.225 E45.56307
G1 X95.285 Y106.225 E45.60722
G1 X94.967 Y106.192 E45.62394
G1 X94.625 Y106.081 E45.64274
G1 X94.464 Y105.992 E45.65237
G1 X94.184 Y105.761 E45.67127
G1 X93.964 Y105.460 E45.69081
G1 X93.828 Y105.117 E45.71003
G1 X93.781 Y104.731 E45.73037
G1 X93.782 Y103.897 E45.77397
G1 X94.767 Y103.276 E45.83479
G1 X95.091 Y103.179 E45.85244
G1 X95.409 Y103.179 E45.86910
G1 X95.746 Y103.280 E45.88745
G1 X96.643 Y103.280 E45.93432
G1 X96.600 Y102.787 F7800.000
M101 ; extruder on
G1 X96.600 Y92.952 E46.22633 F1800.000
G1 X97.199 Y92.952 E46.24414
G1 X97.199 Y102.787 E46.53615
G1 X107.050 Y102.787 E46.82863
G1 X107.050 Y103.414 E46.84724
G1 X97.197 Y103.414 E47.13978
G1 X97.212 Y104.747 E47.17937
G1 X97.196 Y104.998 E47.18684
G1 X97.150 Y105.240 E47.19415
G1 X97.075 Y105.471 E47.20135
G1 X96.754 Y106.091 E47.22208
G1 X107.050 Y106.091 E47.52777
G1 X107.050 Y106.718 E47.54637
G1 X95.260 Y106.718 E47.89643
G1 X94.880 Y106.679 E47.90777
G1 X94.644 Y106.618 E47.91501
G1 X94.415 Y106.527 E47.92233
G1 X94.199 Y106.409 E47.92964
G1 X94.000 Y106.264 E47.93695
G1 X93.821 Y106.096 E47.94422
G1 X93.641 Y105.870 E47.95282
G1 X93.531 Y105.697 E47.95889
G1 X93.426 Y105.475 E47.96620
G1 X93.350 Y105.240 E47.97351
G1 X93.304 Y104.998 E47.98083
G1 X93.288 Y104.746 E47.98832
G1 X93.301 Y92.952 E48.33850
G1 X93.900 Y92.952 E48.35631
G1 X93.900 Y103.240 E48.66175
G1 X94.561 Y102.824 E48.68492
G1 X95.018 Y102.686 E48.69910
G1 X95.482 Y102.686 E48.71287
G1 X95.818 Y102.787 E48.72329
G1 X96.540 Y102.787 E48.74471
G1 X97.000 Y102.787 F7800.000
G1 X96.899 Y103.034 F7800.000
M101 ; extruder on
G1 X96.899 Y93.199 E49.25853 F1200.000
G1 E47.25853 F2400.00000
M103 ; extruder off
G1 X93.600 Y93.199 F7800.000
M101 ; extruder on
G1 E49.25853 F2400.00000
G1 X93.595 Y103.723 E49.80838 F1200.000
G1 X94.795 Y104.689 F7800.000
M101 ; extruder on
G1 X95.145 Y104.339 E49.83753 F1200.000
G1 X95.603 Y104.883 E49.87938
G1 X95.270 Y105.216 E49.90712
G1 X96.315 Y106.404 F7800.000
M101 ; extruder on
G1 X106.804 Y106.404 E50.45510 F1200.000
G1 E48.45510 F2400.00000
M103 ; extruder off
G1 X106.804 Y103.101 F7800.000
M101 ; extruder on
G1 E50.45510 F2400.00000
G1 X96.947 Y103.101 E50.97004 F1200.000
M126
M73 P9
G1 Z1.550 F7800.000
G1 X96.194 Y103.819 F7800.000
M101 ; extruder on
G1 X96.194 Y104.690 E51.01554 F798.435
G1 X96.160 Y104.986 E51.03110
G1 X96.074 Y105.205 E51.04341
G1 X95.766 Y105.690 E51.07342
G1 X95.074 Y105.676 E51.10957
G1 X94.874 Y105.612 E51.12055
G1 X94.656 Y105.482 E51.13379
G1 X94.565 Y105.396 E51.14034
G1 X94.426 Y105.205 E51.15265
G1 X94.340 Y104.986 E51.16496
G1 X94.306 Y104.708 E51.17960
G1 X94.306 Y104.109 E51.21090
G1 X95.030 Y103.653 E51.25555
G1 X95.183 Y103.607 E51.26392
G1 X95.317 Y103.607 E51.27093
G1 X95.470 Y103.653 E51.27930
G1 X95.734 Y103.819 E51.29557
G1 X96.134 Y103.819 E51.31645
G1 X96.822 Y103.191 F7800.000
M101 ; extruder on
G1 X96.822 Y104.710 E51.39581 F798.435
G1 X96.807 Y104.949 E51.40833
G1 X96.770 Y105.143 E51.41862
G1 X96.625 Y105.508 E51.43917
G1 X96.111 Y106.318 E51.48928
G1 X95.151 Y106.319 E51.53944
G1 X94.956 Y106.294 E51.54973
G1 X94.594 Y106.177 E51.56958
G1 X94.318 Y106.012 E51.58640
G1 X94.106 Y105.827 E51.60111
G1 X93.875 Y105.509 E51.62166
G1 X93.730 Y105.143 E51.64221
G1 X93.693 Y104.948 E51.65259
G1 X93.678 Y104.729 E51.66403
G1 X93.678 Y103.762 E51.71456
G1 X94.767 Y103.076 E51.78179
G1 X95.091 Y102.979 E51.79944
G1 X95.409 Y102.979 E51.81611
G1 X95.733 Y103.076 E51.83376
G1 X95.915 Y103.191 E51.84501
G1 X96.762 Y103.191 E51.88925
G1 X97.315 Y103.226 F7800.000
M101 ; extruder on
G1 X97.315 Y104.725 E51.93378 F1596.869
G1 X97.297 Y105.011 E51.94228
G1 X97.248 Y105.266 E51.94997
G1 X97.168 Y105.512 E51.95766
G1 X97.058 Y105.746 E51.96536
G1 X96.720 Y106.279 E51.98410
G1 X107.050 Y106.279 E52.29083
G1 X107.050 Y106.807 E52.30648
G1 X95.120 Y106.811 E52.66069
G1 X94.863 Y106.779 E52.66838
G1 X94.612 Y106.715 E52.67607
G1 X94.375 Y106.621 E52.68365
G1 X94.046 Y106.423 E52.69505
G1 X93.746 Y106.165 E52.70680
G1 X93.581 Y105.965 E52.71449
G1 X93.442 Y105.746 E52.72218
G1 X93.332 Y105.512 E52.72987
G1 X93.252 Y105.266 E52.73757
G1 X93.203 Y105.011 E52.74527
G1 X93.185 Y104.746 E52.75315
G1 X93.185 Y92.952 E53.10331
G1 X93.720 Y92.952 E53.11920
G1 X93.720 Y103.153 E53.42207
G1 X94.561 Y102.624 E53.45156
G1 X95.018 Y102.486 E53.46573
G1 X95.482 Y102.486 E53.47950
G1 X95.939 Y102.624 E53.49367
G1 X96.058 Y102.698 E53.49783
G1 X96.780 Y102.698 E53.51927
G1 X96.780 Y92.952 E53.80864
G1 X97.315 Y92.952 E53.82453
G1 X97.315 Y102.698 E54.11390
G1 X107.050 Y102.698 E54.40295
G1 X107.050 Y103.226 E54.41860
G1 X97.375 Y103.226 E54.70587
G1 X96.915 Y103.226 F7800.000
G1 X95.813 Y104.507 F7800.000
M101 ; extruder on
G1 X95.506 Y104.200 E54.74105 F1064.579
G1 X94.746 Y104.820 E54.82062
G1 X95.170 Y105.244 E54.86925
M73 P11
