; generated by Slic3r 1.2.9 on 2017-04-17 at 22:46:02

; external perimeters extrusion width = 0.40mm
; perimeters extrusion width = 0.67mm
; infill extrusion width = 0.67mm
; solid infill extrusion width = 0.67mm
; top infill extrusion width = 0.67mm

M127
M104 S250 T0 ; set temperature
G28 ; home all axes
G1 Z5 F5000 ; lift nozzle

M73 P0
G1 Z0.350 F7800.000
G1 E-2.00000 F2400.00000
M103 ; extruder off
G1 X41.856 Y65.049 F7800.000
M101 ; extruder on
G1 E0.00000 F2400.00000
G1 X43.354 Y64.184 E0.15725 F1800.000
G1 X45.913 Y63.124 E0.40917
G1 X47.584 Y62.676 E0.56641
G1 X50.330 Y62.315 E0.81831
G1 X51.195 Y62.258 E0.89712
G1 X148.805 Y62.258 E9.77276
G1 X149.670 Y62.315 E9.85156
M101 ; extruder on
G1 X152.416 Y62.676 E10.10347 F1800.000
G1 X154.087 Y63.124 E10.26071
G1 X156.646 Y64.184 E10.51262
G1 X158.144 Y65.049 E10.66988
G1 X158.307 Y65.174 E10.68855
G1 X160.342 Y66.735 E10.92180
G1 X161.565 Y67.958 E11.07904
G1 X163.251 Y70.156 E11.33096
G1 X164.116 Y71.654 E11.48821
G1 X165.176 Y74.213 E11.74013
G1 X165.624 Y75.884 E11.89737
G1 X165.985 Y78.630 E12.14930
G1 X166.042 Y79.495 E12.22808
G1 X166.042 Y120.505 E15.95710
G1 X165.985 Y121.370 E16.03588
G1 X165.624 Y124.117 E16.28782
G1 X165.176 Y125.787 E16.44505
G1 X164.116 Y128.346 E16.69697
G1 X163.251 Y129.844 E16.85423
G1 X161.565 Y132.042 E17.10614
G1 X160.342 Y133.265 E17.26339
G1 X158.144 Y134.951 E17.51529
G1 X156.646 Y135.816 E17.67256
G1 X154.087 Y136.876 E17.92448
G1 X152.416 Y137.324 E18.08171
G1 X149.670 Y137.685 E18.33362
G1 X148.805 Y137.742 E18.41243
G1 X51.195 Y137.742 E27.28806
G1 X50.330 Y137.685 E27.36687
G1 X47.584 Y137.324 E27.61877
G1 X45.913 Y136.876 E27.77601
G1 X43.354 Y135.816 E28.02793
G1 X41.856 Y134.951 E28.18519
G1 X39.658 Y133.265 E28.43710
G1 X38.435 Y132.042 E28.59434
G1 X36.749 Y129.844 E28.84626
G1 X35.884 Y128.346 E29.00352
G1 X34.824 Y125.787 E29.25544
G1 X34.376 Y124.117 E29.41266
G1 X34.015 Y121.370 E29.66458
G1 X33.958 Y120.505 E29.74339
G1 X33.958 Y79.495 E33.47241
G1 X34.015 Y78.630 E33.55121
G1 X34.376 Y75.883 E33.80313
G1 X34.824 Y74.213 E33.96036
G1 X35.805 Y71.843 E34.19359
G1 X35.884 Y71.654 E34.21228
G1 X36.749 Y70.156 E34.36953
G1 X38.435 Y67.958 E34.62145
G1 X39.658 Y66.735 E34.77869
G1 X41.808 Y65.085 E35.02516
G1 E33.02516 F2400.00000
M103 ; extruder off
G1 X54.861 Y128.450 F7800.000
M101 ; extruder on
G1 E35.02516 F2400.00000
G1 X54.605 Y127.164 E35.14441 F1800.000
G1 X54.073 Y127.384 E35.19678
G1 X51.800 Y127.683 E35.40527
G1 X49.527 Y127.384 E35.61377
G1 X47.408 Y126.507 E35.82226
G1 X45.911 Y125.358 E35.99383
G1 X44.548 Y123.582 E36.19741
G1 X43.574 Y121.229 E36.42894
G1 X43.250 Y118.769 E36.65459
G1 X43.250 Y109.327 E37.51314
G1 X43.316 Y108.827 E37.55903
G1 X44.193 Y106.708 E37.76751
G1 X44.781 Y105.943 E37.85521
G1 X43.250 Y105.533 E37.99929
G1 X43.250 Y81.231 E40.20906
G1 X43.410 Y80.014 E40.32071
G1 X43.059 Y80.014 E40.35267
G1 X44.512 Y76.506 E40.69789
G1 X44.481 Y76.506 E40.70073
G1 X46.098 Y74.398 E40.94234
G1 X48.118 Y72.848 E41.17385
G1 X50.476 Y71.872 E41.40588
G1 X59.087 Y71.872 E42.18890
G1 X59.273 Y71.550 E42.22267
G1 X73.577 Y71.550 E43.52337
G1 X73.763 Y71.872 E43.55714
G1 X83.087 Y71.872 E44.40499
G1 X83.273 Y71.550 E44.43876
G1 X97.577 Y71.550 E45.73945
G1 X97.763 Y71.872 E45.77323
G1 X107.087 Y71.872 E46.62108
G1 X107.273 Y71.550 E46.65486
G1 X121.577 Y71.550 E47.95554
G1 X121.763 Y71.872 E47.98932
G1 X131.087 Y71.872 E48.83716
G1 X131.273 Y71.550 E48.87094
G1 X145.577 Y71.550 E50.17164
G1 X145.763 Y71.872 E50.20541
G1 X149.524 Y71.872 E50.54742
G1 X151.882 Y72.848 E50.77945
G1 X153.902 Y74.398 E51.01097
G1 X155.452 Y76.418 E51.24248
G1 X156.438 Y78.800 E51.47694
G1 X156.286 Y79.064 E51.50464
G1 X156.470 Y79.101 E51.52166
G1 X156.750 Y81.231 E51.71703
G1 X156.750 Y83.276 E51.90300
G1 X156.444 Y83.358 E51.93175
G1 X156.750 Y83.887 E51.98730
G1 X156.750 Y85.276 E52.11355
G1 X156.444 Y85.805 E52.16909
G1 X156.750 Y85.886 E52.19785
G1 X156.750 Y90.291 E52.59835
G1 X156.444 Y90.373 E52.62710
G1 X156.750 Y90.902 E52.68266
G1 X156.750 Y92.117 E52.79316
G1 X156.444 Y92.646 E52.84871
G1 X156.750 Y92.728 E52.87747
G1 X156.750 Y97.133 E53.27797
G1 X156.444 Y97.215 E53.30672
G1 X156.750 Y97.744 E53.36227
G1 X156.750 Y99.132 E53.48852
G1 X156.444 Y99.661 E53.54407
G1 X156.750 Y99.743 E53.57282
G1 X156.750 Y104.147 E53.97333
G1 X156.444 Y104.229 E54.00208
G1 X156.750 Y104.758 E54.05763
G1 X156.750 Y105.974 E54.16814
G1 X156.444 Y106.503 E54.22369
G1 X156.750 Y106.585 E54.25244
G1 X156.750 Y110.989 E54.65295
G1 X156.444 Y111.071 E54.68170
G1 X156.750 Y111.600 E54.73724
G1 X156.750 Y112.988 E54.86349
G1 X156.444 Y113.517 E54.91904
G1 X156.750 Y113.599 E54.94779
G1 X156.750 Y118.004 E55.34830
G1 X156.444 Y118.086 E55.37705
G1 X156.766 Y118.643 E55.43560
G1 X156.569 Y120.144 E55.57319
G1 X153.033 Y126.268 E56.21627
G1 X151.882 Y127.152 E56.34821
G1 X149.529 Y128.126 E56.57973
G1 X147.069 Y128.450 E56.80538
G1 X54.921 Y128.450 E65.18433
G1 X55.374 Y127.825 F7800.000
M101 ; extruder on
G1 X55.246 Y127.181 E65.24402 F1800.000
G1 X56.674 Y126.590 E65.38459
G1 X56.625 Y126.504 E65.39360
G1 X58.197 Y125.297 E65.57383
G1 X58.874 Y124.415 E65.67494
G1 X59.469 Y124.415 E65.72901
G1 X59.213 Y123.973 E65.77544
G1 X59.635 Y123.424 E65.83839
G1 X60.539 Y121.242 E66.05315
G1 X60.609 Y120.706 E66.10224
G1 X61.209 Y120.587 E66.15782
G1 X60.733 Y119.763 E66.24428
G1 X60.850 Y118.877 E66.32558
G1 X60.850 Y118.479 E66.36177
G1 X61.444 Y117.451 E66.46975
G1 X60.850 Y117.451 E66.52374
G1 X60.850 Y114.209 E66.81853
G1 X61.479 Y114.040 E66.87773
G1 X60.850 Y112.951 E66.99211
G1 X60.850 Y111.638 E67.11154
G1 X61.381 Y110.719 E67.20803
G1 X60.781 Y110.599 E67.26362
G1 X60.539 Y108.758 E67.43244
G1 X59.635 Y106.577 E67.64719
G1 X58.197 Y104.703 E67.86194
G1 X56.323 Y103.265 E68.07670
G1 X54.142 Y102.361 E68.29145
G1 X51.800 Y102.053 E68.50620
G1 X49.458 Y102.361 E68.72095
G1 X47.277 Y103.265 E68.93570
G1 X46.848 Y103.594 E68.98487
G1 X45.402 Y103.594 E69.11630
G1 X44.468 Y105.212 E69.28621
G1 X43.875 Y105.054 E69.34201
G1 X43.875 Y91.822 E70.54516
G1 X44.504 Y91.653 E70.60437
G1 X44.421 Y91.510 E70.61947
G1 X44.504 Y91.366 E70.63458
G1 X43.875 Y91.197 E70.69378
G1 X43.875 Y81.272 E71.59627
G1 X44.123 Y79.389 E71.76899
G1 X43.994 Y79.389 E71.78069
G1 X45.094 Y76.733 E72.04204
G1 X46.544 Y74.844 E72.25859
G1 X48.433 Y73.394 E72.47514
G1 X50.600 Y72.497 E72.68840
G1 X59.448 Y72.497 E73.49292
G1 X59.634 Y72.175 E73.52669
G1 X73.216 Y72.175 E74.76177
G1 X73.402 Y72.497 E74.79555
G1 X83.448 Y72.497 E75.70901
G1 X83.634 Y72.175 E75.74278
G1 X97.216 Y72.175 E76.97785
G1 X97.402 Y72.497 E77.01163
G1 X107.448 Y72.497 E77.92510
G1 X107.634 Y72.175 E77.95887
G1 X121.216 Y72.175 E79.19395
G1 X121.402 Y72.497 E79.22772
G1 X131.448 Y72.497 E80.14118
G1 X131.634 Y72.175 E80.17496
G1 X145.216 Y72.175 E81.41004
G1 X145.402 Y72.497 E81.44381
G1 X149.400 Y72.497 E81.80733
G1 X151.567 Y73.394 E82.02058
G1 X153.456 Y74.844 E82.23713
G1 X154.906 Y76.733 E82.45368
G1 X155.743 Y78.755 E82.65264
G1 X155.309 Y79.507 E82.73161
G1 X155.908 Y79.626 E82.78720
G1 X156.125 Y81.272 E82.93813
G1 X156.125 Y82.797 E83.07678
G1 X155.496 Y82.965 E83.13598
G1 X156.125 Y84.055 E83.25035
G1 X156.125 Y85.108 E83.34615
G1 X155.496 Y86.197 E83.46052
G1 X156.125 Y86.366 E83.51973
G1 X156.125 Y89.812 E83.83303
G1 X155.496 Y89.980 E83.89224
G1 X156.125 Y91.069 E84.00661
G1 X156.125 Y91.950 E84.08667
G1 X155.496 Y93.039 E84.20104
G1 X156.125 Y93.208 E84.26025
G1 X156.125 Y96.653 E84.57355
G1 X155.496 Y96.822 E84.63276
G1 X156.125 Y97.911 E84.74713
G1 X156.125 Y98.965 E84.84293
G1 X155.496 Y100.054 E84.95731
G1 X156.125 Y100.222 E85.01651
G1 X156.125 Y103.668 E85.32981
G1 X155.496 Y103.836 E85.38902
G1 X156.125 Y104.926 E85.50339
G1 X156.125 Y105.806 E85.58345
G1 X155.496 Y106.896 E85.69782
G1 X156.125 Y107.064 E85.75703
G1 X156.125 Y110.510 E86.07033
G1 X155.496 Y110.678 E86.12953
G1 X156.125 Y111.767 E86.24391
G1 X156.125 Y112.821 E86.33971
G1 X155.496 Y113.910 E86.45408
G1 X156.125 Y114.079 E86.51328
G1 X156.125 Y117.524 E86.82658
G1 X155.496 Y117.693 E86.88579
G1 X156.119 Y118.772 E86.99910
G1 X155.966 Y119.939 E87.10610
G1 X152.554 Y125.848 E87.72657
G1 X151.567 Y126.606 E87.83973
G1 X149.366 Y127.517 E88.05629
G1 X147.028 Y127.825 E88.27074
G1 X55.434 Y127.825 E96.59933
G1 X54.978 Y127.877 F7800.000
G1 X54.789 Y126.411 F7800.000
M101 ; extruder on
G1 X53.910 Y126.775 E96.68578 F1800.000
G1 X51.800 Y127.053 E96.87931
G1 X49.690 Y126.775 E97.07285
G1 X47.723 Y125.961 E97.26638
G1 X46.357 Y124.912 E97.42299
G1 X45.094 Y123.267 E97.61161
G1 X44.183 Y121.066 E97.82817
G1 X43.875 Y118.728 E98.04262
G1 X43.875 Y109.368 E98.89371
G1 X43.925 Y108.990 E98.92840
G1 X44.739 Y107.023 E99.12193
G1 X46.035 Y105.335 E99.31546
G1 X47.723 Y104.039 E99.50899
G1 X49.690 Y103.225 E99.70252
G1 X51.362 Y103.005 E99.85586
M101 ; extruder on
G1 X51.800 Y102.947 E99.89605 F1800.000
G1 X53.910 Y103.225 E100.08959
G1 X55.877 Y104.039 E100.28312
G1 X57.565 Y105.335 E100.47665
G1 X58.861 Y107.023 E100.67018
G1 X59.675 Y108.990 E100.86371
G1 X59.950 Y111.077 E101.05514
G1 X59.950 Y118.923 E101.76856
G1 X59.675 Y121.010 E101.95999
G1 X58.861 Y122.977 E102.15352
G1 X57.565 Y124.665 E102.34705
G1 X55.877 Y125.961 E102.54058
G1 X54.844 Y126.388 E102.64220
G1 X54.736 Y126.808 F7800.000
G1 X54.348 Y129.075 F7800.000
M101 ; extruder on
G1 X147.110 Y129.075 E111.07697 F1800.000
G1 X149.692 Y128.735 E111.31382
G1 X152.197 Y127.697 E111.56031
G1 X153.512 Y126.688 E111.71103
G1 X157.172 Y120.348 E112.37671
G1 X157.414 Y118.515 E112.54489
G1 X157.375 Y118.447 E112.55196
G1 X157.375 Y81.190 E115.93973
G1 X157.079 Y78.941 E116.14600
G1 X157.134 Y78.846 E116.15598
G1 X155.997 Y76.103 E116.42594
G1 X154.347 Y73.953 E116.67241
G1 X152.197 Y72.303 E116.91889
G1 X149.648 Y71.247 E117.16971
G1 X146.124 Y71.247 E117.49021
G1 X145.938 Y70.925 E117.52398
G1 X130.912 Y70.925 E118.89030
G1 X130.726 Y71.247 E118.92407
G1 X122.124 Y71.247 E119.70630
G1 X121.938 Y70.925 E119.74007
G1 X106.912 Y70.925 E121.10637
G1 X106.726 Y71.247 E121.14015
G1 X98.124 Y71.247 E121.92240
G1 X97.938 Y70.925 E121.95618
G1 X82.912 Y70.925 E123.32247
G1 X82.726 Y71.247 E123.35625
G1 X74.124 Y71.247 E124.13848
G1 X73.938 Y70.925 E124.17225
G1 X58.912 Y70.925 E125.53856
G1 X58.726 Y71.247 E125.57234
G1 X50.352 Y71.247 E126.33385
G1 X47.803 Y72.303 E126.58467
G1 X45.653 Y73.953 E126.83114
G1 X43.214 Y77.131 E127.19545
G1 X43.577 Y77.131 E127.22848
G1 X42.491 Y79.751 E127.48630
G1 X42.174 Y79.666 E127.51619
G1 X42.503 Y77.166 E127.74544
G1 X43.402 Y74.996 E127.95904
G1 X44.832 Y73.132 E128.17265
G1 X46.696 Y71.702 E128.38625
G1 X48.866 Y70.803 E128.59986
G1 X51.300 Y70.483 E128.82308
G1 X148.700 Y70.483 E137.67964
G1 X151.134 Y70.803 E137.90287
G1 X153.304 Y71.702 E138.11647
G1 X155.168 Y73.132 E138.33008
G1 X156.598 Y74.996 E138.54368
G1 X157.497 Y77.166 E138.75729
G1 X157.817 Y79.600 E138.98051
G1 X157.817 Y120.400 E142.69046
G1 X157.497 Y122.834 E142.91368
G1 X156.598 Y125.004 E143.12729
G1 X155.168 Y126.868 E143.34089
G1 X153.304 Y128.298 E143.55450
G1 X151.134 Y129.197 E143.76810
G1 X148.700 Y129.517 E143.99132
G1 X51.300 Y129.517 E152.84789
G1 X48.866 Y129.197 E153.07111
G1 X46.696 Y128.298 E153.28471
G1 X44.832 Y126.868 E153.49832
G1 X43.402 Y125.004 E153.71192
G1 X42.503 Y122.834 E153.92553
G1 X42.183 Y120.400 E154.14875
G1 X42.183 Y80.639 E157.76425
G1 X42.698 Y80.639 E157.81111
G1 X42.625 Y81.190 E157.86170
G1 X42.625 Y106.013 E160.11879
G1 X43.687 Y106.297 E160.21878
G1 X42.707 Y108.664 E160.45167
G1 X42.625 Y109.286 E160.50877
G1 X42.625 Y118.810 E161.37476
G1 X42.965 Y121.392 E161.61162
G1 X44.003 Y123.897 E161.85811
G1 X45.466 Y125.804 E162.07665
G1 X47.093 Y127.052 E162.26319
G1 X49.364 Y127.993 E162.48664
G1 X51.800 Y128.314 E162.71009
G1 X54.136 Y128.006 E162.92432
G1 X54.337 Y129.016 E163.01795
G1 X54.348 Y130.142 F7800.000
M101 ; extruder on
G1 X51.259 Y130.142 E163.29888 F1800.000
G1 X48.703 Y129.806 E163.53330
G1 X46.381 Y128.844 E163.76187
G1 X44.386 Y127.314 E163.99043
G1 X42.856 Y125.319 E164.21900
G1 X41.894 Y122.997 E164.44757
G1 X41.558 Y120.441 E164.68199
G1 X41.558 Y79.559 E168.39939
G1 X41.894 Y77.003 E168.63382
G1 X42.856 Y74.681 E168.86238
G1 X44.386 Y72.686 E169.09095
G1 X46.381 Y71.156 E169.31952
G1 X48.703 Y70.194 E169.54808
G1 X51.259 Y69.858 E169.78251
G1 X148.741 Y69.858 E178.64652
G1 X151.221 Y70.184 E178.87395
M101 ; extruder on
G1 X151.297 Y70.194 E178.88095 F1800.000
G1 X153.619 Y71.156 E179.10952
G1 X155.614 Y72.686 E179.33808
G1 X157.144 Y74.681 E179.56665
G1 X158.106 Y77.003 E179.79521
G1 X158.442 Y79.559 E180.02964
G1 X158.442 Y120.441 E183.74704
G1 X158.106 Y122.997 E183.98147
G1 X157.144 Y125.319 E184.21003
G1 X155.614 Y127.314 E184.43860
G1 X153.619 Y128.844 E184.66717
G1 X151.297 Y129.806 E184.89573
G1 X148.741 Y130.142 E185.13016
G1 X54.408 Y130.142 E193.70779
G1 E191.70779 F2400.00000
M103 ; extruder off
G1 X45.832 Y104.703 F7800.000
M101 ; extruder on
G1 E193.70779 F2400.00000
G1 X45.601 Y104.500 E193.73577 F1800.000
G1 X45.763 Y104.219 E193.76528
G1 X46.045 Y104.219 E193.79091
G1 X46.131 Y104.474 E193.81534
G1 X45.880 Y104.667 E193.84417
G1 E191.84417 F2400.00000
M103 ; extruder off
G1 X40.933 Y104.703 F7800.000
M101 ; extruder on
G1 E193.84417 F2400.00000
G1 X40.933 Y79.518 E196.13425 F1800.000
G1 X41.285 Y76.840 E196.37988
G1 X42.310 Y74.365 E196.62341
G1 X43.941 Y72.241 E196.86693
G1 X46.065 Y70.610 E197.11046
G1 X48.540 Y69.585 E197.35399
G1 X51.218 Y69.233 E197.59962
G1 X148.782 Y69.233 E206.47108
G1 X151.302 Y69.565 E206.70223
M101 ; extruder on
G1 X151.460 Y69.585 E206.71671 F1800.000
G1 X153.935 Y70.610 E206.96024
G1 X156.059 Y72.241 E207.20377
G1 X157.690 Y74.365 E207.44729
G1 X158.715 Y76.840 E207.69082
G1 X159.067 Y79.518 E207.93645
G1 X159.067 Y120.482 E211.66130
G1 X158.715 Y123.160 E211.90693
G1 X157.690 Y125.635 E212.15046
G1 X156.059 Y127.759 E212.39399
G1 X153.935 Y129.390 E212.63752
G1 X151.460 Y130.415 E212.88104
G1 X148.782 Y130.767 E213.12667
G1 X51.218 Y130.767 E221.99814
G1 X48.540 Y130.415 E222.24377
G1 X46.065 Y129.390 E222.48729
G1 X43.941 Y127.759 E222.73082
G1 X42.310 Y125.635 E222.97435
G1 X41.285 Y123.160 E223.21788
G1 X40.933 Y120.482 E223.46351
G1 X40.933 Y104.763 E224.89282
G1 X41.279 Y104.503 F7800.000
G1 E222.89282 F2400.00000
M103 ; extruder off
G1 X147.225 Y72.847 F7800.000
M101 ; extruder on
G1 E224.89282 F2400.00000
G1 X144.769 Y77.101 E225.33952 F1800.000
G1 X144.450 Y77.408 E225.37974
G1 X144.450 Y77.899 E225.42436
G1 X144.769 Y78.205 E225.46459
G1 X147.119 Y82.276 E225.89196
G1 X147.225 Y82.705 E225.93218
G1 X147.650 Y82.950 E225.97681
G1 X148.141 Y83.196 E226.02670
G1 X148.075 Y82.460 F7800.000
M101 ; extruder on
G1 X146.800 Y82.828 E226.14736 F1800.000
G1 X145.625 Y82.828 E226.25420
G1 X145.428 Y82.854 E226.27230
G1 X145.306 Y83.012 E226.29039
G1 X144.719 Y84.029 E226.39723
G1 X144.400 Y84.336 E226.43745
G1 X144.400 Y84.827 E226.48208
G1 X144.719 Y85.133 E226.52230
G1 X145.306 Y86.151 E226.62914
G1 X145.428 Y86.309 E226.64723
G1 X145.625 Y86.335 E226.66533
G1 X146.800 Y86.335 E226.77217
G1 X148.075 Y86.703 E226.89283
G1 X148.079 Y85.967 F7800.000
M101 ; extruder on
G1 X147.225 Y86.458 E226.98243 F1800.000
G1 X147.119 Y86.887 E227.02265
G1 X144.769 Y90.958 E227.45002
G1 X144.450 Y91.264 E227.49024
G1 X144.450 Y91.755 E227.53487
G1 X144.769 Y92.062 E227.57509
G1 X147.119 Y96.132 E228.00246
G1 X147.225 Y96.561 E228.04268
G1 X147.650 Y96.807 E228.08731
G1 X148.111 Y97.114 E228.13764
G1 X147.584 Y96.202 F7800.000
M101 ; extruder on
G1 X147.225 Y96.561 E228.18384 F1800.000
G1 X146.800 Y96.684 E228.22407
G1 X145.625 Y96.684 E228.33091
G1 X145.428 Y96.711 E228.34900
G1 X145.306 Y96.868 E228.36710
G1 X144.719 Y97.886 E228.47394
G1 X144.400 Y98.192 E228.51416
G1 X144.400 Y98.683 E228.55879
G1 X144.719 Y98.990 E228.59901
G1 X145.306 Y100.007 E228.70585
G1 X145.428 Y100.165 E228.72395
G1 X145.625 Y100.191 E228.74204
G1 X146.800 Y100.191 E228.84889
G1 X147.225 Y100.314 E228.88911
G1 X148.550 Y100.314 E229.00958
G1 X148.141 Y99.823 F7800.000
