; generated by Slic3r 1.2.9 on 2017-04-17 at 23:17:01

; external perimeters extrusion width = 0.40mm
; perimeters extrusion width = 0.67mm
; infill extrusion width = 0.67mm
; solid infill extrusion width = 0.67mm
; top infill extrusion width = 0.67mm

M127
M104 S250 T0 ; set temperature
G28 ; home all axes
G1 Z5 F5000 ; lift nozzle

M73 P0
G1 Z0.350 F7800.000
G1 E-2.00000 F2400.00000
M103 ; extruder off
G1 X38.228 Y65.533 F7800.000
M101 ; extruder on
G1 E0.00000 F2400.00000
G1 X39.726 Y64.669 E0.15727 F1800.000
G1 X42.429 Y63.549 E0.42331
G1 X44.100 Y63.101 E0.58056
G1 X47.000 Y62.720 E0.84660
G1 X47.865 Y62.663 E0.92539
G1 X152.135 Y62.663 E10.40662
M101 ; extruder on
G1 X153.000 Y62.720 E10.48541 F1800.000
G1 X155.900 Y63.101 E10.75145
G1 X157.571 Y63.549 E10.90870
G1 X160.274 Y64.669 E11.17474
G1 X161.772 Y65.533 E11.33201
G1 X164.093 Y67.315 E11.59804
G1 X165.315 Y68.537 E11.75527
G1 X167.097 Y70.858 E12.02130
G1 X167.961 Y72.356 E12.17857
G1 X169.081 Y75.059 E12.44460
G1 X169.529 Y76.730 E12.60187
G1 X169.911 Y79.631 E12.86792
G1 X169.967 Y80.495 E12.94669
G1 X169.967 Y119.505 E16.49385
G1 X169.911 Y120.369 E16.57263
G1 X169.529 Y123.270 E16.83868
G1 X169.081 Y124.941 E16.99594
G1 X167.961 Y127.644 E17.26197
G1 X167.097 Y129.142 E17.41924
G1 X165.315 Y131.463 E17.68528
G1 X164.093 Y132.685 E17.84250
G1 X161.772 Y134.467 E18.10853
G1 X160.274 Y135.331 E18.26581
G1 X157.571 Y136.451 E18.53184
G1 X155.900 Y136.899 E18.68910
G1 X153.000 Y137.280 E18.95514
G1 X152.135 Y137.337 E19.03393
G1 X47.865 Y137.337 E28.51515
G1 X47.000 Y137.280 E28.59394
G1 X44.100 Y136.899 E28.85998
G1 X42.429 Y136.451 E29.01724
G1 X39.726 Y135.331 E29.28327
G1 X38.228 Y134.467 E29.44054
G1 X35.907 Y132.685 E29.70658
G1 X34.685 Y131.463 E29.86380
G1 X32.903 Y129.142 E30.12983
G1 X32.039 Y127.644 E30.28711
G1 X30.919 Y124.941 E30.55314
G1 X30.471 Y123.270 E30.71040
G1 X30.089 Y120.370 E30.97645
G1 X30.033 Y119.505 E31.05522
G1 X30.033 Y80.495 E34.60239
G1 X30.089 Y79.630 E34.68117
G1 X30.471 Y76.730 E34.94722
G1 X30.919 Y75.059 E35.10447
G1 X32.039 Y72.356 E35.37051
G1 X32.903 Y70.858 E35.52778
G1 X34.685 Y68.537 E35.79381
G1 X35.907 Y67.315 E35.95104
G1 X38.181 Y65.570 E36.21161
G1 E34.21161 F2400.00000
M103 ; extruder off
G1 X51.785 Y127.960 F7800.000
M101 ; extruder on
G1 E36.21161 F2400.00000
G1 X51.378 Y126.761 E36.32677 F1800.000
G1 X49.873 Y127.384 E36.47487
G1 X47.600 Y127.683 E36.68337
G1 X46.962 Y127.599 E36.74186
G1 X44.533 Y126.593 E36.98091
G1 X42.408 Y124.962 E37.22453
G1 X40.777 Y122.837 E37.46816
G1 X39.751 Y120.361 E37.71178
G1 X39.410 Y117.769 E37.94954
G1 X39.410 Y108.117 E38.82722
G1 X39.993 Y106.708 E38.96583
G1 X40.437 Y106.130 E39.03214
G1 X39.410 Y105.781 E39.13079
G1 X39.410 Y82.231 E41.27217
G1 X39.661 Y80.323 E41.44722
G1 X39.505 Y80.232 E41.46359
G1 X40.777 Y77.163 E41.76566
G1 X42.408 Y75.038 E42.00928
G1 X45.935 Y72.331 E42.41354
G1 X45.935 Y72.826 E42.45853
G1 X47.009 Y72.381 E42.56421
G1 X49.601 Y72.040 E42.80197
G1 X51.565 Y72.040 E42.98056
G1 X52.248 Y72.434 E43.05226
G1 X52.354 Y72.040 E43.08937
G1 X69.667 Y72.040 E44.66372
G1 X69.773 Y72.435 E44.70089
G1 X70.457 Y72.040 E44.77268
G1 X75.565 Y72.040 E45.23716
G1 X76.248 Y72.434 E45.30885
G1 X76.354 Y72.040 E45.34597
G1 X93.667 Y72.040 E46.92031
G1 X93.773 Y72.435 E46.95749
G1 X94.457 Y72.040 E47.02928
G1 X99.565 Y72.040 E47.49376
G1 X100.248 Y72.434 E47.56545
G1 X100.354 Y72.040 E47.60257
G1 X117.667 Y72.040 E49.17691
G1 X117.773 Y72.435 E49.21408
G1 X118.457 Y72.040 E49.28588
G1 X123.565 Y72.040 E49.75036
G1 X124.248 Y72.434 E49.82205
G1 X124.354 Y72.040 E49.85917
G1 X141.667 Y72.040 E51.43351
G1 X141.773 Y72.435 E51.47068
G1 X142.457 Y72.040 E51.54248
G1 X147.565 Y72.040 E52.00696
G1 X148.248 Y72.434 E52.07865
G1 X148.354 Y72.040 E52.11576
G1 X150.399 Y72.040 E52.30174
G1 X152.810 Y72.358 E52.52289
G1 X152.810 Y72.306 E52.52754
G1 X155.467 Y73.407 E52.78900
G1 X157.592 Y75.038 E53.03262
G1 X158.720 Y76.507 E53.20102
G1 X158.907 Y76.399 E53.22066
G1 X159.931 Y78.872 E53.46410
G1 X159.720 Y79.058 E53.48962
G1 X160.209 Y79.340 E53.54099
G1 X160.590 Y82.231 E53.80614
G1 X160.586 Y118.297 E57.08561
G1 X160.515 Y118.338 E57.09306
G1 X160.249 Y120.361 E57.27861
G1 X159.223 Y122.837 E57.52224
G1 X157.592 Y124.962 E57.76586
G1 X155.467 Y126.593 E58.00949
G1 X152.810 Y127.694 E58.27095
G1 X152.810 Y127.642 E58.27560
G1 X150.399 Y127.960 E58.49674
G1 X146.170 Y127.960 E58.88130
G1 X145.009 Y127.290 E59.00312
G1 X143.849 Y127.960 E59.12493
G1 X122.170 Y127.960 E61.09624
G1 X121.009 Y127.290 E61.21806
G1 X119.849 Y127.960 E61.33987
G1 X98.170 Y127.960 E63.31119
G1 X97.009 Y127.290 E63.43300
G1 X95.849 Y127.960 E63.55481
G1 X74.170 Y127.960 E65.52613
G1 X73.009 Y127.290 E65.64795
G1 X71.849 Y127.960 E65.76976
G1 X51.845 Y127.960 E67.58873
G1 X52.233 Y127.335 F7800.000
M101 ; extruder on
G1 X52.049 Y126.792 E67.64084 F1800.000
G1 X53.997 Y125.297 E67.86417
G1 X55.435 Y123.423 E68.07892
G1 X55.664 Y122.871 E68.13326
G1 X56.614 Y122.323 E68.23304
G1 X56.084 Y121.857 E68.29719
G1 X56.339 Y121.242 E68.35781
G1 X56.563 Y119.542 E68.51372
G1 X57.435 Y119.599 E68.59323
G1 X57.435 Y110.401 E69.42956
G1 X56.563 Y110.458 E69.50907
G1 X56.305 Y108.501 E69.68863
G1 X56.246 Y108.534 E69.69480
G1 X55.435 Y106.577 E69.88751
G1 X53.997 Y104.703 E70.10226
G1 X52.123 Y103.265 E70.31701
G1 X49.942 Y102.361 E70.53176
G1 X47.600 Y102.053 E70.74651
G1 X45.258 Y102.361 E70.96127
G1 X43.077 Y103.265 E71.17602
G1 X41.203 Y104.703 E71.39077
G1 X40.578 Y105.517 E71.48414
G1 X40.035 Y105.333 E71.53625
G1 X40.035 Y82.272 E73.63320
G1 X40.335 Y79.990 E73.84248
G1 X40.292 Y79.965 E73.84699
G1 X41.323 Y77.478 E74.09175
G1 X42.853 Y75.483 E74.32042
G1 X45.310 Y73.599 E74.60197
G1 X45.310 Y73.761 E74.61678
G1 X47.172 Y72.990 E74.80003
G1 X49.642 Y72.665 E75.02658
G1 X51.398 Y72.665 E75.18622
G1 X52.641 Y73.383 E75.31674
G1 X52.833 Y72.665 E75.38431
G1 X69.188 Y72.665 E76.87146
G1 X69.381 Y73.383 E76.93909
G1 X70.624 Y72.665 E77.06971
G1 X75.398 Y72.665 E77.50374
G1 X76.641 Y73.383 E77.63426
G1 X76.833 Y72.665 E77.70183
G1 X93.188 Y72.665 E79.18897
G1 X93.381 Y73.383 E79.25660
G1 X94.625 Y72.665 E79.38723
G1 X99.398 Y72.665 E79.82125
G1 X100.641 Y73.383 E79.95177
G1 X100.833 Y72.665 E80.01934
G1 X117.188 Y72.665 E81.50649
G1 X117.381 Y73.383 E81.57412
G1 X118.624 Y72.665 E81.70474
G1 X123.398 Y72.665 E82.13876
G1 X124.641 Y73.383 E82.26928
G1 X124.833 Y72.665 E82.33685
G1 X141.188 Y72.665 E83.82400
G1 X141.381 Y73.383 E83.89163
G1 X142.624 Y72.665 E84.02225
G1 X147.398 Y72.665 E84.45628
G1 X148.641 Y73.383 E84.58680
G1 X148.833 Y72.665 E84.65437
G1 X150.358 Y72.665 E84.79302
G1 X152.828 Y72.990 E85.01958
G1 X155.151 Y73.953 E85.24824
G1 X157.147 Y75.483 E85.47691
G1 X158.558 Y77.322 E85.68766
G1 X158.602 Y77.297 E85.69233
G1 X159.182 Y78.698 E85.83026
G1 X158.652 Y79.163 E85.89435
G1 X159.630 Y79.727 E85.99699
G1 X159.965 Y82.272 E86.23040
G1 X159.961 Y117.936 E89.47334
G1 X159.936 Y117.951 E89.47602
G1 X159.640 Y120.198 E89.68211
G1 X158.677 Y122.522 E89.91078
G1 X157.147 Y124.517 E90.13944
G1 X155.151 Y126.047 E90.36810
G1 X152.828 Y127.010 E90.59677
G1 X150.358 Y127.335 E90.82332
G1 X146.337 Y127.335 E91.18893
G1 X145.009 Y126.569 E91.32833
G1 X143.682 Y127.335 E91.46772
G1 X122.337 Y127.335 E93.40859
G1 X121.009 Y126.569 E93.54798
G1 X119.682 Y127.335 E93.68737
G1 X98.337 Y127.335 E95.62824
G1 X97.009 Y126.569 E95.76764
G1 X95.682 Y127.335 E95.90702
G1 X74.337 Y127.335 E97.84790
G1 X73.010 Y126.569 E97.98729
G1 X71.682 Y127.335 E98.12668
G1 X52.293 Y127.335 E99.88971
G1 X51.842 Y127.422 F7800.000
G1 X51.666 Y125.965 F7800.000
M101 ; extruder on
G1 X49.710 Y126.775 E100.08216 F1800.000
G1 X47.600 Y127.053 E100.27570
G1 X47.125 Y126.990 E100.31923
G1 X44.848 Y126.047 E100.54332
G1 X42.853 Y124.517 E100.77198
G1 X41.323 Y122.522 E101.00064
G1 X40.360 Y120.198 E101.22931
G1 X40.035 Y117.728 E101.45586
G1 X40.035 Y108.241 E102.31851
G1 X40.539 Y107.023 E102.43834
G1 X41.835 Y105.335 E102.63187
G1 X43.523 Y104.039 E102.82540
G1 X45.490 Y103.225 E103.01893
G1 X45.928 Y103.167 E103.05912
M101 ; extruder on
G1 X47.600 Y102.947 E103.21246 F1800.000
G1 X49.710 Y103.225 E103.40599
G1 X51.677 Y104.039 E103.59952
G1 X53.365 Y105.335 E103.79305
G1 X54.661 Y107.023 E103.98659
G1 X55.475 Y108.990 E104.18012
G1 X55.750 Y111.077 E104.37154
G1 X55.750 Y118.923 E105.08497
G1 X55.475 Y121.010 E105.27640
G1 X54.661 Y122.977 E105.46993
G1 X53.365 Y124.665 E105.66346
G1 X51.715 Y125.931 E105.85261
G1 X51.648 Y126.365 F7800.000
G1 X51.337 Y128.585 F7800.000
M101 ; extruder on
G1 X72.017 Y128.585 E107.73297 F1800.000
G1 X73.009 Y128.012 E107.83721
G1 X74.002 Y128.585 E107.94144
G1 X96.017 Y128.585 E109.94321
G1 X97.009 Y128.012 E110.04744
G1 X98.002 Y128.585 E110.15168
G1 X120.017 Y128.585 E112.15344
G1 X121.009 Y128.012 E112.25768
G1 X122.002 Y128.585 E112.36191
G1 X144.017 Y128.585 E114.36368
G1 X145.009 Y128.012 E114.46791
G1 X146.002 Y128.585 E114.57215
G1 X150.440 Y128.585 E114.97565
G1 X152.185 Y128.355 E115.13573
G1 X152.185 Y128.629 E115.16063
G1 X155.782 Y127.139 E115.51460
G1 X158.038 Y125.408 E115.77319
G1 X159.769 Y123.152 E116.03178
G1 X160.857 Y120.525 E116.29035
G1 X161.094 Y118.725 E116.45538
G1 X161.211 Y118.658 E116.46760
G1 X161.215 Y82.190 E119.78361
G1 X160.789 Y78.953 E120.08050
G1 X160.594 Y78.841 E120.10090
G1 X159.211 Y75.502 E120.42955
G1 X158.882 Y75.692 E120.46415
G1 X158.038 Y74.592 E120.59020
G1 X155.782 Y72.861 E120.84878
G1 X152.185 Y71.371 E121.20276
G1 X152.185 Y71.645 E121.22766
G1 X150.440 Y71.415 E121.38773
G1 X49.560 Y71.415 E130.56068
G1 X46.846 Y71.773 E130.80964
G1 X46.560 Y71.891 E130.83777
G1 X46.560 Y71.073 E130.91214
G1 X47.970 Y70.888 E131.04146
G1 X152.030 Y70.888 E140.50362
G1 X154.618 Y71.228 E140.74097
G1 X156.932 Y72.187 E140.96869
G1 X158.919 Y73.711 E141.19643
G1 X160.443 Y75.698 E141.42416
G1 X161.402 Y78.012 E141.65189
G1 X161.742 Y80.600 E141.88923
G1 X161.742 Y119.400 E145.41733
G1 X161.402 Y121.988 E145.65467
G1 X160.443 Y124.302 E145.88240
G1 X158.919 Y126.289 E146.11013
G1 X156.932 Y127.813 E146.33786
G1 X154.618 Y128.772 E146.56559
G1 X152.030 Y129.112 E146.80293
G1 X47.970 Y129.112 E156.26509
G1 X45.382 Y128.772 E156.50244
G1 X43.068 Y127.813 E156.73017
G1 X41.081 Y126.289 E156.95790
G1 X39.557 Y124.302 E157.18563
G1 X38.598 Y121.988 E157.41336
G1 X38.258 Y119.400 E157.65070
G1 X38.258 Y80.600 E161.17880
G1 X38.598 Y78.012 E161.41614
G1 X39.557 Y75.698 E161.64387
G1 X41.081 Y73.711 E161.87160
G1 X43.068 Y72.187 E162.09933
G1 X45.382 Y71.228 E162.32706
G1 X45.995 Y71.147 E162.38328
G1 X46.105 Y71.413 E162.40944
G1 X41.962 Y74.592 E162.88426
G1 X40.231 Y76.848 E163.14285
G1 X38.718 Y80.500 E163.50223
G1 X38.987 Y80.655 E163.53047
G1 X38.785 Y82.190 E163.67127
G1 X38.785 Y106.229 E165.85710
G1 X39.426 Y106.446 E165.91859
G1 X38.785 Y107.992 E166.07076
G1 X38.785 Y117.810 E166.96347
G1 X39.143 Y120.524 E167.21243
G1 X40.231 Y123.152 E167.47102
G1 X41.962 Y125.408 E167.72961
G1 X44.218 Y127.139 E167.98819
G1 X46.799 Y128.208 E168.24220
G1 X47.600 Y128.314 E168.31565
G1 X50.036 Y127.993 E168.53911
G1 X51.001 Y127.593 E168.63403
G1 X51.318 Y128.528 E168.72378
G1 X51.337 Y129.737 F7800.000
M101 ; extruder on
G1 X47.929 Y129.737 E169.03371 F1800.000
G1 X45.219 Y129.381 E169.28226
G1 X42.753 Y128.359 E169.52495
G1 X40.636 Y126.734 E169.76764
G1 X39.011 Y124.617 E170.01033
G1 X37.989 Y122.151 E170.25302
G1 X37.633 Y119.441 E170.50157
G1 X37.633 Y80.559 E174.03711
G1 X37.989 Y77.849 E174.28566
G1 X39.011 Y75.383 E174.52835
G1 X40.636 Y73.266 E174.77105
G1 X42.753 Y71.641 E175.01374
G1 X45.219 Y70.619 E175.25643
G1 X47.929 Y70.263 E175.50498
G1 X152.071 Y70.263 E184.97459
G1 X154.781 Y70.619 E185.22313
M101 ; extruder on
G1 X157.247 Y71.641 E185.46582 F1800.000
G1 X159.364 Y73.266 E185.70852
G1 X160.989 Y75.383 E185.95121
G1 X162.011 Y77.849 E186.19390
G1 X162.367 Y80.559 E186.44245
G1 X162.367 Y119.441 E189.97799
G1 X162.011 Y122.151 E190.22654
G1 X160.989 Y124.617 E190.46923
G1 X159.364 Y126.734 E190.71192
G1 X157.247 Y128.359 E190.95462
G1 X154.781 Y129.381 E191.19731
G1 X152.071 Y129.737 E191.44586
G1 X51.397 Y129.737 E200.60008
G1 E198.60008 F2400.00000
M103 ; extruder off
G1 X56.375 Y118.903 F7800.000
M101 ; extruder on
G1 E200.60008 F2400.00000
G1 X56.375 Y111.097 E201.30989 F1800.000
G1 X56.810 Y111.068 E201.34955
G1 X56.810 Y118.932 E202.06455
G1 X56.435 Y118.907 E202.09875
G1 E200.09875 F2400.00000
M103 ; extruder off
G1 X56.375 Y130.362 F7800.000
M101 ; extruder on
G1 E202.09875 F2400.00000
G1 X47.888 Y130.362 E202.87047 F1800.000
G1 X45.056 Y129.989 E203.13022
G1 X42.438 Y128.905 E203.38787
G1 X40.190 Y127.180 E203.64553
G1 X38.465 Y124.932 E203.90318
G1 X37.381 Y122.314 E204.16083
G1 X37.008 Y119.482 E204.42059
G1 X37.008 Y80.518 E207.96358
G1 X37.381 Y77.686 E208.22333
G1 X38.465 Y75.068 E208.48098
G1 X40.190 Y72.820 E208.73864
G1 X42.438 Y71.095 E208.99629
G1 X45.056 Y70.011 E209.25394
G1 X47.888 Y69.638 E209.51370
G1 X152.112 Y69.638 E218.99075
G1 X154.944 Y70.011 E219.25051
M101 ; extruder on
G1 X157.562 Y71.095 E219.50816 F1800.000
G1 X159.810 Y72.820 E219.76581
G1 X161.535 Y75.068 E220.02346
G1 X162.619 Y77.686 E220.28112
G1 X162.992 Y80.518 E220.54087
G1 X162.992 Y119.482 E224.08386
G1 X162.619 Y122.314 E224.34362
G1 X161.535 Y124.932 E224.60127
G1 X159.810 Y127.180 E224.85892
G1 X157.562 Y128.905 E225.11658
G1 X154.944 Y129.989 E225.37423
G1 X152.112 Y130.362 E225.63398
G1 X56.435 Y130.362 E234.33387
G1 X56.175 Y130.016 F7800.000
G1 E232.33387 F2400.00000
M103 ; extruder off
G1 X153.372 Y73.595 F7800.000
M101 ; extruder on
G1 E234.33387 F2400.00000
G1 X153.372 Y75.328 E234.49148 F1800.000
G1 X153.235 Y75.804 E234.53658
G1 X153.785 Y76.758 E234.63668
G1 X154.199 Y76.043 F7800.000
M101 ; extruder on
G1 X152.754 Y75.685 E234.77210 F1800.000
G1 X148.971 Y73.501 E235.16924
G1 E233.16924 F2400.00000
M103 ; extruder off
G1 X141.372 Y73.792 F7800.000
M101 ; extruder on
G1 E235.16924 F2400.00000
G1 X141.372 Y82.256 E235.93885 F1800.000
G1 X141.235 Y82.732 E235.98395
G1 X141.786 Y83.685 E236.08403
G1 X142.199 Y82.971 F7800.000
M101 ; extruder on
G1 X140.754 Y82.613 E236.21945 F1800.000
G1 X133.630 Y78.500 E236.96744
G1 X133.286 Y78.143 E237.01251
G1 X133.630 Y77.786 E237.05757
G1 X141.050 Y73.502 E237.83666
G1 E235.83666 F2400.00000
M103 ; extruder off
G1 X133.836 Y78.143 F7800.000
M101 ; extruder on
G1 E237.83666 F2400.00000
G1 X132.735 Y78.143 E237.93676 F1800.000
G1 X132.391 Y78.500 E237.98185
G1 X129.991 Y79.886 E238.23386
G1 X129.510 Y80.005 E238.27894
G1 X129.235 Y80.481 E238.32894
G1 X129.372 Y80.958 E238.37403
G1 X129.372 Y89.184 E239.12202
G1 X129.235 Y89.660 E239.16712
G1 X129.786 Y90.615 E239.26730
G1 X130.196 Y89.899 F7800.000
M101 ; extruder on
G1 X128.754 Y89.541 E239.40245 F1800.000
G1 X121.630 Y85.428 E240.15044
G1 X121.286 Y85.071 E240.19551
G1 X121.630 Y84.714 E240.24057
G1 X128.754 Y80.601 E240.98856
G1 X130.199 Y80.243 E241.12398
G1 X129.785 Y80.482 F7800.000
M101 ; extruder on
G1 X129.510 Y80.005 E241.17406 F1800.000
G1 X129.372 Y79.529 E241.21910
G1 X129.372 Y76.757 E241.47116
G1 X129.510 Y76.281 E241.51626
G1 X129.991 Y76.400 E241.56134
G1 X132.391 Y77.786 E241.81335
G1 X133.421 Y78.856 E241.94836
G1 E239.94836 F2400.00000
M103 ; extruder off
G1 X129.785 Y76.758 F7800.000
M101 ; extruder on
G1 E241.94836 F2400.00000
G1 X129.235 Y75.804 E242.04846 F1800.000
G1 X129.372 Y75.328 E242.09356
G1 X129.372 Y73.015 E242.30388
G1 E240.30388 F2400.00000
M103 ; extruder off
G1 X130.199 Y76.043 F7800.000
M101 ; extruder on
G1 E242.30388 F2400.00000
G1 X128.754 Y75.685 E242.43930 F1800.000
G1 X124.971 Y73.501 E242.83644
G1 E240.83644 F2400.00000
M103 ; extruder off
G1 X117.372 Y73.792 F7800.000
M101 ; extruder on
G1 E242.83644 F2400.00000
G1 X117.372 Y82.256 E243.60605 F1800.000
G1 X117.235 Y82.732 E243.65115
G1 X117.785 Y83.686 E243.75126
G1 X118.199 Y82.971 F7800.000
M101 ; extruder on
G1 X116.754 Y82.613 E243.88668 F1800.000
G1 X109.630 Y78.500 E244.63467
G1 X109.286 Y78.143 E244.67973
G1 X109.630 Y77.786 E244.72480
