; generated by Slic3r 1.2.9 on 2017-04-17 at 23:42:46

; external perimeters extrusion width = 0.40mm
; perimeters extrusion width = 0.67mm
; infill extrusion width = 0.67mm
; solid infill extrusion width = 0.67mm
; top infill extrusion width = 0.67mm

M127
M104 S250 T0 ; set temperature
G28 ; home all axes
G1 Z5 F5000 ; lift nozzle

M73 P0
G1 Z0.350 F7800.000
G1 E-2.00000 F2400.00000
M103 ; extruder off
G1 X63.056 Y86.867 F7800.000
M101 ; extruder on
G1 E0.00000 F2400.00000
G1 X65.208 Y86.074 E0.20854 F1800.000
G1 X66.387 Y85.968 E0.31625
G1 X133.613 Y85.968 E6.42901
G1 X135.871 Y86.365 E6.63756
M101 ; extruder on
G1 X137.860 Y87.508 E6.84610 F1800.000
G1 X139.339 Y89.261 E7.05464
G1 X140.132 Y91.413 E7.26318
G1 X140.238 Y92.593 E7.37089
G1 X140.238 Y100.091 E8.05270
G1 X139.841 Y102.350 E8.26124
G1 X138.697 Y104.338 E8.46978
G1 X136.944 Y105.817 E8.67832
G1 X134.792 Y106.610 E8.88687
G1 X133.613 Y106.716 E8.99458
G1 X66.387 Y106.716 E15.10734
G1 X64.129 Y106.319 E15.31588
G1 X62.140 Y105.175 E15.52442
G1 X60.661 Y103.423 E15.73296
G1 X59.868 Y101.271 E15.94151
G1 X59.762 Y100.091 E16.04922
G1 X59.762 Y92.593 E16.73102
G1 X60.159 Y90.334 E16.93956
G1 X61.303 Y88.346 E17.14810
G1 X63.010 Y86.905 E17.35119
G1 E15.35119 F2400.00000
M103 ; extruder off
G1 X132.013 Y98.491 F7800.000
M101 ; extruder on
G1 E17.35119 F2400.00000
G1 X67.987 Y98.491 E23.17302 F1800.000
G1 X67.987 Y94.193 E23.56388
G1 X132.013 Y94.193 E29.38571
G1 X132.013 Y98.431 E29.77113
G1 X132.638 Y99.116 F7800.000
M101 ; extruder on
G1 X67.362 Y99.116 E35.70660 F1800.000
G1 X67.362 Y93.568 E36.21111
G1 X132.638 Y93.568 E42.14658
G1 X132.638 Y99.056 E42.64563
G1 X133.263 Y99.741 F7800.000
M101 ; extruder on
G1 X66.737 Y99.741 E48.69474 F1800.000
G1 X66.737 Y92.943 E49.31289
G1 X133.263 Y92.943 E55.36201
G1 X133.263 Y99.681 E55.97470
G1 X132.916 Y99.541 F7800.000
G1 X131.634 Y94.876 F7800.000
M101 ; extruder on
G1 X131.329 Y94.571 E56.01442 F1800.000
G1 X130.435 Y94.571 E56.09677
G1 X131.634 Y95.771 E56.25294
G1 X131.634 Y96.665 E56.33528
G1 X129.540 Y94.571 E56.60791
G1 X128.645 Y94.571 E56.69025
G1 X131.634 Y97.560 E57.07933
G1 X131.292 Y98.113 E57.13915
G1 X127.751 Y94.571 E57.60016
G1 X126.856 Y94.571 E57.68250
G1 X130.398 Y98.113 E58.14351
G1 X129.503 Y98.113 E58.22585
G1 X125.962 Y94.571 E58.68686
G1 X125.067 Y94.571 E58.76921
G1 X128.608 Y98.113 E59.23021
G1 X127.714 Y98.113 E59.31256
G1 X124.172 Y94.571 E59.77357
G1 X123.278 Y94.571 E59.85591
G1 X126.819 Y98.113 E60.31692
G1 X125.925 Y98.113 E60.39926
G1 X122.383 Y94.571 E60.86027
G1 X121.489 Y94.571 E60.94262
G1 X125.030 Y98.113 E61.40362
G1 X124.135 Y98.113 E61.48597
G1 X120.594 Y94.571 E61.94697
G1 X119.699 Y94.571 E62.02932
G1 X123.241 Y98.113 E62.49033
G1 X122.346 Y98.113 E62.57267
G1 X118.805 Y94.571 E63.03368
G1 X117.910 Y94.571 E63.11602
G1 X121.452 Y98.113 E63.57703
G1 X120.557 Y98.113 E63.65938
G1 X117.016 Y94.571 E64.12038
G1 X116.121 Y94.571 E64.20273
G1 X119.663 Y98.113 E64.66373
G1 X118.768 Y98.113 E64.74608
G1 X115.226 Y94.571 E65.20709
G1 X114.332 Y94.571 E65.28943
G1 X117.873 Y98.113 E65.75044
G1 X116.979 Y98.113 E65.83278
G1 X113.437 Y94.571 E66.29379
G1 X112.543 Y94.571 E66.37613
G1 X116.084 Y98.113 E66.83714
G1 X115.190 Y98.113 E66.91949
G1 X111.648 Y94.571 E67.38049
G1 X110.754 Y94.571 E67.46284
G1 X114.295 Y98.113 E67.92384
G1 X113.400 Y98.113 E68.00619
G1 X109.859 Y94.571 E68.46719
G1 X108.964 Y94.571 E68.54954
G1 X112.506 Y98.113 E69.01055
G1 X111.611 Y98.113 E69.09289
G1 X108.070 Y94.571 E69.55390
G1 X107.175 Y94.571 E69.63624
G1 X110.717 Y98.113 E70.09725
G1 X109.822 Y98.113 E70.17959
G1 X106.281 Y94.571 E70.64060
G1 X105.386 Y94.571 E70.72294
G1 X108.927 Y98.113 E71.18395
G1 X108.033 Y98.113 E71.26629
G1 X104.491 Y94.571 E71.72730
G1 X103.597 Y94.571 E71.80965
G1 X107.138 Y98.113 E72.27065
G1 X106.244 Y98.113 E72.35300
G1 X102.702 Y94.571 E72.81400
G1 X101.808 Y94.571 E72.89635
G1 X105.349 Y98.113 E73.35735
G1 X104.454 Y98.113 E73.43970
G1 X100.913 Y94.571 E73.90070
G1 X100.018 Y94.571 E73.98305
G1 X103.560 Y98.113 E74.44405
G1 X102.665 Y98.113 E74.52640
G1 X99.124 Y94.571 E74.98740
G1 X98.229 Y94.571 E75.06975
G1 X101.771 Y98.113 E75.53075
G1 X100.876 Y98.113 E75.61310
G1 X97.335 Y94.571 E76.07411
G1 X96.440 Y94.571 E76.15645
G1 X99.982 Y98.113 E76.61746
G1 X99.087 Y98.113 E76.69980
G1 X95.545 Y94.571 E77.16081
G1 X94.651 Y94.571 E77.24315
G1 X98.192 Y98.113 E77.70416
G1 X97.298 Y98.113 E77.78650
G1 X93.756 Y94.571 E78.24751
G1 X92.862 Y94.571 E78.32985
G1 X96.403 Y98.113 E78.79086
G1 X95.509 Y98.113 E78.87320
G1 X91.967 Y94.571 E79.33421
G1 X91.073 Y94.571 E79.41655
G1 X94.614 Y98.113 E79.87756
G1 X93.719 Y98.113 E79.95990
G1 X90.178 Y94.571 E80.42091
G1 X89.283 Y94.571 E80.50325
G1 X92.825 Y98.113 E80.96426
G1 X91.930 Y98.113 E81.04660
G1 X88.389 Y94.571 E81.50760
G1 X87.494 Y94.571 E81.58995
G1 X91.036 Y98.113 E82.05095
G1 X90.141 Y98.113 E82.13330
G1 X86.600 Y94.571 E82.59430
G1 X85.705 Y94.571 E82.67665
G1 X89.246 Y98.113 E83.13765
G1 X88.352 Y98.113 E83.22000
G1 X84.810 Y94.571 E83.68100
G1 X83.916 Y94.571 E83.76335
G1 X87.457 Y98.113 E84.22435
G1 X86.563 Y98.113 E84.30670
G1 X83.021 Y94.571 E84.76770
G1 X82.127 Y94.571 E84.85005
G1 X85.668 Y98.113 E85.31105
G1 X84.773 Y98.113 E85.39340
G1 X81.232 Y94.571 E85.85440
G1 X80.337 Y94.571 E85.93674
G1 X83.879 Y98.113 E86.39775
G1 X82.984 Y98.113 E86.48009
G1 X79.443 Y94.571 E86.94110
G1 X78.548 Y94.571 E87.02344
G1 X82.090 Y98.113 E87.48445
G1 X81.195 Y98.113 E87.56679
G1 X77.654 Y94.571 E88.02780
G1 X76.759 Y94.571 E88.11014
G1 X80.301 Y98.113 E88.57114
G1 X79.406 Y98.113 E88.65349
G1 X75.864 Y94.571 E89.11449
G1 X74.970 Y94.571 E89.19684
G1 X78.511 Y98.113 E89.65784
G1 X77.617 Y98.113 E89.74019
G1 X74.075 Y94.571 E90.20119
G1 X73.181 Y94.571 E90.28353
G1 X76.722 Y98.113 E90.74454
G1 X75.828 Y98.113 E90.82688
G1 X72.286 Y94.571 E91.28789
G1 X71.392 Y94.571 E91.37023
G1 X74.933 Y98.113 E91.83124
G1 X74.038 Y98.113 E91.91358
G1 X70.497 Y94.571 E92.37458
G1 X69.602 Y94.571 E92.45693
G1 X73.144 Y98.113 E92.91793
G1 X72.249 Y98.113 E93.00028
G1 X68.708 Y94.571 E93.46128
G1 X68.366 Y95.124 E93.52110
G1 X71.355 Y98.113 E93.91017
G1 X70.460 Y98.113 E93.99252
G1 X68.366 Y96.018 E94.26514
G1 X68.366 Y96.913 E94.34748
G1 X69.565 Y98.113 E94.50365
G1 X68.671 Y98.113 E94.58599
G1 X68.366 Y97.808 E94.62571
M104 S240 T0 ; set temperature
M140 S125 ; wait for bed temperature to be reached
M73 P0
G1 Z0.550 F7800.000
G1 X132.292 Y98.770 F7800.000
M101 ; extruder on
G1 X67.708 Y98.770 E97.99985 F3600.000
G1 X67.708 Y93.914 E98.25355
G1 X132.292 Y93.914 E101.62770
G1 X132.292 Y98.710 E101.87827
G1 X132.920 Y99.398 F7800.000
M101 ; extruder on
G1 X67.080 Y99.398 E105.31807 F3600.000
G1 X67.080 Y93.286 E105.63743
G1 X132.920 Y93.286 E109.07722
G1 X132.920 Y99.338 E109.39345
G1 X133.413 Y99.891 F7800.000
M101 ; extruder on
G1 X66.587 Y99.891 E111.37757 F1800.000
G1 X66.587 Y92.793 E111.58833
G1 X133.413 Y92.793 E113.57246
G1 X133.413 Y99.831 E113.78143
G1 X133.066 Y99.691 F7800.000
G1 X131.604 Y98.389 F7800.000
M101 ; extruder on
G1 X131.911 Y98.083 E113.80430 F1200.000
G1 X131.911 Y97.185 E113.85165
G1 X130.707 Y98.389 E113.94149
G1 X129.810 Y98.389 E113.98883
G1 X131.911 Y96.288 E114.14563
G1 X131.911 Y95.390 E114.19298
G1 X128.912 Y98.389 E114.41673
G1 X128.015 Y98.389 E114.46408
G1 X131.911 Y94.493 E114.75479
G1 X131.212 Y94.295 E114.79312
G1 X127.117 Y98.389 E115.09865
G1 X126.220 Y98.389 E115.14600
G1 X130.315 Y94.295 E115.45152
G1 X129.417 Y94.295 E115.49887
G1 X125.323 Y98.389 E115.80440
G1 X124.425 Y98.389 E115.85175
G1 X128.520 Y94.295 E116.15727
G1 X127.622 Y94.295 E116.20462
G1 X123.528 Y98.389 E116.51015
G1 X122.631 Y98.389 E116.55750
G1 X126.725 Y94.295 E116.86302
G1 X125.828 Y94.295 E116.91037
G1 X121.733 Y98.389 E117.21590
G1 X120.836 Y98.389 E117.26324
G1 X124.930 Y94.295 E117.56877
G1 X124.033 Y94.295 E117.61612
G1 X119.938 Y98.389 E117.92165
G1 X119.041 Y98.389 E117.96899
G1 X123.136 Y94.295 E118.27452
G1 X122.238 Y94.295 E118.32187
G1 X118.144 Y98.389 E118.62739
G1 X117.246 Y98.389 E118.67474
G1 X121.341 Y94.295 E118.98027
G1 X120.443 Y94.295 E119.02762
G1 X116.349 Y98.389 E119.33314
G1 X115.451 Y98.389 E119.38049
G1 X119.546 Y94.295 E119.68602
G1 X118.649 Y94.295 E119.73336
G1 X114.554 Y98.389 E120.03889
G1 X113.657 Y98.389 E120.08624
G1 X117.751 Y94.295 E120.39176
G1 X116.854 Y94.295 E120.43911
G1 X112.759 Y98.389 E120.74464
G1 X111.862 Y98.389 E120.79199
G1 X115.957 Y94.295 E121.09751
G1 X115.059 Y94.295 E121.14486
G1 X110.965 Y98.389 E121.45039
G1 X110.067 Y98.389 E121.49773
G1 X114.162 Y94.295 E121.80326
G1 X113.264 Y94.295 E121.85061
G1 X109.170 Y98.389 E122.15613
G1 X108.272 Y98.389 E122.20348
G1 X112.367 Y94.295 E122.50901
G1 X111.470 Y94.295 E122.55636
G1 X107.375 Y98.389 E122.86188
G1 X106.478 Y98.389 E122.90923
G1 X110.572 Y94.295 E123.21476
G1 X109.675 Y94.295 E123.26210
G1 X105.580 Y98.389 E123.56763
G1 X104.683 Y98.389 E123.61498
G1 X108.778 Y94.295 E123.92050
G1 X107.880 Y94.295 E123.96785
G1 X103.786 Y98.389 E124.27338
G1 X102.888 Y98.389 E124.32072
G1 X106.983 Y94.295 E124.62625
G1 X106.085 Y94.295 E124.67360
G1 X101.991 Y98.389 E124.97912
G1 X101.093 Y98.389 E125.02647
G1 X105.188 Y94.295 E125.33200
G1 X104.291 Y94.295 E125.37934
G1 X100.196 Y98.389 E125.68487
G1 X99.299 Y98.389 E125.73222
G1 X103.393 Y94.295 E126.03774
G1 X102.496 Y94.295 E126.08509
G1 X98.401 Y98.389 E126.39062
G1 X97.504 Y98.389 E126.43797
G1 X101.599 Y94.295 E126.74349
G1 X100.701 Y94.295 E126.79084
G1 X96.607 Y98.389 E127.09636
G1 X95.709 Y98.389 E127.14371
G1 X99.804 Y94.295 E127.44924
G1 X98.906 Y94.295 E127.49659
G1 X94.812 Y98.389 E127.80211
G1 X93.914 Y98.389 E127.84946
G1 X98.009 Y94.295 E128.15498
G1 X97.112 Y94.295 E128.20233
G1 X93.017 Y98.389 E128.50786
G1 X92.120 Y98.389 E128.55521
G1 X96.214 Y94.295 E128.86073
G1 X95.317 Y94.295 E128.90808
G1 X91.222 Y98.389 E129.21360
G1 X90.325 Y98.389 E129.26095
G1 X94.420 Y94.295 E129.56648
G1 X93.522 Y94.295 E129.61382
G1 X89.428 Y98.389 E129.91935
G1 X88.530 Y98.389 E129.96670
G1 X92.625 Y94.295 E130.27222
G1 X91.727 Y94.295 E130.31957
G1 X87.633 Y98.389 E130.62510
G1 X86.735 Y98.389 E130.67244
G1 X90.830 Y94.295 E130.97797
G1 X89.933 Y94.295 E131.02532
G1 X85.838 Y98.389 E131.33084
G1 X84.941 Y98.389 E131.37819
G1 X89.035 Y94.295 E131.68372
G1 X88.138 Y94.295 E131.73106
G1 X84.043 Y98.389 E132.03659
G1 X83.146 Y98.389 E132.08394
G1 X87.241 Y94.295 E132.38946
G1 X86.343 Y94.295 E132.43681
G1 X82.249 Y98.389 E132.74233
G1 X81.351 Y98.389 E132.78968
G1 X85.446 Y94.295 E133.09521
G1 X84.548 Y94.295 E133.14255
G1 X80.454 Y98.389 E133.44808
G1 X79.556 Y98.389 E133.49543
G1 X83.651 Y94.295 E133.80095
G1 X82.754 Y94.295 E133.84830
G1 X78.659 Y98.389 E134.15382
G1 X77.762 Y98.389 E134.20117
G1 X81.856 Y94.295 E134.50670
G1 X80.959 Y94.295 E134.55404
G1 X76.864 Y98.389 E134.85957
G1 X75.967 Y98.389 E134.90692
G1 X80.062 Y94.295 E135.21244
G1 X79.164 Y94.295 E135.25979
G1 X75.070 Y98.389 E135.56531
G1 X74.172 Y98.389 E135.61266
G1 X78.267 Y94.295 E135.91819
G1 X77.369 Y94.295 E135.96553
G1 X73.275 Y98.389 E136.27106
G1 X72.377 Y98.389 E136.31841
G1 X76.472 Y94.295 E136.62393
G1 X75.575 Y94.295 E136.67128
G1 X71.480 Y98.389 E136.97680
G1 X70.583 Y98.389 E137.02415
G1 X74.677 Y94.295 E137.32968
G1 X73.780 Y94.295 E137.37702
G1 X69.685 Y98.389 E137.68255
G1 X68.788 Y98.389 E137.72990
G1 X72.883 Y94.295 E138.03542
G1 X71.985 Y94.295 E138.08277
G1 X68.089 Y98.191 E138.37348
G1 X68.089 Y97.293 E138.42082
G1 X71.088 Y94.295 E138.64457
G1 X70.190 Y94.295 E138.69192
G1 X68.089 Y96.396 E138.84871
G1 X68.089 Y95.498 E138.89606
G1 X69.293 Y94.295 E138.98589
G1 X68.396 Y94.295 E139.03324
G1 X68.089 Y94.601 E139.05611
M73 P0
G1 Z0.750 F7800.000
G1 X132.292 Y98.770 F7800.000
M101 ; extruder on
G1 X67.708 Y98.770 E142.43025 F3600.000
G1 X67.708 Y93.914 E142.68396
G1 X132.292 Y93.914 E146.05810
G1 X132.292 Y98.710 E146.30867
G1 X132.920 Y99.398 F7800.000
M101 ; extruder on
G1 X67.080 Y99.398 E149.74847 F3600.000
G1 X67.080 Y93.286 E150.06783
G1 X132.920 Y93.286 E153.50762
G1 X132.920 Y99.338 E153.82385
G1 X133.413 Y99.891 F7800.000
M101 ; extruder on
G1 X66.587 Y99.891 E155.80798 F1800.000
G1 X66.587 Y92.793 E156.01873
G1 X133.413 Y92.793 E158.00286
G1 X133.413 Y99.831 E158.21183
G1 X133.066 Y99.691 F7800.000
G1 X131.911 Y94.601 F7800.000
M101 ; extruder on
G1 X131.604 Y94.295 E158.23471 F1200.000
G1 X130.707 Y94.295 E158.28205
G1 X131.911 Y95.499 E158.37189
G1 X131.911 Y96.396 E158.41924
G1 X129.810 Y94.295 E158.57603
G1 X128.912 Y94.295 E158.62338
G1 X131.911 Y97.293 E158.84713
G1 X131.911 Y98.191 E158.89448
G1 X128.015 Y94.295 E159.18519
G1 X127.117 Y94.295 E159.23254
G1 X131.212 Y98.389 E159.53807
G1 X130.315 Y98.389 E159.58542
G1 X126.220 Y94.295 E159.89094
G1 X125.323 Y94.295 E159.93829
G1 X129.417 Y98.389 E160.24382
G1 X128.520 Y98.389 E160.29116
G1 X124.425 Y94.295 E160.59669
G1 X123.528 Y94.295 E160.64404
G1 X127.622 Y98.389 E160.94957
G1 X126.725 Y98.389 E160.99691
G1 X122.631 Y94.295 E161.30244
G1 X121.733 Y94.295 E161.34979
G1 X125.828 Y98.389 E161.65531
G1 X124.930 Y98.389 E161.70266
G1 X120.836 Y94.295 E162.00819
G1 X119.938 Y94.295 E162.05554
G1 X124.033 Y98.389 E162.36106
G1 X123.136 Y98.389 E162.40841
G1 X119.041 Y94.295 E162.71394
G1 X118.144 Y94.295 E162.76128
G1 X122.238 Y98.389 E163.06681
G1 X121.341 Y98.389 E163.11416
G1 X117.246 Y94.295 E163.41968
G1 X116.349 Y94.295 E163.46703
G1 X120.443 Y98.389 E163.77256
G1 X119.546 Y98.389 E163.81991
G1 X115.451 Y94.295 E164.12543
G1 X114.554 Y94.295 E164.17278
G1 X118.649 Y98.389 E164.47831
G1 X117.751 Y98.389 E164.52565
G1 X113.657 Y94.295 E164.83118
G1 X112.759 Y94.295 E164.87853
G1 X116.854 Y98.389 E165.18405
G1 X115.957 Y98.389 E165.23140
G1 X111.862 Y94.295 E165.53693
G1 X110.965 Y94.295 E165.58428
G1 X115.059 Y98.389 E165.88980
G1 X114.162 Y98.389 E165.93715
G1 X110.067 Y94.295 E166.24268
G1 X109.170 Y94.295 E166.29002
G1 X113.264 Y98.389 E166.59555
G1 X112.367 Y98.389 E166.64290
G1 X108.272 Y94.295 E166.94842
G1 X107.375 Y94.295 E166.99577
G1 X111.470 Y98.389 E167.30130
G1 X110.572 Y98.389 E167.34864
G1 X106.478 Y94.295 E167.65417
G1 X105.580 Y94.295 E167.70152
G1 X109.675 Y98.389 E168.00704
G1 X108.778 Y98.389 E168.05439
G1 X104.683 Y94.295 E168.35992
G1 X103.786 Y94.295 E168.40727
G1 X107.880 Y98.389 E168.71279
G1 X106.983 Y98.389 E168.76014
G1 X102.888 Y94.295 E169.06567
G1 X101.991 Y94.295 E169.11301
G1 X106.085 Y98.389 E169.41854
G1 X105.188 Y98.389 E169.46589
G1 X101.093 Y94.295 E169.77141
G1 X100.196 Y94.295 E169.81876
G1 X104.291 Y98.389 E170.12429
G1 X103.393 Y98.389 E170.17163
G1 X99.299 Y94.295 E170.47716
G1 X98.401 Y94.295 E170.52451
G1 X102.496 Y98.389 E170.83003
G1 X101.599 Y98.389 E170.87738
G1 X97.504 Y94.295 E171.18291
G1 X96.607 Y94.295 E171.23025
G1 X100.701 Y98.389 E171.53578
G1 X99.804 Y98.389 E171.58313
G1 X95.709 Y94.295 E171.88865
G1 X94.812 Y94.295 E171.93600
G1 X98.906 Y98.389 E172.24153
G1 X98.009 Y98.389 E172.28887
G1 X93.914 Y94.295 E172.59440
G1 X93.017 Y94.295 E172.64175
G1 X97.112 Y98.389 E172.94727
G1 X96.214 Y98.389 E172.99462
G1 X92.120 Y94.295 E173.30015
G1 X91.222 Y94.295 E173.34749
G1 X95.317 Y98.389 E173.65302
G1 X94.420 Y98.389 E173.70037
G1 X90.325 Y94.295 E174.00589
G1 X89.428 Y94.295 E174.05324
G1 X93.522 Y98.389 E174.35876
G1 X92.625 Y98.389 E174.40611
G1 X88.530 Y94.295 E174.71164
G1 X87.633 Y94.295 E174.75898
G1 X91.727 Y98.389 E175.06451
G1 X90.830 Y98.389 E175.11186
G1 X86.735 Y94.295 E175.41738
G1 X85.838 Y94.295 E175.46473
G1 X89.933 Y98.389 E175.77026
G1 X89.035 Y98.389 E175.81760
G1 X84.941 Y94.295 E176.12313
G1 X84.043 Y94.295 E176.17048
G1 X88.138 Y98.389 E176.47600
G1 X87.241 Y98.389 E176.52335
G1 X83.146 Y94.295 E176.82887
G1 X82.249 Y94.295 E176.87622
G1 X86.343 Y98.389 E177.18175
G1 X85.446 Y98.389 E177.22909
G1 X81.351 Y94.295 E177.53462
G1 X80.454 Y94.295 E177.58197
G1 X84.548 Y98.389 E177.88749
G1 X83.651 Y98.389 E177.93484
G1 X79.556 Y94.295 E178.24037
G1 X78.659 Y94.295 E178.28771
G1 X82.754 Y98.389 E178.59324
G1 X81.856 Y98.389 E178.64059
