; generated by Slic3r 1.2.9 on 2017-04-17 at 23:54:20

; external perimeters extrusion width = 0.40mm
; perimeters extrusion width = 0.67mm
; infill extrusion width = 0.67mm
; solid infill extrusion width = 0.67mm
; top infill extrusion width = 0.67mm

M127
M104 S250 T0 ; set temperature
G28 ; home all axes
G1 Z5 F5000 ; lift nozzle

M73 P0
G1 Z0.350 F7800.000
G1 E-2.00000 F2400.00000
M103 ; extruder off
G1 X63.059 Y77.507 F7800.000
M101 ; extruder on
G1 E0.00000 F2400.00000
G1 X65.309 Y75.842 E0.25452 F1800.000
G1 X67.361 Y74.818 E0.46306
G1 X69.250 Y74.543 E0.63665
G1 X130.750 Y74.543 E6.22882
G1 X133.009 Y74.940 E6.43736
M101 ; extruder on
G1 X134.691 Y75.842 E6.61094 F1800.000
G1 X136.941 Y77.507 E6.86547
G1 X138.520 Y79.170 E7.07401
G1 X139.598 Y82.233 E7.36922
G1 X142.598 Y115.233 E10.38227
G1 X142.625 Y115.833 E10.43686
G1 X142.625 Y118.833 E10.70965
G1 X142.228 Y121.091 E10.91819
G1 X141.085 Y123.080 E11.12674
G1 X139.332 Y124.559 E11.33528
G1 X137.180 Y125.352 E11.54382
G1 X136.000 Y125.457 E11.65153
G1 X64.000 Y125.457 E18.19846
G1 X61.741 Y125.060 E18.40700
G1 X59.753 Y123.917 E18.61554
G1 X58.274 Y122.164 E18.82409
G1 X57.481 Y120.012 E19.03263
G1 X57.375 Y118.833 E19.14034
G1 X57.375 Y115.833 E19.41313
G1 X57.402 Y115.233 E19.46772
G1 X60.402 Y82.233 E22.48077
G1 X61.002 Y80.019 E22.68931
G1 X63.021 Y77.554 E22.97907
G1 E20.97907 F2400.00000
M103 ; extruder off
G1 X131.400 Y117.233 F7800.000
M101 ; extruder on
G1 E22.97907 F2400.00000
G1 X68.600 Y117.233 E28.68948 F1800.000
G1 X68.600 Y108.932 E29.44424
G1 X131.400 Y108.932 E35.15466
G1 X131.400 Y117.173 E35.90396
G1 X132.025 Y116.807 F7800.000
M101 ; extruder on
G1 X135.025 Y116.807 E36.17675 F1800.000
G1 X135.025 Y117.858 E36.27224
G1 X64.975 Y117.858 E42.64188
G1 X64.975 Y116.807 E42.73738
G1 X67.975 Y116.807 E43.01017
G1 X67.975 Y83.807 E46.01084
G1 X68.648 Y83.807 E46.07209
G1 X69.025 Y84.460 E46.14058
G1 X69.025 Y108.307 E48.30904
G1 X130.975 Y108.307 E53.94211
G1 X130.975 Y84.460 E56.11057
G1 X131.352 Y83.807 E56.17906
G1 X132.025 Y83.807 E56.24031
G1 X132.025 Y116.747 E59.23553
G1 X132.650 Y116.183 F7800.000
M101 ; extruder on
G1 X135.650 Y116.183 E59.50832 F1800.000
G1 X135.650 Y118.483 E59.71746
G1 X64.350 Y118.483 E66.20074
G1 X64.350 Y116.183 E66.40987
G1 X67.350 Y116.183 E66.68266
G1 X67.350 Y83.183 E69.68334
G1 X68.491 Y83.183 E69.78707
G1 X69.452 Y81.517 E69.96190
G1 X71.400 Y81.517 E70.13902
G1 X71.400 Y82.108 E70.19268
G1 X69.803 Y82.108 E70.33788
G1 X69.096 Y83.333 E70.46650
G1 X69.803 Y84.558 E70.59512
G1 X71.400 Y84.558 E70.74033
G1 X71.400 Y85.148 E70.79399
G1 X69.650 Y85.148 E70.95311
G1 X69.650 Y107.683 E73.00220
G1 X130.350 Y107.683 E78.52163
G1 X130.350 Y85.148 E80.57072
G1 X128.600 Y85.148 E80.72984
G1 X128.600 Y84.558 E80.78350
G1 X130.197 Y84.558 E80.92870
G1 X130.904 Y83.333 E81.05732
G1 X130.197 Y82.108 E81.18595
G1 X128.600 Y82.108 E81.33115
G1 X128.600 Y81.517 E81.38481
G1 X130.548 Y81.517 E81.56193
G1 X131.509 Y83.183 E81.73676
G1 X132.650 Y83.183 E81.84049
G1 X132.650 Y116.123 E84.83571
G1 X132.650 Y116.583 F7800.000
G1 X131.713 Y117.333 F7800.000
M101 ; extruder on
G1 X134.713 Y117.333 E85.41407 F1800.000
G1 E83.41407 F2400.00000
M103 ; extruder off
G1 X131.022 Y109.616 F7800.000
M101 ; extruder on
G1 E85.41407 F2400.00000
G1 X130.717 Y109.311 E85.45333 F1800.000
G1 X129.832 Y109.311 E85.53380
G1 X131.022 Y110.500 E85.68685
G1 X131.022 Y111.385 E85.76732
G1 X128.948 Y109.311 E86.03416
G1 X128.064 Y109.311 E86.11463
G1 X131.022 Y112.269 E86.49527
G1 X131.022 Y113.153 E86.57573
G1 X127.179 Y109.311 E87.07016
G1 X126.295 Y109.311 E87.15063
G1 X131.022 Y114.038 E87.75885
G1 X131.022 Y114.922 E87.83931
G1 X125.411 Y109.311 E88.56133
G1 X124.526 Y109.311 E88.64180
G1 X131.022 Y115.806 E89.47761
G1 X131.022 Y116.691 E89.55807
G1 X123.642 Y109.311 E90.50767
G1 X122.758 Y109.311 E90.58813
G1 X130.301 Y116.854 E91.55880
G1 X129.417 Y116.854 E91.63926
G1 X121.873 Y109.311 E92.60993
G1 X120.989 Y109.311 E92.69039
G1 X128.532 Y116.854 E93.66105
G1 X127.648 Y116.854 E93.74152
G1 X120.105 Y109.311 E94.71218
G1 X119.220 Y109.311 E94.79264
G1 X126.764 Y116.854 E95.76331
G1 X125.879 Y116.854 E95.84377
G1 X118.336 Y109.311 E96.81443
G1 X117.452 Y109.311 E96.89490
G1 X124.995 Y116.854 E97.86556
G1 X124.111 Y116.854 E97.94602
G1 X116.568 Y109.311 E98.91669
G1 X115.683 Y109.311 E98.99715
G1 X123.227 Y116.854 E99.96781
G1 X122.342 Y116.854 E100.04828
G1 X114.799 Y109.311 E101.01894
G1 X113.915 Y109.311 E101.09941
G1 X121.458 Y116.854 E102.07007
G1 X120.574 Y116.854 E102.15053
G1 X113.030 Y109.311 E103.12120
G1 X112.146 Y109.311 E103.20166
G1 X119.689 Y116.854 E104.17232
G1 X118.805 Y116.854 E104.25279
G1 X111.262 Y109.311 E105.22345
G1 X110.377 Y109.311 E105.30391
G1 X117.921 Y116.854 E106.27458
G1 X117.036 Y116.854 E106.35504
G1 X109.493 Y109.311 E107.32570
G1 X108.609 Y109.311 E107.40617
G1 X116.152 Y116.854 E108.37683
G1 X115.268 Y116.854 E108.45729
G1 X107.724 Y109.311 E109.42796
G1 X106.840 Y109.311 E109.50842
G1 X114.383 Y116.854 E110.47909
G1 X113.499 Y116.854 E110.55955
G1 X105.956 Y109.311 E111.53021
G1 X105.071 Y109.311 E111.61068
G1 X112.615 Y116.854 E112.58134
G1 X111.730 Y116.854 E112.66180
G1 X104.187 Y109.311 E113.63247
G1 X103.303 Y109.311 E113.71293
G1 X110.846 Y116.854 E114.68359
G1 X109.962 Y116.854 E114.76406
G1 X102.419 Y109.311 E115.73472
G1 X101.534 Y109.311 E115.81518
G1 X109.077 Y116.854 E116.78585
G1 X108.193 Y116.854 E116.86631
G1 X100.650 Y109.311 E117.83697
G1 X99.766 Y109.311 E117.91744
G1 X107.309 Y116.854 E118.88810
G1 X106.425 Y116.854 E118.96856
G1 X98.881 Y109.311 E119.93923
G1 X97.997 Y109.311 E120.01969
G1 X105.540 Y116.854 E120.99036
G1 X104.656 Y116.854 E121.07082
G1 X97.113 Y109.311 E122.04148
G1 X96.228 Y109.311 E122.12195
G1 X103.772 Y116.854 E123.09261
G1 X102.887 Y116.854 E123.17307
G1 X95.344 Y109.311 E124.14374
G1 X94.460 Y109.311 E124.22420
G1 X102.003 Y116.854 E125.19486
G1 X101.119 Y116.854 E125.27533
G1 X93.575 Y109.311 E126.24599
G1 X92.691 Y109.311 E126.32645
G1 X100.234 Y116.854 E127.29712
G1 X99.350 Y116.854 E127.37758
G1 X91.807 Y109.311 E128.34824
G1 X90.922 Y109.311 E128.42871
G1 X98.466 Y116.854 E129.39937
G1 X97.581 Y116.854 E129.47983
G1 X90.038 Y109.311 E130.45050
G1 X89.154 Y109.311 E130.53096
G1 X96.697 Y116.854 E131.50162
G1 X95.813 Y116.854 E131.58209
G1 X88.270 Y109.311 E132.55275
G1 X87.385 Y109.311 E132.63321
G1 X94.928 Y116.854 E133.60388
G1 X94.044 Y116.854 E133.68434
G1 X86.501 Y109.311 E134.65501
G1 X85.617 Y109.311 E134.73547
G1 X93.160 Y116.854 E135.70613
G1 X92.276 Y116.854 E135.78660
G1 X84.732 Y109.311 E136.75726
G1 X83.848 Y109.311 E136.83772
G1 X91.391 Y116.854 E137.80839
G1 X90.507 Y116.854 E137.88885
G1 X82.964 Y109.311 E138.85951
G1 X82.079 Y109.311 E138.93998
G1 X89.623 Y116.854 E139.91064
G1 X88.738 Y116.854 E139.99110
G1 X81.195 Y109.311 E140.96177
G1 X80.311 Y109.311 E141.04223
G1 X87.854 Y116.854 E142.01289
G1 X86.970 Y116.854 E142.09336
G1 X79.426 Y109.311 E143.06402
G1 X78.542 Y109.311 E143.14448
G1 X86.085 Y116.854 E144.11515
G1 X85.201 Y116.854 E144.19561
G1 X77.658 Y109.311 E145.16627
G1 X76.773 Y109.311 E145.24674
G1 X84.317 Y116.854 E146.21740
G1 X83.432 Y116.854 E146.29786
G1 X75.889 Y109.311 E147.26853
G1 X75.005 Y109.311 E147.34899
G1 X82.548 Y116.854 E148.31965
G1 X81.664 Y116.854 E148.40012
G1 X74.121 Y109.311 E149.37078
G1 X73.236 Y109.311 E149.45124
G1 X80.779 Y116.854 E150.42191
G1 X79.895 Y116.854 E150.50237
G1 X72.352 Y109.311 E151.47304
G1 X71.468 Y109.311 E151.55350
G1 X79.011 Y116.854 E152.52416
G1 X78.127 Y116.854 E152.60463
G1 X70.583 Y109.311 E153.57529
G1 X69.699 Y109.311 E153.65575
G1 X77.242 Y116.854 E154.62642
G1 X76.358 Y116.854 E154.70688
G1 X68.978 Y109.475 E155.65648
G1 X68.978 Y110.359 E155.73694
G1 X75.474 Y116.854 E156.57274
G1 X74.589 Y116.854 E156.65321
G1 X68.978 Y111.243 E157.37522
G1 X68.978 Y112.128 E157.45568
G1 X73.705 Y116.854 E158.06390
G1 X72.821 Y116.854 E158.14437
G1 X68.978 Y113.012 E158.63879
G1 X68.978 Y113.896 E158.71926
G1 X71.936 Y116.854 E159.09989
G1 X71.052 Y116.854 E159.18035
G1 X68.978 Y114.780 E159.44720
G1 X68.978 Y115.665 E159.52766
G1 X70.168 Y116.854 E159.68071
G1 X69.283 Y116.854 E159.76117
G1 X68.978 Y116.549 E159.80043
G1 X68.287 Y117.333 F7800.000
M101 ; extruder on
G1 X65.287 Y117.333 E160.37879 F1800.000
G1 E158.37879 F2400.00000
M103 ; extruder off
G1 X68.500 Y108.620 F7800.000
M101 ; extruder on
G1 E160.37879 F2400.00000
G1 X68.500 Y84.600 E165.00945 F1800.000
G1 X68.443 Y84.388 E165.05193
G1 E163.05193 F2400.00000
M103 ; extruder off
G1 X131.557 Y84.388 F7800.000
M101 ; extruder on
G1 E165.05193 F2400.00000
G1 X131.500 Y84.600 E165.09440 F1800.000
G1 X131.500 Y108.620 E169.72506
M104 S240 T0 ; set temperature
M140 S125 ; wait for bed temperature to be reached
M73 P1
G1 Z0.550 F7800.000
G1 X131.679 Y117.512 F7800.000
M101 ; extruder on
G1 X68.321 Y117.512 E173.03519 F3600.000
G1 X68.321 Y108.654 E173.49797
G1 X131.679 Y108.654 E176.80810
G1 X131.679 Y117.452 E177.26775
G1 X132.307 Y116.525 F7800.000
M101 ; extruder on
G1 X135.307 Y116.525 E177.42449 F3600.000
G1 X135.307 Y118.140 E177.50884
G1 X64.693 Y118.140 E181.19809
G1 X64.693 Y116.525 E181.28245
G1 X67.693 Y116.525 E181.43918
G1 X67.693 Y83.525 E183.16327
G1 X68.811 Y83.525 E183.22171
G1 X69.550 Y84.805 E183.29891
G1 X69.307 Y84.805 E183.31161
G1 X69.307 Y108.025 E184.52475
G1 X130.693 Y108.025 E187.73182
G1 X130.693 Y84.805 E188.94496
G1 X130.450 Y84.805 E188.95766
G1 X131.189 Y83.525 E189.03486
G1 X132.307 Y83.525 E189.09330
G1 X132.307 Y116.465 E190.81425
G1 X132.800 Y116.033 F7800.000
M101 ; extruder on
G1 X135.800 Y116.033 E190.90333 F1800.000
G1 X135.800 Y118.633 E190.98052
G1 X64.200 Y118.633 E193.10642
G1 X64.200 Y116.033 E193.18362
G1 X67.200 Y116.033 E193.27269
G1 X67.200 Y83.033 E194.25250
G1 X68.404 Y83.033 E194.28826
G1 X69.365 Y81.367 E194.34534
G1 X71.550 Y81.367 E194.41020
G1 X71.550 Y82.258 E194.43663
G1 X69.890 Y82.258 E194.48593
G1 X69.269 Y83.333 E194.52278
G1 X69.890 Y84.408 E194.55964
G1 X71.550 Y84.408 E194.60894
G1 X71.550 Y85.298 E194.63536
G1 X69.800 Y85.298 E194.68732
G1 X69.800 Y107.533 E195.34751
G1 X130.200 Y107.533 E197.14086
G1 X130.200 Y85.298 E197.80104
G1 X128.450 Y85.298 E197.85300
G1 X128.450 Y84.408 E197.87943
G1 X130.110 Y84.408 E197.92873
G1 X130.731 Y83.333 E197.96558
G1 X130.110 Y82.258 E198.00244
G1 X128.450 Y82.258 E198.05174
G1 X128.450 Y81.367 E198.07816
G1 X130.635 Y81.367 E198.14303
G1 X131.596 Y83.033 E198.20011
G1 X132.800 Y83.033 E198.23587
G1 X132.800 Y115.973 E199.21390
G1 X132.800 Y116.433 F7800.000
G1 X131.993 Y117.333 F7800.000
M101 ; extruder on
G1 X134.993 Y117.333 E199.53807 F1200.000
G1 X130.992 Y117.131 F7800.000
M101 ; extruder on
G1 X131.298 Y116.824 E199.56097 F1200.000
G1 X131.298 Y115.926 E199.60844
G1 X130.093 Y117.131 E199.69846
G1 X129.195 Y117.131 E199.74592
G1 X131.298 Y115.027 E199.90307
G1 X131.298 Y114.129 E199.95053
G1 X128.296 Y117.131 E200.17480
G1 X127.398 Y117.131 E200.22226
G1 X131.298 Y113.230 E200.51365
G1 X131.298 Y112.332 E200.56111
G1 X126.499 Y117.131 E200.91962
G1 X125.601 Y117.131 E200.96708
G1 X131.298 Y111.433 E201.39271
G1 X131.298 Y110.535 E201.44018
G1 X124.702 Y117.131 E201.93293
G1 X123.804 Y117.131 E201.98039
G1 X131.298 Y109.637 E202.54026
G1 X131.002 Y109.034 E202.57572
G1 X122.906 Y117.131 E203.18058
G1 X122.007 Y117.131 E203.22804
G1 X130.103 Y109.034 E203.83290
G1 X129.205 Y109.034 E203.88036
G1 X121.109 Y117.131 E204.48523
G1 X120.210 Y117.131 E204.53269
G1 X128.307 Y109.034 E205.13755
G1 X127.408 Y109.034 E205.18501
G1 X119.312 Y117.131 E205.78987
G1 X118.413 Y117.131 E205.83733
G1 X126.510 Y109.034 E206.44220
G1 X125.611 Y109.034 E206.48966
G1 X117.515 Y117.131 E207.09452
G1 X116.616 Y117.131 E207.14198
G1 X124.713 Y109.034 E207.74684
G1 X123.814 Y109.034 E207.79431
G1 X115.718 Y117.131 E208.39917
G1 X114.819 Y117.131 E208.44663
G1 X122.916 Y109.034 E209.05149
G1 X122.017 Y109.034 E209.09895
G1 X113.921 Y117.131 E209.70381
G1 X113.022 Y117.131 E209.75128
G1 X121.119 Y109.034 E210.35614
G1 X120.220 Y109.034 E210.40360
G1 X112.124 Y117.131 E211.00846
G1 X111.226 Y117.131 E211.05592
G1 X119.322 Y109.034 E211.66079
G1 X118.424 Y109.034 E211.70825
G1 X110.327 Y117.131 E212.31311
G1 X109.429 Y117.131 E212.36057
G1 X117.525 Y109.034 E212.96543
G1 X116.627 Y109.034 E213.01289
G1 X108.530 Y117.131 E213.61776
G1 X107.632 Y117.131 E213.66522
G1 X115.728 Y109.034 E214.27008
G1 X114.830 Y109.034 E214.31754
G1 X106.733 Y117.131 E214.92240
G1 X105.835 Y117.131 E214.96987
G1 X113.931 Y109.034 E215.57473
G1 X113.033 Y109.034 E215.62219
G1 X104.936 Y117.131 E216.22705
G1 X104.038 Y117.131 E216.27451
G1 X112.134 Y109.034 E216.87937
G1 X111.236 Y109.034 E216.92684
G1 X103.139 Y117.131 E217.53170
G1 X102.241 Y117.131 E217.57916
G1 X110.337 Y109.034 E218.18402
G1 X109.439 Y109.034 E218.23148
G1 X101.342 Y117.131 E218.83635
G1 X100.444 Y117.131 E218.88381
G1 X108.540 Y109.034 E219.48867
G1 X107.642 Y109.034 E219.53613
G1 X99.546 Y117.131 E220.14099
G1 X98.647 Y117.131 E220.18846
G1 X106.744 Y109.034 E220.79332
G1 X105.845 Y109.034 E220.84078
G1 X97.749 Y117.131 E221.44564
G1 X96.850 Y117.131 E221.49310
G1 X104.947 Y109.034 E222.09796
G1 X104.048 Y109.034 E222.14543
G1 X95.952 Y117.131 E222.75029
G1 X95.053 Y117.131 E222.79775
G1 X103.150 Y109.034 E223.40261
G1 X102.251 Y109.034 E223.45007
G1 X94.155 Y117.131 E224.05494
G1 X93.256 Y117.131 E224.10240
G1 X101.353 Y109.034 E224.70726
G1 X100.454 Y109.034 E224.75472
G1 X92.358 Y117.131 E225.35958
G1 X91.459 Y117.131 E225.40704
G1 X99.556 Y109.034 E226.01191
G1 X98.657 Y109.034 E226.05937
G1 X90.561 Y117.131 E226.66423
G1 X89.663 Y117.131 E226.71169
G1 X97.759 Y109.034 E227.31655
G1 X96.861 Y109.034 E227.36402
G1 X88.764 Y117.131 E227.96888
G1 X87.866 Y117.131 E228.01634
G1 X95.962 Y109.034 E228.62120
G1 X95.064 Y109.034 E228.66866
G1 X86.967 Y117.131 E229.27352
G1 X86.069 Y117.131 E229.32099
G1 X94.165 Y109.034 E229.92585
G1 X93.267 Y109.034 E229.97331
G1 X85.170 Y117.131 E230.57817
G1 X84.272 Y117.131 E230.62563
G1 X92.368 Y109.034 E231.23050
G1 X91.470 Y109.034 E231.27796
G1 X83.373 Y117.131 E231.88282
G1 X82.475 Y117.131 E231.93028
G1 X90.571 Y109.034 E232.53514
G1 X89.673 Y109.034 E232.58260
G1 X81.576 Y117.131 E233.18747
G1 X80.678 Y117.131 E233.23493
G1 X88.774 Y109.034 E233.83979
G1 X87.876 Y109.034 E233.88725
G1 X79.779 Y117.131 E234.49211
G1 X78.881 Y117.131 E234.53958
G1 X86.977 Y109.034 E235.14444
G1 X86.079 Y109.034 E235.19190
G1 X77.983 Y117.131 E235.79676
G1 X77.084 Y117.131 E235.84422
G1 X85.181 Y109.034 E236.44908
G1 X84.282 Y109.034 E236.49655
G1 X76.186 Y117.131 E237.10141
G1 X75.287 Y117.131 E237.14887
G1 X83.384 Y109.034 E237.75373
G1 X82.485 Y109.034 E237.80119
G1 X74.389 Y117.131 E238.40605
G1 X73.490 Y117.131 E238.45352
G1 X81.587 Y109.034 E239.05838
G1 X80.688 Y109.034 E239.10584
G1 X72.592 Y117.131 E239.71070
G1 X71.693 Y117.131 E239.75816
G1 X79.790 Y109.034 E240.36303
G1 X78.891 Y109.034 E240.41049
G1 X70.795 Y117.131 E241.01535
G1 X69.896 Y117.131 E241.06281
G1 X77.993 Y109.034 E241.66767
G1 X77.094 Y109.034 E241.71513
G1 X68.998 Y117.131 E242.32000
G1 X68.702 Y116.529 E242.35545
G1 X76.196 Y109.034 E242.91532
G1 X75.297 Y109.034 E242.96278
G1 X68.702 Y115.630 E243.45553
G1 X68.702 Y114.732 E243.50299
G1 X74.399 Y109.034 E243.92862
G1 X73.501 Y109.034 E243.97608
G1 X68.702 Y113.833 E244.33458
G1 X68.702 Y112.935 E244.38205
G1 X72.602 Y109.034 E244.67343
G1 X71.704 Y109.034 E244.72089
G1 X68.702 Y112.036 E244.94515
G1 X68.702 Y111.138 E244.99262
G1 X70.805 Y109.034 E245.14976
G1 X69.907 Y109.034 E245.19722
G1 X68.702 Y110.239 E245.28724
G1 X68.702 Y109.341 E245.33470
G1 X69.008 Y109.034 E245.35760
G1 X68.500 Y108.339 F7800.000
M101 ; extruder on
G1 X68.500 Y84.600 E247.92279 F1200.000
G1 X68.296 Y83.839 E248.00793
G1 X68.781 Y83.279 F7800.000
M101 ; extruder on
G1 X69.742 Y81.614 E248.21569 F1200.000
G1 X69.798 Y81.629 F7800.000
M101 ; extruder on
G1 X70.468 Y81.812 E248.25197 F1200.000
G1 X71.304 Y81.812 E248.29565
G1 E246.29565 F2400.00000
