; generated by Slic3r 1.2.9 on 2017-04-18 at 01:10:17

; external perimeters extrusion width = 0.40mm
; perimeters extrusion width = 0.67mm
; infill extrusion width = 0.67mm
; solid infill extrusion width = 0.67mm
; top infill extrusion width = 0.67mm

M127
M104 S250 T0 ; set temperature
G28 ; home all axes
G1 Z5 F5000 ; lift nozzle

M73 P0
G1 Z0.350 F7800.000
G1 E-2.00000 F2400.00000
M103 ; extruder off
G1 X66.360 Y61.014 F7800.000
M101 ; extruder on
G1 E0.00000 F2400.00000
G1 X68.824 Y59.590 E0.25876 F1800.000
G1 X69.896 Y59.329 E0.35910
G1 X71.102 Y59.221 E0.46923
G1 X125.428 Y59.221 E5.40905
M101 ; extruder on
G1 X127.576 Y59.240 E5.60439 F1800.000
G1 X128.684 Y59.317 E5.70537
G1 X129.374 Y59.407 E5.76860
G1 X129.801 Y59.495 E5.80824
G1 X130.774 Y59.727 E5.89920
G1 X131.572 Y59.967 E5.97500
G1 X132.466 Y60.299 E6.06176
G1 X132.884 Y60.484 E6.10325
G1 X133.609 Y60.842 E6.17679
G1 X134.298 Y61.226 E6.24854
G1 X135.132 Y61.745 E6.33784
G1 X135.785 Y62.214 E6.41093
G1 X136.912 Y63.175 E6.54560
G1 X137.342 Y63.585 E6.59964
G1 X137.694 Y63.969 E6.64700
G1 X138.613 Y65.073 E6.77763
G1 X138.973 Y65.593 E6.83511
G1 X139.526 Y66.491 E6.93105
G1 X139.906 Y67.181 E7.00269
G1 X140.197 Y67.780 E7.06325
G1 X140.664 Y68.918 E7.17504
G1 X140.898 Y69.624 E7.24272
G1 X141.033 Y70.131 E7.29045
G1 X141.251 Y71.099 E7.38065
G1 X141.369 Y71.779 E7.44335
G1 X141.426 Y72.331 E7.49385
G1 X141.490 Y73.514 E7.60162
G1 X141.494 Y126.114 E12.38451
G1 X141.462 Y127.214 E12.48456
G1 X141.429 Y127.688 E12.52778
G1 X141.378 Y128.152 E12.57019
G1 X141.253 Y128.895 E12.63873
G1 X140.980 Y130.083 E12.74951
G1 X140.735 Y130.880 E12.82540
G1 X140.526 Y131.433 E12.87911
G1 X140.178 Y132.250 E12.95983
G1 X139.766 Y133.085 E13.04457
G1 X139.526 Y133.517 E13.08943
G1 X138.784 Y134.677 E13.21465
G1 X138.022 Y135.661 E13.32783
G1 X137.333 Y136.418 E13.42091
G1 X136.900 Y136.842 E13.47606
G1 X136.435 Y137.253 E13.53246
G1 X135.378 Y138.074 E13.65412
G1 X134.894 Y138.405 E13.70748
G1 X134.309 Y138.767 E13.77000
G1 X133.236 Y139.343 E13.88079
G1 X132.624 Y139.629 E13.94218
G1 X132.107 Y139.837 E13.99288
G1 X131.450 Y140.068 E14.05615
G1 X130.860 Y140.240 E14.11204
G1 X129.641 Y140.527 E14.22598
G1 X129.318 Y140.590 E14.25587
G1 X128.580 Y140.686 E14.32351
G1 X127.580 Y140.751 E14.41462
G1 X125.954 Y140.772 E14.56256
G1 X71.173 Y140.772 E19.54373
G1 X70.261 Y140.709 E19.62687
G1 X70.008 Y140.674 E19.65007
G1 X68.494 Y140.278 E19.79238
G1 X66.519 Y139.113 E20.00092
G1 X65.059 Y137.344 E20.20946
G1 X64.377 Y135.613 E20.37862
G1 X58.760 Y111.989 E22.58663
G1 X58.639 Y111.332 E22.64739
G1 X58.586 Y110.934 E22.68393
G1 X58.530 Y110.215 E22.74948
G1 X58.513 Y109.264 E22.83595
G1 X58.523 Y77.244 E25.74750
G1 X58.606 Y76.139 E25.84827
G1 X58.841 Y74.921 E25.96104
G1 X59.171 Y74.000 E26.05001
G1 X59.388 Y73.509 E26.09889
G1 X59.577 Y73.117 E26.13847
G1 X64.961 Y62.831 E27.19407
G1 X66.324 Y61.062 E27.39715
G1 E25.39715 F2400.00000
M103 ; extruder off
G1 X114.333 Y123.591 F7800.000
M101 ; extruder on
G1 E27.39715 F2400.00000
G1 X112.962 Y123.618 E27.52184 F1800.000
G1 X112.531 Y123.688 E27.56153
G1 X110.893 Y125.088 E27.75746
G1 X110.556 Y125.232 E27.79080
G1 X110.352 Y125.357 E27.81252
G1 X109.937 Y125.538 E27.85370
G1 X109.745 Y125.659 E27.87437
G1 X108.700 Y125.876 E27.97140
G1 X108.337 Y125.981 E28.00578
G1 X107.122 Y126.034 E28.11637
G1 X104.593 Y126.046 E28.34632
G1 X103.780 Y126.992 E28.45974
G1 X102.607 Y125.808 E28.61133
G1 X102.359 Y126.036 E28.64188
G1 X94.713 Y126.035 E29.33715
G1 X94.010 Y125.558 E29.41444
G1 X93.112 Y124.395 E29.54800
G1 X93.541 Y123.611 E29.62926
G1 X93.163 Y123.551 E29.66408
G1 X92.694 Y123.392 E29.70908
G1 X91.910 Y122.932 E29.79176
G1 X91.497 Y122.507 E29.84569
G1 X90.448 Y123.402 E29.97107
G1 X90.022 Y123.483 E30.01049
G1 X89.832 Y123.559 E30.02910
G1 X89.505 Y123.604 E30.05916
G1 X89.585 Y124.876 E30.17507
G1 X88.431 Y126.037 E30.32387
G1 X84.715 Y126.034 E30.66181
G1 X83.719 Y125.995 E30.75248
G1 X83.369 Y125.897 E30.78551
G1 X82.603 Y125.773 E30.85603
G1 X82.113 Y125.599 E30.90335
G1 X81.935 Y125.487 E30.92245
G1 X81.684 Y125.391 E30.94691
G1 X80.998 Y125.023 E31.01765
G1 X80.758 Y124.839 E31.04517
G1 X80.194 Y124.476 E31.10610
G1 X79.529 Y123.806 E31.19203
G1 X79.393 Y123.042 E31.26260
G1 X79.411 Y122.494 E31.31247
G1 X79.561 Y122.036 E31.35630
G1 X79.901 Y121.302 E31.42983
G1 X80.085 Y120.973 E31.46415
G1 X80.359 Y120.651 E31.50256
G1 X80.934 Y120.173 E31.57053
G1 X81.651 Y119.815 E31.64343
G1 X82.177 Y119.697 E31.69246
G1 X82.334 Y119.624 E31.70814
G1 X82.232 Y119.143 E31.75293
G1 X82.163 Y118.434 E31.81771
G1 X82.302 Y117.389 E31.91350
G1 X81.365 Y117.091 E32.00291
G1 X80.926 Y116.848 E32.04851
G1 X80.307 Y116.280 E32.12487
G1 X79.925 Y115.832 E32.17847
G1 X79.761 Y115.487 E32.21313
G1 X79.396 Y114.972 E32.27058
G1 X79.361 Y113.683 E32.38784
G1 X79.364 Y110.570 E32.67086
G1 X79.424 Y109.921 E32.73013
G1 X79.657 Y109.150 E32.80334
G1 X79.923 Y108.631 E32.85642
G1 X80.250 Y108.242 E32.90266
G1 X80.896 Y107.685 E32.98016
G1 X81.167 Y107.571 E33.00694
G1 X81.592 Y107.321 E33.05179
G1 X82.145 Y107.225 E33.10284
G1 X82.037 Y106.370 E33.18117
G1 X82.040 Y105.923 E33.22181
G1 X82.113 Y105.342 E33.27505
G1 X82.183 Y105.101 E33.29792
G1 X81.874 Y104.990 E33.32777
G1 X81.468 Y104.881 E33.36601
G1 X81.041 Y104.682 E33.40887
G1 X80.590 Y104.344 E33.46006
G1 X80.238 Y104.019 E33.50367
G1 X79.771 Y103.411 E33.57342
G1 X79.412 Y102.542 E33.65889
G1 X79.354 Y101.908 E33.71676
G1 X79.338 Y100.951 E33.80382
G1 X79.344 Y95.052 E34.34020
G1 X79.683 Y94.586 E34.39260
G1 X80.060 Y93.942 E34.46042
G1 X79.414 Y93.257 E34.54605
G1 X79.713 Y93.079 E34.57775
G1 X79.415 Y92.598 E34.62920
G1 X79.418 Y85.826 E35.24505
G1 X79.519 Y85.240 E35.29910
G1 X79.615 Y84.837 E35.33676
G1 X79.824 Y84.263 E35.39234
G1 X80.212 Y83.749 E35.45092
G1 X80.818 Y83.159 E35.52776
G1 X81.313 Y82.850 E35.58088
G1 X81.556 Y82.778 E35.60388
G1 X81.818 Y82.633 E35.63110
G1 X82.347 Y82.527 E35.68018
G1 X82.179 Y81.781 E35.74971
G1 X82.180 Y81.045 E35.81661
G1 X82.369 Y80.262 E35.88992
G1 X81.856 Y80.202 E35.93695
G1 X81.362 Y80.015 E35.98496
G1 X80.527 Y79.405 E36.07897
G1 X80.089 Y78.916 E36.13867
G1 X79.916 Y78.634 E36.16875
G1 X79.670 Y78.420 E36.19842
G1 X79.362 Y77.714 E36.26841
G1 X79.321 Y76.315 E36.39568
G1 X80.147 Y75.472 E36.50303
G1 X80.538 Y75.191 E36.54681
G1 X80.890 Y74.855 E36.59105
G1 X81.104 Y74.794 E36.61128
G1 X81.635 Y74.511 E36.66599
G1 X81.745 Y74.486 E36.67620
G1 X82.060 Y74.273 E36.71078
G1 X82.657 Y74.155 E36.76611
G1 X82.924 Y74.035 E36.79278
G1 X83.666 Y73.925 E36.86096
G1 X85.033 Y73.887 E36.98529
G1 X88.414 Y73.891 E37.29274
G1 X90.027 Y73.959 E37.43956
G1 X90.268 Y74.985 E37.53533
G1 X90.646 Y74.762 E37.57521
G1 X91.187 Y75.235 E37.64059
G1 X92.598 Y75.092 E37.76960
G1 X92.623 Y74.866 E37.79028
G1 X93.510 Y73.947 E37.90649
G1 X94.536 Y73.889 E37.99992
G1 X102.211 Y73.888 E38.69777
G1 X102.213 Y73.866 E38.69981
G1 X103.462 Y73.914 E38.81352
G1 X103.513 Y73.883 E38.81885
G1 X112.464 Y73.902 E39.63280
G1 X112.719 Y74.703 E39.70923
G1 X113.134 Y75.107 E39.76192
G1 X113.322 Y75.180 E39.78026
G1 X114.002 Y75.126 E39.84229
G1 X114.189 Y75.374 E39.87049
G1 X114.815 Y75.151 E39.93094
G1 X115.057 Y75.163 E39.95295
G1 X115.488 Y74.731 E40.00846
G1 X115.715 Y73.956 E40.08181
G1 X117.236 Y73.887 E40.22024
G1 X121.016 Y73.889 E40.56394
G1 X121.824 Y73.911 E40.63748
G1 X122.606 Y74.017 E40.70920
G1 X122.935 Y74.161 E40.74189
G1 X123.295 Y74.237 E40.77531
G1 X124.351 Y74.737 E40.88159
G1 X124.728 Y74.995 E40.92313
G1 X124.877 Y75.042 E40.93734
G1 X125.932 Y75.749 E41.05280
G1 X126.026 Y76.311 E41.10463
G1 X126.156 Y76.546 E41.12908
G1 X126.116 Y77.440 E41.21041
G1 X126.014 Y77.976 E41.26005
G1 X125.881 Y78.392 E41.29973
G1 X125.537 Y78.896 E41.35518
G1 X125.171 Y79.315 E41.40581
G1 X124.766 Y79.668 E41.45467
G1 X124.221 Y80.053 E41.51530
G1 X123.308 Y80.276 E41.60081
G1 X123.435 Y81.197 E41.68537
G1 X123.408 Y81.877 E41.74725
G1 X123.345 Y82.310 E41.78699
G1 X123.278 Y82.524 E41.80737
G1 X123.666 Y82.622 E41.84374
G1 X123.963 Y82.752 E41.87323
G1 X124.356 Y82.882 E41.91092
G1 X124.805 Y83.154 E41.95859
G1 X125.406 Y83.759 E42.03614
G1 X125.730 Y84.219 E42.08731
G1 X126.000 Y84.791 E42.14481
G1 X126.113 Y85.430 E42.20386
G1 X126.172 Y86.147 E42.26928
G1 X126.170 Y92.525 E42.84920
G1 X125.640 Y93.778 E42.97292
G1 X126.172 Y94.928 E43.08810
G1 X126.280 Y95.374 E43.12988
G1 X126.293 Y96.627 E43.24382
G1 X126.357 Y96.937 E43.27261
G1 X126.270 Y98.143 E43.38253
G1 X125.084 Y99.009 E43.51613
G1 X125.882 Y99.169 E43.59017
G1 X126.561 Y99.373 E43.65464
G1 X127.109 Y99.802 E43.71790
G1 X127.495 Y100.251 E43.77169
G1 X127.919 Y100.871 E43.84003
G1 X128.039 Y101.824 E43.92735
G1 X128.047 Y103.051 E44.03897
G1 X128.044 Y116.588 E45.26985
G1 X128.001 Y117.139 E45.32007
G1 X127.765 Y117.765 E45.38089
G1 X127.160 Y118.569 E45.47239
G1 X126.458 Y119.070 E45.55081
G1 X125.815 Y119.266 E45.61201
G1 X125.206 Y119.317 E45.66757
G1 X115.541 Y119.317 E46.54637
G1 X114.871 Y119.241 E46.60767
G1 X114.087 Y118.929 E46.68441
G1 X114.086 Y119.508 E46.73711
G1 X114.047 Y120.298 E46.80902
G1 X113.906 Y121.011 E46.87513
G1 X113.769 Y121.442 E46.91624
G1 X113.595 Y121.891 E46.96002
G1 X114.309 Y123.536 E47.12305
G1 X113.389 Y122.984 F7800.000
M101 ; extruder on
G1 X112.436 Y123.003 E47.20968 F1800.000
G1 X112.407 Y123.075 E47.21677
G1 X111.460 Y123.230 E47.30404
G1 X111.786 Y123.503 E47.34266
G1 X110.559 Y124.551 E47.48937
G1 X110.268 Y124.676 E47.51815
G1 X110.061 Y124.803 E47.54028
G1 X109.688 Y124.957 E47.57699
G1 X109.507 Y125.070 E47.59636
G1 X108.550 Y125.269 E47.68530
G1 X108.235 Y125.360 E47.71506
G1 X107.107 Y125.409 E47.81776
G1 X104.305 Y125.422 E48.07255
G1 X103.747 Y126.071 E48.15035
G1 X102.627 Y124.941 E48.29510
G1 X102.116 Y125.411 E48.35823
G1 X94.905 Y125.411 E49.01388
G1 X94.443 Y125.097 E49.06462
G1 X93.857 Y124.337 E49.15196
G1 X94.207 Y123.697 E49.21830
G1 X94.393 Y123.042 E49.28024
G1 X94.108 Y123.069 E49.30620
G1 X93.314 Y122.942 E49.37940
G1 X92.955 Y122.821 E49.41382
G1 X92.299 Y122.436 E49.48295
G1 X91.726 Y121.846 E49.55775
G1 X91.503 Y121.285 E49.61263
G1 X91.320 Y121.649 E49.64967
G1 X90.935 Y122.165 E49.70824
G1 X90.169 Y122.819 E49.79981
G1 X89.846 Y122.880 E49.82966
G1 X89.671 Y122.950 E49.84684
G1 X88.936 Y123.052 E49.91429
G1 X88.884 Y123.680 E49.97164
G1 X88.944 Y124.635 E50.05865
G1 X88.172 Y125.412 E50.15822
G1 X84.727 Y125.409 E50.47142
G1 X83.816 Y125.373 E50.55435
G1 X83.503 Y125.286 E50.58388
G1 X82.759 Y125.165 E50.65247
G1 X82.388 Y125.033 E50.68827
G1 X82.216 Y124.925 E50.70669
G1 X81.944 Y124.821 E50.73324
G1 X81.338 Y124.496 E50.79574
G1 X81.117 Y124.328 E50.82097
G1 X80.590 Y123.988 E50.87802
G1 X80.110 Y123.504 E50.94002
G1 X80.019 Y122.997 E50.98686
G1 X80.032 Y122.604 E51.02264
G1 X80.143 Y122.265 E51.05504
G1 X80.457 Y121.586 E51.12305
G1 X80.600 Y121.332 E51.14962
G1 X80.800 Y121.097 E51.17760
G1 X81.278 Y120.700 E51.23410
G1 X81.862 Y120.408 E51.29352
G1 X82.380 Y120.292 E51.34173
G1 X82.681 Y120.152 E51.37188
G1 X83.292 Y120.192 E51.42763
G1 X82.958 Y119.555 E51.49310
G1 X82.851 Y119.047 E51.54025
G1 X82.792 Y118.445 E51.59533
G1 X82.886 Y117.735 E51.66045
G1 X82.992 Y117.523 E51.68194
G1 X83.102 Y117.131 E51.71897
G1 X83.425 Y116.773 E51.76279
G1 X82.861 Y116.804 E51.81418
G1 X82.439 Y116.777 E51.85263
G1 X81.614 Y116.514 E51.93138
G1 X81.294 Y116.337 E51.96463
G1 X80.758 Y115.846 E52.03073
G1 X80.454 Y115.489 E52.07335
G1 X80.302 Y115.170 E52.10544
G1 X80.016 Y114.765 E52.15056
G1 X79.986 Y113.674 E52.24980
G1 X79.989 Y110.599 E52.52942
G1 X80.040 Y110.041 E52.58037
G1 X80.238 Y109.385 E52.64268
G1 X80.447 Y108.979 E52.68419
G1 X80.697 Y108.682 E52.71948
G1 X81.229 Y108.222 E52.78343
G1 X81.448 Y108.130 E52.80501
G1 X81.811 Y107.917 E52.84331
G1 X82.454 Y107.806 E52.90267
G1 X83.164 Y107.756 E52.96736
G1 X82.738 Y106.933 E53.05158
G1 X82.662 Y106.333 E53.10659
G1 X82.665 Y105.965 E53.14007
G1 X82.727 Y105.469 E53.18551
G1 X82.823 Y105.137 E53.21693
G1 X82.935 Y104.949 E53.23683
G1 X83.095 Y104.543 E53.27647
G1 X82.440 Y104.529 E53.33605
G1 X82.061 Y104.393 E53.37266
G1 X81.682 Y104.292 E53.40828
G1 X81.364 Y104.143 E53.44024
G1 X80.990 Y103.863 E53.48269
G1 X80.701 Y103.596 E53.51851
G1 X80.317 Y103.096 E53.57587
G1 X80.025 Y102.391 E53.64522
G1 X79.978 Y101.875 E53.69235
G1 X79.963 Y100.946 E53.77680
G1 X79.969 Y95.256 E54.29423
G1 X80.207 Y94.928 E54.33102
G1 X80.629 Y94.206 E54.40712
G1 X80.850 Y94.256 E54.42767
G1 X80.988 Y94.015 E54.45295
G1 X80.403 Y93.396 E54.53042
G1 X80.580 Y93.290 E54.54913
G1 X80.040 Y92.420 E54.64228
G1 X80.042 Y85.880 E55.23701
G1 X80.132 Y85.366 E55.28444
G1 X80.215 Y85.017 E55.31705
G1 X80.379 Y84.564 E55.36082
G1 X80.682 Y84.163 E55.40657
G1 X81.205 Y83.653 E55.47296
G1 X81.572 Y83.425 E55.51223
G1 X81.799 Y83.358 E55.53377
G1 X82.035 Y83.227 E55.55836
G1 X82.582 Y83.117 E55.60906
G1 X82.810 Y83.104 E55.62982
G1 X83.302 Y82.962 E55.67639
G1 X82.979 Y82.492 E55.72827
G1 X82.804 Y81.712 E55.80091
G1 X82.805 Y81.120 E55.85473
G1 X83.035 Y80.166 E55.94395
G1 X83.469 Y79.629 E56.00677
G1 X82.772 Y79.680 E56.07029
G1 X82.005 Y79.590 E56.14055
G1 X81.662 Y79.460 E56.17387
G1 X80.948 Y78.939 E56.25421
G1 X80.592 Y78.542 E56.30274
G1 X80.399 Y78.226 E56.33639
G1 X80.187 Y78.041 E56.36202
G1 X79.983 Y77.575 E56.40824
G1 X79.954 Y76.562 E56.50036
G1 X80.556 Y75.948 E56.57861
G1 X80.938 Y75.673 E56.62141
G1 X81.210 Y75.413 E56.65561
G1 X81.409 Y75.357 E56.67440
G1 X81.490 Y75.286 E56.68416
G1 X81.849 Y75.103 E56.72085
G1 X81.997 Y75.069 E56.73459
G1 X82.305 Y74.862 E56.76836
G1 X82.848 Y74.754 E56.81872
G1 X83.102 Y74.640 E56.84401
G1 X83.721 Y74.548 E56.90091
G1 X85.041 Y74.512 E57.02102
G1 X88.401 Y74.516 E57.32649
G1 X89.527 Y74.564 E57.42903
G1 X89.853 Y75.954 E57.55892
G1 X90.574 Y75.529 E57.63498
G1 X91.297 Y76.161 E57.72225
G1 X91.300 Y75.852 E57.75039
G1 X92.548 Y75.725 E57.86447
G1 X93.138 Y75.928 E57.92121
G1 X93.221 Y75.146 E57.99274
G1 X93.790 Y74.557 E58.06719
G1 X94.554 Y74.513 E58.13677
G1 X102.134 Y74.513 E58.82598
G1 X102.736 Y75.104 E58.90270
G1 X102.786 Y74.513 E58.95659
G1 X103.625 Y74.545 E59.03297
G1 X103.686 Y74.509 E59.03942
G1 X112.007 Y74.526 E59.79604
G1 X112.170 Y75.042 E59.84525
G1 X112.880 Y75.732 E59.93522
G1 X112.936 Y75.701 E59.94106
G1 X113.229 Y75.814 E59.96966
G1 X113.710 Y75.776 E60.01352
G1 X114.110 Y76.305 E60.07380
G1 X114.213 Y76.028 E60.10066
G1 X114.908 Y75.781 E60.16771
G1 X115.304 Y75.801 E60.20371
G1 X116.043 Y75.059 E60.29897
G1 X116.189 Y74.560 E60.34622
G1 X117.250 Y74.512 E60.44275
G1 X121.007 Y74.514 E60.78440
G1 X121.773 Y74.534 E60.85408
G1 X122.436 Y74.625 E60.91487
G1 X122.744 Y74.759 E60.94546
G1 X123.093 Y74.833 E60.97793
G1 X124.039 Y75.281 E61.07311
G1 X124.453 Y75.563 E61.11860
G1 X124.604 Y75.610 E61.13301
G1 X125.360 Y76.118 E61.21583
G1 X125.428 Y76.520 E61.25291
G1 X125.524 Y76.694 E61.27102
G1 X125.493 Y77.367 E61.33224
G1 X125.407 Y77.823 E61.37441
G1 X125.314 Y78.115 E61.40234
G1 X125.042 Y78.513 E61.44610
G1 X124.729 Y78.872 E61.48945
G1 X124.379 Y79.176 E61.53157
G1 X123.958 Y79.474 E61.57852
G1 X123.350 Y79.622 E61.63536
G1 X122.725 Y79.682 E61.69251
G1 X122.105 Y79.610 E61.74919
G1 X122.390 Y79.957 E61.79000
G1 X122.716 Y80.562 E61.85246
G1 X122.808 Y81.228 E61.91361
G1 X122.785 Y81.820 E61.96749
G1 X122.734 Y82.171 E61.99972
G1 X122.617 Y82.544 E62.03524
G1 X122.489 Y82.716 E62.05480
G1 X122.392 Y83.011 E62.08300
G1 X122.962 Y83.125 E62.13583
G1 X123.171 Y83.141 E62.15492
G1 X123.462 Y83.215 E62.18218
G1 X123.738 Y83.336 E62.20964
G1 X124.093 Y83.454 E62.24361
G1 X124.415 Y83.649 E62.27787
G1 X124.925 Y84.162 E62.34362
G1 X125.188 Y84.535 E62.38510
G1 X125.399 Y84.982 E62.43009
G1 X125.492 Y85.511 E62.47890
G1 X125.547 Y86.173 E62.53933
G1 X125.545 Y92.398 E63.10538
G1 X125.083 Y93.489 E63.21312
G1 X124.548 Y93.380 E63.26279
G1 X124.448 Y94.186 E63.33664
G1 X125.034 Y93.958 E63.39379
G1 X125.579 Y95.134 E63.51169
G1 X125.656 Y95.452 E63.54140
G1 X125.669 Y96.694 E63.65436
G1 X125.727 Y96.979 E63.68079
