; generated by Slic3r 1.2.9 on 2017-04-18 at 01:15:26

; external perimeters extrusion width = 0.40mm
; perimeters extrusion width = 0.67mm
; infill extrusion width = 0.67mm
; solid infill extrusion width = 0.67mm
; top infill extrusion width = 0.67mm

M127
M104 S250 T0 ; set temperature
G28 ; home all axes
G1 Z5 F5000 ; lift nozzle

M73 P0
G1 Z0.350 F7800.000
G1 E-2.00000 F2400.00000
M103 ; extruder off
G1 X56.432 Y75.394 F7800.000
M101 ; extruder on
G1 E0.00000 F2400.00000
G1 X58.303 Y74.344 E0.19515 F1800.000
G1 X87.160 Y63.855 E2.98701
G1 X87.872 Y63.639 E3.05472
G1 X90.601 Y62.969 E3.31016
G1 X92.858 Y62.880 E3.51562
M101 ; extruder on
G1 X96.223 Y63.462 E3.82608 F1800.000
G1 X97.393 Y63.720 E3.93510
G1 X98.445 Y64.021 E4.03456
G1 X98.963 Y64.203 E4.08448
G1 X112.237 Y69.295 E5.37720
G1 X113.204 Y69.713 E5.47302
G1 X113.980 Y70.126 E5.55294
G1 X151.837 Y92.246 E9.53982
G1 X153.092 Y93.045 E9.67508
G1 X153.879 Y93.602 E9.76281
G1 X154.480 Y94.062 E9.83161
G1 X155.066 Y94.541 E9.90040
G1 X155.635 Y95.041 E9.96932
G1 X156.186 Y95.562 E10.03826
G1 X156.718 Y96.104 E10.10734
G1 X157.231 Y96.668 E10.17660
G1 X158.024 Y97.640 E10.29066
G1 X158.827 Y98.764 E10.41629
G1 X159.175 Y99.309 E10.47515
G1 X159.536 Y99.936 E10.54092
G1 X159.815 Y100.490 E10.59725
G1 X160.083 Y101.104 E10.65822
G1 X160.433 Y102.109 E10.75501
G1 X160.602 Y102.748 E10.81507
G1 X160.730 Y103.359 E10.87185
G1 X160.825 Y103.951 E10.92632
G1 X160.899 Y104.603 E10.98605
G1 X160.972 Y105.623 E11.07904
G1 X161.053 Y108.847 E11.37226
G1 X160.705 Y111.114 E11.58080
G1 X159.604 Y113.126 E11.78934
G1 X157.883 Y114.642 E11.99788
G1 X156.840 Y115.160 E12.10383
G1 X102.896 Y136.223 E17.36956
G1 X101.562 Y136.563 E17.49471
G1 X97.103 Y137.126 E17.90337
G1 X95.192 Y137.087 E18.07725
G1 X94.589 Y136.987 E18.13280
G1 X93.731 Y136.807 E18.21248
G1 X93.092 Y136.631 E18.27278
G1 X92.580 Y136.462 E18.32181
G1 X92.009 Y136.245 E18.37732
G1 X91.109 Y135.838 E18.46722
G1 X82.405 Y131.354 E19.35748
G1 X81.674 Y130.927 E19.43447
G1 X55.829 Y114.084 E22.23953
G1 X41.909 Y104.612 E23.77050
G1 X40.558 Y103.390 E23.93617
G1 X39.353 Y101.311 E24.15469
G1 X38.945 Y99.024 E24.36593
G1 X39.214 Y93.422 E24.87590
G1 X39.248 Y92.899 E24.92357
G1 X39.336 Y92.165 E24.99074
G1 X39.500 Y91.399 E25.06202
G1 X39.820 Y90.455 E25.15265
G1 X40.548 Y89.123 E25.29062
G1 X41.712 Y87.827 E25.44901
G1 X53.553 Y77.698 E26.86594
G1 X56.385 Y75.432 E27.19573
G1 E25.19573 F2400.00000
M103 ; extruder off
G1 X94.129 Y127.806 F7800.000
M101 ; extruder on
G1 E27.19573 F2400.00000
G1 X93.822 Y127.699 E27.22531 F1800.000
G1 X93.418 Y127.400 E27.27101
G1 X92.704 Y126.700 E27.36196
G1 X92.245 Y126.159 E27.42648
G1 X91.714 Y125.409 E27.51001
G1 X91.468 Y125.010 E27.55268
G1 X91.031 Y124.198 E27.63651
G1 X90.657 Y123.351 E27.72069
G1 X90.352 Y122.479 E27.80467
G1 X90.117 Y121.591 E27.88826
G1 X89.955 Y120.692 E27.97125
G1 X89.870 Y119.791 E28.05357
G1 X89.868 Y118.771 E28.14634
G1 X89.909 Y118.237 E28.19498
G1 X89.976 Y117.760 E28.23881
G1 X90.071 Y117.340 E28.27795
G1 X90.195 Y116.979 E28.31262
G1 X90.359 Y116.676 E28.34401
G1 X90.580 Y116.451 E28.37265
G1 X90.758 Y116.364 E28.39073
G1 X90.939 Y116.336 E28.40732
G1 X91.300 Y116.378 E28.44041
G1 X93.707 Y116.798 E28.66255
G1 X95.442 Y117.143 E28.82341
G1 X96.472 Y117.397 E28.91994
G1 X96.496 Y117.907 E28.96632
G1 X96.329 Y119.244 E29.08884
G1 X95.796 Y122.345 E29.37497
G1 X95.586 Y123.417 E29.47427
G1 X95.046 Y125.813 E29.69766
G1 X94.779 Y126.801 E29.79068
G1 X94.560 Y127.401 E29.84872
G1 X94.414 Y127.635 E29.87385
G1 X94.181 Y127.775 E29.89861
G1 X93.954 Y128.081 F7800.000
G1 E27.89861 F2400.00000
M103 ; extruder off
G1 X88.768 Y120.457 F7800.000
M101 ; extruder on
G1 E29.89861 F2400.00000
G1 X87.279 Y121.504 E30.06409 F1800.000
G1 X87.057 Y121.301 E30.09143
G1 X88.149 Y119.393 E30.29135
G1 X89.032 Y117.774 E30.45903
G1 X89.329 Y117.872 E30.48750
G1 X89.287 Y118.170 E30.51482
G1 X89.243 Y118.748 E30.56751
G1 X89.245 Y119.821 E30.66510
G1 X89.336 Y120.777 E30.75243
G1 X89.413 Y121.208 E30.79221
G1 X89.083 Y121.298 E30.82336
G1 X88.789 Y120.513 E30.89956
G1 E28.89956 F2400.00000
M103 ; extruder off
G1 X91.525 Y115.801 F7800.000
M101 ; extruder on
G1 E30.89956 F2400.00000
G1 X91.381 Y115.658 E30.91802 F1800.000
G1 X91.302 Y115.462 E30.93724
G1 X91.307 Y115.004 E30.97890
G1 X89.606 Y115.006 E31.13356
G1 X89.381 Y114.986 E31.15419
G1 X89.166 Y114.926 E31.17444
G1 X88.969 Y114.778 E31.19691
G1 X88.867 Y114.555 E31.21915
G1 X88.845 Y114.192 E31.25218
G1 X88.900 Y113.665 E31.30042
G1 X88.519 Y113.825 E31.33805
G1 X88.234 Y113.859 E31.36411
G1 X87.927 Y113.859 E31.39205
G1 X87.322 Y113.788 E31.44744
G1 X87.037 Y113.718 E31.47409
G1 X86.765 Y113.602 E31.50104
G1 X86.537 Y113.312 E31.53450
G1 X86.651 Y112.912 E31.57230
G1 X86.906 Y112.409 E31.62358
G1 X87.143 Y112.226 E31.65081
G1 X87.403 Y112.189 E31.67475
G1 X87.696 Y112.342 E31.70472
G1 X88.186 Y112.734 E31.76180
G1 X88.356 Y112.841 E31.78012
G1 X88.475 Y112.899 E31.79209
G1 X88.732 Y112.945 E31.81584
G1 X89.036 Y113.153 E31.84935
G1 X88.950 Y113.510 E31.88282
G1 X89.485 Y113.360 E31.93340
G1 X89.726 Y113.391 E31.95549
G1 X89.929 Y113.505 E31.97666
G1 X90.126 Y113.703 E32.00206
G1 X90.256 Y113.789 E32.01621
G1 X90.720 Y114.037 E32.06409
G1 X91.447 Y114.378 E32.13706
G1 X91.376 Y114.700 E32.16697
G1 X91.775 Y114.510 E32.20712
G1 X92.016 Y114.496 E32.22913
G1 X92.278 Y114.536 E32.25325
G1 X92.563 Y114.617 E32.28011
G1 X93.193 Y114.856 E32.34140
G1 X93.444 Y114.993 E32.36737
G1 X93.669 Y115.194 E32.39483
G1 X93.706 Y115.408 E32.41455
G1 X94.147 Y115.199 E32.45896
G1 X94.420 Y115.130 E32.48458
G1 X94.960 Y115.091 E32.53380
G1 X95.279 Y115.115 E32.56290
G1 X95.563 Y115.174 E32.58923
G1 X95.832 Y115.283 E32.61564
G1 X96.013 Y115.435 E32.63712
G1 X96.196 Y115.768 E32.67165
G1 X96.650 Y115.545 E32.71767
G1 X96.838 Y115.499 E32.73524
G1 X97.225 Y115.460 E32.77059
G1 X97.599 Y115.460 E32.80463
G1 X97.926 Y115.511 E32.83475
G1 X98.103 Y115.612 E32.85327
G1 X98.241 Y115.781 E32.87310
G1 X98.502 Y115.487 E32.90891
G1 X98.816 Y115.269 E32.94363
G1 X99.027 Y115.168 E32.96494
G1 X99.419 Y115.055 E33.00204
G1 X99.871 Y115.013 E33.04330
G1 X100.109 Y115.019 E33.06496
G1 X100.318 Y115.078 E33.08469
G1 X100.498 Y115.207 E33.10488
G1 X101.419 Y114.783 E33.19711
G1 X101.674 Y114.714 E33.22110
G1 X102.159 Y114.670 E33.26536
G1 X102.448 Y114.682 E33.29167
G1 X102.907 Y114.776 E33.33430
G1 X103.236 Y114.975 E33.36924
G1 X103.356 Y115.328 E33.40308
G1 X103.206 Y115.581 E33.42987
G1 X102.982 Y115.708 E33.45328
G1 X102.739 Y115.768 E33.47610
G1 X102.224 Y115.800 E33.52302
G1 X101.669 Y115.743 E33.57374
G1 X101.403 Y115.673 E33.59871
G1 X100.616 Y115.375 E33.67521
G1 X100.704 Y115.752 E33.71042
G1 X100.728 Y116.084 E33.74064
G1 X100.651 Y116.322 E33.76342
G1 X100.426 Y116.494 E33.78921
G1 X100.047 Y116.521 E33.82378
G1 X99.527 Y116.468 E33.87131
G1 X98.676 Y116.341 E33.94953
G1 X98.348 Y116.243 E33.98064
G1 X98.068 Y116.584 E34.02085
G1 X97.894 Y116.677 E34.03877
G1 X97.533 Y116.729 E34.07194
G1 X97.091 Y116.702 E34.11221
G1 X96.620 Y116.582 E34.15635
G1 X96.450 Y116.493 E34.17384
G1 X96.142 Y116.185 E34.21337
G1 X95.783 Y116.468 E34.25495
G1 X95.582 Y116.521 E34.27384
G1 X95.245 Y116.528 E34.30448
G1 X94.210 Y116.403 E34.39926
G1 X93.836 Y116.308 E34.43432
G1 X93.626 Y116.117 E34.46020
G1 X93.587 Y115.793 E34.48986
G1 X93.184 Y115.906 E34.52800
G1 X92.881 Y115.940 E34.55565
G1 X92.047 Y115.939 E34.63156
G1 X91.705 Y115.885 E34.66304
G1 X91.580 Y115.826 E34.67558
G1 X91.337 Y115.876 F7800.000
G1 X84.540 Y113.083 F7800.000
M101 ; extruder on
G1 X84.141 Y113.228 E34.71412 F1800.000
G1 X83.685 Y113.721 E34.77522
G1 X83.402 Y114.139 E34.82106
G1 X83.108 Y114.632 E34.87324
G1 X82.913 Y115.017 E34.91257
G1 X82.745 Y115.436 E34.95353
G1 X82.614 Y115.852 E34.99325
G1 X81.114 Y117.080 E35.16950
G1 X80.874 Y116.855 E35.19935
G1 X83.248 Y113.375 E35.58242
G1 X83.852 Y112.423 E35.68496
G1 X84.496 Y113.041 E35.76613
G1 X84.497 Y113.763 F7800.000
M101 ; extruder on
G1 X84.756 Y113.669 E35.79112 F1800.000
G1 X85.518 Y113.981 E35.86604
G1 X87.758 Y114.964 E36.08846
G1 X88.416 Y115.289 E36.15518
G1 X88.875 Y115.546 E36.20298
G1 X89.049 Y115.670 E36.22245
G1 X89.250 Y115.926 E36.25206
G1 X89.035 Y116.426 E36.30159
G1 X88.684 Y117.106 E36.37112
G1 X87.604 Y119.088 E36.57643
G1 X85.955 Y121.968 E36.87820
G1 X85.639 Y122.466 E36.93174
G1 X85.450 Y122.709 E36.95977
G1 X85.232 Y122.904 E36.98639
G1 X84.930 Y123.014 E37.01563
G1 X84.625 Y122.935 E37.04427
G1 X84.462 Y122.819 E37.06248
G1 X84.177 Y122.465 E37.10379
G1 X83.749 Y121.689 E37.18437
G1 X83.567 Y121.295 E37.22384
G1 X83.410 Y120.883 E37.26396
G1 X83.274 Y120.452 E37.30508
G1 X83.078 Y119.575 E37.38675
G1 X83.012 Y119.113 E37.42917
G1 X82.952 Y118.207 E37.51178
G1 X82.985 Y117.313 E37.59305
G1 X83.036 Y116.872 E37.63344
G1 X83.111 Y116.448 E37.67264
G1 X83.210 Y116.038 E37.71096
G1 X83.334 Y115.646 E37.74831
G1 X83.483 Y115.276 E37.78466
G1 X83.656 Y114.933 E37.81957
G1 X83.930 Y114.474 E37.86812
G1 X84.176 Y114.111 E37.90803
G1 X84.457 Y113.807 E37.94563
G1 X84.502 Y113.489 F7800.000
G1 X83.388 Y111.988 F7800.000
M101 ; extruder on
G1 X82.725 Y113.033 E38.05820 F1800.000
G1 X81.661 Y114.615 E38.23153
G1 X80.523 Y116.272 E38.41428
G1 X79.817 Y117.261 E38.52480
G1 X79.501 Y117.600 E38.56694
G1 X79.325 Y117.737 E38.58728
G1 X78.989 Y117.878 E38.62041
G1 X78.703 Y117.604 E38.65639
G1 X78.546 Y117.329 E38.68517
G1 X78.222 Y116.567 E38.76049
G1 X78.008 Y115.848 E38.82872
G1 X77.929 Y115.459 E38.86479
G1 X77.839 Y114.695 E38.93474
G1 X77.824 Y114.296 E38.97108
G1 X77.854 Y113.523 E39.04138
G1 X77.962 Y112.769 E39.11060
G1 X78.048 Y112.393 E39.14571
G1 X78.270 Y111.705 E39.21147
G1 X78.414 Y111.372 E39.24442
G1 X78.577 Y111.062 E39.27623
G1 X78.760 Y110.771 E39.30752
G1 X78.934 Y110.547 E39.33330
G1 X79.125 Y110.348 E39.35836
G1 X79.407 Y110.150 E39.38974
G1 X79.614 Y110.105 E39.40896
G1 X79.922 Y110.201 E39.43838
G1 X80.883 Y110.634 E39.53421
G1 X82.615 Y111.525 E39.71126
G1 X83.337 Y111.957 E39.78779
G1 X83.728 Y112.199 F7800.000
G1 X79.978 Y109.564 F7800.000
M101 ; extruder on
G1 X79.642 Y109.459 E39.81983 F1800.000
G1 X79.312 Y109.531 E39.85052
G1 X79.173 Y109.304 E39.87472
G1 X79.794 Y108.543 E39.96409
G1 X79.856 Y109.210 E40.02505
G1 X79.959 Y109.507 E40.05365
G1 X77.615 Y111.699 F7800.000
M101 ; extruder on
G1 X77.445 Y112.227 E40.10409 F1800.000
G1 X77.289 Y112.913 E40.16805
G1 X76.652 Y112.397 E40.24256
G1 X77.342 Y111.551 E40.34187
G1 X77.562 Y111.671 E40.36470
G1 E38.36470 F2400.00000
M103 ; extruder off
G1 X72.236 Y109.434 F7800.000
M101 ; extruder on
G1 E40.36470 F2400.00000
G1 X71.860 Y110.036 E40.42928 F1800.000
G1 X71.676 Y109.636 E40.46935
G1 X71.474 Y109.055 E40.52529
G1 X72.182 Y109.407 E40.59724
G1 E38.59724 F2400.00000
M103 ; extruder off
G1 X78.639 Y118.702 F7800.000
M101 ; extruder on
G1 E40.59724 F2400.00000
G1 X79.566 Y118.314 E40.68856 F1800.000
G1 X79.743 Y118.517 E40.71308
G1 X79.497 Y118.941 E40.75767
G1 X79.251 Y119.436 E40.80795
G1 X78.991 Y119.161 E40.84242
G1 X78.674 Y118.751 E40.88957
G1 E38.88957 F2400.00000
M103 ; extruder off
G1 X84.876 Y123.698 F7800.000
M101 ; extruder on
G1 E40.88957 F2400.00000
G1 X85.782 Y123.369 E40.97721 F1800.000
G1 X85.389 Y124.201 E41.06084
G1 X84.919 Y123.740 E41.12063
G1 E39.12063 F2400.00000
M103 ; extruder off
G1 X93.868 Y128.692 F7800.000
M101 ; extruder on
G1 E41.12063 F2400.00000
G1 X94.865 Y128.093 E41.22641 F1800.000
G1 X95.125 Y127.675 E41.27113
G1 X95.206 Y127.454 E41.29257
G1 X95.537 Y127.543 E41.32377
G1 X95.450 Y128.039 E41.36954
G1 X95.364 Y128.709 E41.43097
G1 X95.322 Y129.364 E41.49071
G1 X94.999 Y129.258 E41.52164
G1 X94.569 Y129.071 E41.56426
G1 X93.921 Y128.721 E41.63130
G1 E39.63130 F2400.00000
M103 ; extruder off
G1 X99.770 Y127.824 F7800.000
M101 ; extruder on
G1 E41.63130 F2400.00000
G1 X100.393 Y128.064 E41.69206 F1800.000
G1 X100.914 Y127.973 E41.74015
G1 X101.401 Y127.698 E41.79094
G1 X101.599 Y127.954 E41.82036
G1 X100.917 Y128.633 E41.90789
G1 X100.636 Y128.869 E41.94122
G1 X100.466 Y128.983 E41.95985
G1 X100.285 Y128.765 E41.98561
G1 X100.110 Y128.482 E42.01586
G1 X99.797 Y127.878 E42.07772
G1 X97.803 Y123.348 F7800.000
M101 ; extruder on
G1 X96.897 Y123.226 E42.16086 F1800.000
G1 X97.186 Y121.635 E42.30790
G1 X97.503 Y121.636 E42.33669
G1 X97.792 Y123.289 E42.48929
G1 X97.134 Y123.889 F7800.000
M101 ; extruder on
G1 X96.560 Y124.360 E42.55680 F1800.000
G1 X96.199 Y124.989 E42.62273
G1 X95.898 Y124.872 E42.65208
G1 X96.198 Y123.546 E42.77570
G1 X96.411 Y122.458 E42.87646
G1 X96.947 Y119.335 E43.16457
G1 X97.122 Y117.932 E43.29322
G1 X97.095 Y117.328 E43.34812
G1 X97.507 Y117.354 E43.38564
G1 X97.652 Y118.607 E43.50035
G1 X97.937 Y120.446 E43.66956
G1 X98.283 Y122.509 E43.85977
G1 X98.628 Y124.308 E44.02637
G1 X98.364 Y124.439 E44.05315
G1 X97.998 Y124.005 E44.10482
G1 X97.193 Y123.897 E44.17868
G1 X100.456 Y127.419 F7800.000
M101 ; extruder on
G1 X100.195 Y127.319 E44.20409 F1800.000
G1 X100.045 Y127.085 E44.22937
G1 X99.938 Y126.828 E44.25462
G1 X99.711 Y126.112 E44.32297
G1 X99.451 Y125.116 E44.41651
G1 X99.180 Y123.915 E44.52853
G1 X98.898 Y122.400 E44.66862
G1 X98.271 Y118.523 E45.02574
G1 X98.141 Y117.400 E45.12855
G1 X99.282 Y117.146 E45.23482
G1 X104.185 Y116.191 E45.68906
G1 X104.614 Y117.188 E45.78782
G1 X104.752 Y117.900 E45.85370
G1 X104.805 Y118.505 E45.90893
G1 X104.824 Y119.178 E45.97021
G1 X104.802 Y119.865 E46.03270
G1 X104.734 Y120.541 E46.09443
G1 X104.618 Y121.207 E46.15589
G1 X104.454 Y121.866 E46.21765
G1 X104.241 Y122.521 E46.28029
G1 X103.978 Y123.174 E46.34434
G1 X103.682 Y123.800 E46.40731
G1 X103.300 Y124.495 E46.47935
G1 X102.961 Y125.030 E46.53701
G1 X102.577 Y125.561 E46.59660
G1 X102.172 Y126.064 E46.65531
G1 X101.767 Y126.517 E46.71053
G1 X101.382 Y126.898 E46.75983
G1 X101.027 Y127.192 E46.80167
G1 X100.701 Y127.376 E46.83579
G1 X100.515 Y127.409 E46.85291
G1 X100.274 Y127.631 F7800.000
G1 E44.85291 F2400.00000
M103 ; extruder off
G1 X103.368 Y114.506 F7800.000
M101 ; extruder on
G1 E46.85291 F2400.00000
G1 X104.709 Y113.719 E46.99424 F1800.000
G1 X105.134 Y113.494 E47.03800
G1 X105.329 Y113.422 E47.05687
G1 X105.560 Y113.393 E47.07808
G1 X105.844 Y113.518 E47.10629
G1 X105.952 Y113.815 E47.13507
G1 X105.876 Y114.182 E47.16910
G1 X105.633 Y114.819 E47.23112
G1 X105.200 Y114.800 E47.27056
G1 X103.428 Y114.515 E47.43376
G1 X103.075 Y114.234 F7800.000
G1 E45.43376 F2400.00000
M103 ; extruder off
G1 X106.476 Y113.621 F7800.000
M101 ; extruder on
G1 E47.43376 F2400.00000
G1 X106.315 Y113.025 E47.48985 F1800.000
G1 X106.951 Y112.650 E47.55704
G1 X107.375 Y112.424 E47.60069
G1 X107.562 Y112.349 E47.61900
G1 X107.754 Y112.305 E47.63698
G1 X108.023 Y112.337 E47.66161
G1 X108.230 Y112.584 E47.69091
G1 X108.226 Y112.843 E47.71447
G1 X108.007 Y113.490 E47.77658
G1 X107.619 Y113.596 E47.81315
G1 X106.536 Y113.619 E47.91158
G1 X106.083 Y113.694 F7800.000
G1 X105.218 Y116.050 F7800.000
M101 ; extruder on
G1 X105.443 Y115.855 E47.93870 F1800.000
G1 X105.693 Y115.697 E47.96560
G1 X107.066 Y114.998 E48.10563
G1 X108.372 Y114.224 E48.24372
G1 X108.639 Y114.130 E48.26945
G1 X108.885 Y114.261 E48.29482
G1 X109.055 Y114.408 E48.31526
G1 X109.404 Y114.787 E48.36212
G1 X111.868 Y117.800 E48.71602
G1 X112.520 Y118.651 E48.81352
G1 X112.705 Y118.920 E48.84324
G1 X112.939 Y119.404 E48.89206
G1 X112.471 Y119.616 E48.93876
G1 X112.149 Y119.663 E48.96832
G1 X111.708 Y119.671 E49.00847
G1 X111.129 Y119.649 E49.06118
G1 X110.417 Y119.586 E49.12615
G1 X109.795 Y119.475 E49.18363
G1 X109.178 Y119.291 E49.24213
G1 X108.523 Y119.029 E49.30634
G1 X107.991 Y118.762 E49.36045
G1 X107.426 Y118.424 E49.42032
G1 X106.863 Y118.043 E49.48212
G1 X106.334 Y117.646 E49.54227
G1 X105.871 Y117.257 E49.59722
G1 X105.503 Y116.896 E49.64411
G1 X105.256 Y116.571 E49.68129
G1 X105.168 Y116.336 E49.70404
G1 X105.208 Y116.110 E49.72495
G1 X105.096 Y115.778 F7800.000
G1 X108.682 Y113.445 F7800.000
M101 ; extruder on
G1 X108.838 Y112.987 E49.76897 F1800.000
G1 X109.391 Y112.975 E49.81927
G1 X109.463 Y113.860 E49.89999
