; generated by Slic3r 1.2.9 on 2017-04-18 at 01:42:45

; external perimeters extrusion width = 0.40mm
; perimeters extrusion width = 0.67mm
; infill extrusion width = 0.67mm
; solid infill extrusion width = 0.67mm
; top infill extrusion width = 0.67mm

M127
M104 S250 T0 ; set temperature
G28 ; home all axes
G1 Z5 F5000 ; lift nozzle

M73 P0
G1 Z0.350 F7800.000
G1 E-2.00000 F2400.00000
M103 ; extruder off
G1 X35.306 Y42.482 F7800.000
M101 ; extruder on
G1 E0.00000 F2400.00000
G1 X37.407 Y41.563 E0.20854 F1800.000
G1 X38.973 Y41.375 E0.35192
G1 X175.973 Y41.375 E12.80927
G1 X178.231 Y41.772 E13.01781
M101 ; extruder on
G1 X180.220 Y42.915 E13.22635 F1800.000
G1 X181.699 Y44.668 E13.43489
G1 X182.492 Y46.820 E13.64344
G1 X182.597 Y48.000 E13.75115
G1 X182.597 Y152.000 E23.20782
G1 X182.200 Y154.259 E23.41636
G1 X181.057 Y156.247 E23.62491
G1 X179.304 Y157.726 E23.83345
G1 X177.152 Y158.519 E24.04199
G1 X175.973 Y158.625 E24.14970
G1 X38.973 Y158.625 E36.60705
G1 X36.714 Y158.228 E36.81559
G1 X34.726 Y157.085 E37.02414
G1 X33.247 Y155.332 E37.23268
G1 X32.621 Y153.884 E37.37605
G1 X18.111 Y104.974 E42.01500
G1 X17.982 Y104.467 E42.06258
G1 X17.547 Y102.422 E42.25267
G1 X17.403 Y101.045 E42.37859
G1 X17.403 Y98.955 E42.56868
G1 X17.547 Y97.578 E42.69460
G1 X17.982 Y95.533 E42.88470
G1 X18.111 Y95.026 E42.93227
G1 X32.621 Y46.116 E47.57122
G1 X33.644 Y44.063 E47.77976
G1 X35.263 Y42.524 E47.98285
G1 E45.98285 F2400.00000
M103 ; extruder off
G1 X40.688 Y97.219 F7800.000
M101 ; extruder on
G1 E47.98285 F2400.00000
G1 X41.241 Y100.000 E48.24072 F1800.000
G1 X40.688 Y102.781 E48.49859
G1 X39.112 Y105.139 E48.75646
G1 X36.754 Y106.715 E49.01433
G1 X33.973 Y107.268 E49.27220
G1 X31.191 Y106.715 E49.53007
G1 X28.833 Y105.139 E49.78793
G1 X27.258 Y102.781 E50.04581
G1 X26.704 Y100.000 E50.30368
G1 X27.258 Y97.219 E50.56155
G1 X28.833 Y94.861 E50.81942
G1 X31.191 Y93.285 E51.07728
G1 X33.419 Y92.842 E51.28383
M101 ; extruder on
G1 X33.973 Y92.732 E51.33516 F1800.000
G1 X36.754 Y93.285 E51.59302
G1 X39.112 Y94.861 E51.85089
G1 X40.654 Y97.169 E52.10331
G1 X40.099 Y97.462 F7800.000
M101 ; extruder on
G1 X40.604 Y100.000 E52.33857 F1800.000
G1 X40.099 Y102.538 E52.57384
G1 X38.661 Y104.689 E52.80910
G1 X36.510 Y106.126 E53.04437
G1 X33.973 Y106.631 E53.27963
G1 X31.435 Y106.126 E53.51490
G1 X29.284 Y104.689 E53.75016
G1 X27.846 Y102.538 E53.98542
G1 X27.341 Y100.000 E54.22069
G1 X27.846 Y97.462 E54.45596
G1 X29.284 Y95.311 E54.69122
G1 X31.435 Y93.874 E54.92648
G1 X33.541 Y93.455 E55.12173
M101 ; extruder on
G1 X33.973 Y93.369 E55.16175 F1800.000
G1 X36.510 Y93.874 E55.39701
G1 X38.661 Y95.311 E55.63228
G1 X40.066 Y97.412 E55.86209
G1 X39.510 Y97.706 F7800.000
M101 ; extruder on
G1 X39.967 Y100.000 E56.07475 F1800.000
G1 X39.510 Y102.294 E56.28741
G1 X38.211 Y104.238 E56.50007
G1 X36.266 Y105.538 E56.71273
G1 X33.973 Y105.994 E56.92539
G1 X31.679 Y105.538 E57.13805
G1 X29.734 Y104.238 E57.35070
G1 X28.435 Y102.294 E57.56337
G1 X27.979 Y100.000 E57.77603
G1 X28.435 Y97.706 E57.98869
G1 X29.734 Y95.762 E58.20135
G1 X31.679 Y94.462 E58.41401
G1 X33.663 Y94.068 E58.59795
M101 ; extruder on
G1 X33.973 Y94.006 E58.62667 F1800.000
G1 X36.266 Y94.462 E58.83933
G1 X38.211 Y95.762 E59.05198
G1 X39.477 Y97.656 E59.25919
G1 X38.922 Y97.950 F7800.000
M101 ; extruder on
G1 X39.329 Y100.000 E59.44924 F1800.000
G1 X38.922 Y102.050 E59.63930
G1 X37.760 Y103.788 E59.82936
G1 X36.023 Y104.949 E60.01941
G1 X33.973 Y105.357 E60.20947
G1 X31.923 Y104.949 E60.39952
G1 X30.185 Y103.788 E60.58957
G1 X29.024 Y102.050 E60.77963
G1 X28.616 Y100.000 E60.96969
G1 X29.024 Y97.950 E61.15974
G1 X30.185 Y96.212 E61.34980
M101 ; extruder on
G1 X31.923 Y95.051 E61.53985 F1800.000
G1 X33.973 Y94.643 E61.72991
G1 X36.023 Y95.051 E61.91996
G1 X37.760 Y96.212 E62.11002
G1 X38.888 Y97.900 E62.29462
G1 X39.314 Y98.028 F7800.000
G1 E60.29462 F2400.00000
M103 ; extruder off
G1 X41.197 Y95.256 F7800.000
M101 ; extruder on
G1 E62.29462 F2400.00000
G1 X41.197 Y50.225 E66.38932 F1800.000
G1 X173.748 Y50.225 E78.44210
G1 X173.748 Y149.775 E87.49420
G1 X41.197 Y149.775 E99.54697
G1 X41.197 Y104.744 E103.64168
G1 X37.130 Y107.092 E104.06871
G1 X35.587 Y107.593 E104.21629
G1 X33.973 Y107.763 E104.36386
G1 X32.359 Y107.593 E104.51143
G1 X30.815 Y107.092 E104.65901
G1 X29.410 Y106.280 E104.80657
G1 X28.204 Y105.195 E104.95414
G1 X27.250 Y103.882 E105.10172
G1 X26.589 Y102.399 E105.24929
G1 X26.252 Y100.811 E105.39686
G1 X26.252 Y99.189 E105.54443
G1 X26.589 Y97.601 E105.69200
G1 X27.250 Y96.119 E105.83957
G1 X28.204 Y94.805 E105.98715
G1 X29.410 Y93.720 E106.13472
G1 X30.815 Y92.908 E106.28229
G1 X32.359 Y92.407 E106.42986
G1 X33.973 Y92.237 E106.57743
G1 X35.587 Y92.407 E106.72501
G1 X37.130 Y92.908 E106.87258
G1 X41.145 Y95.226 E107.29416
G1 X40.572 Y94.174 F7800.000
M101 ; extruder on
G1 X40.572 Y49.600 E111.34727 F1800.000
G1 X174.373 Y49.600 E123.51369
G1 X174.373 Y150.400 E132.67943
G1 X40.572 Y150.400 E144.84584
G1 X40.572 Y105.826 E148.89895
G1 X37.386 Y107.666 E149.23354
G1 X35.717 Y108.208 E149.39306
G1 X33.973 Y108.391 E149.55258
G1 X32.228 Y108.208 E149.71209
G1 X30.559 Y107.666 E149.87161
G1 X29.040 Y106.789 E150.03112
G1 X27.737 Y105.615 E150.19064
G1 X26.705 Y104.196 E150.35016
G1 X25.992 Y102.593 E150.50968
G1 X25.627 Y100.877 E150.66919
G1 X25.627 Y99.123 E150.82871
G1 X25.992 Y97.407 E150.98822
G1 X26.705 Y95.804 E151.14773
G1 X27.737 Y94.385 E151.30725
G1 X29.040 Y93.211 E151.46677
G1 X30.559 Y92.334 E151.62628
G1 X32.228 Y91.792 E151.78580
G1 X33.973 Y91.609 E151.94532
G1 X35.717 Y91.792 E152.10483
G1 X37.386 Y92.334 E152.26435
G1 X40.520 Y94.144 E152.59348
G1 X39.947 Y93.092 F7800.000
M101 ; extruder on
G1 X39.947 Y48.975 E156.60500 F1800.000
G1 X174.998 Y48.975 E168.88505
G1 X174.998 Y151.025 E178.16444
G1 X39.947 Y151.025 E190.44450
G1 X39.947 Y106.908 E194.45601
G1 X37.641 Y108.240 E194.69815
G1 X35.848 Y108.823 E194.86962
G1 X33.973 Y109.020 E195.04108
G1 X32.097 Y108.823 E195.21254
G1 X30.304 Y108.240 E195.38400
G1 X28.671 Y107.297 E195.55545
G1 X27.270 Y106.035 E195.72691
G1 X26.178 Y104.533 E195.89581
G1 X25.394 Y102.787 E196.06978
G1 X25.002 Y100.943 E196.24124
G1 X25.002 Y99.057 E196.41270
G1 X25.394 Y97.213 E196.58416
G1 X26.161 Y95.490 E196.75562
G1 X27.270 Y93.965 E196.92708
G1 X28.671 Y92.703 E197.09855
G1 X30.304 Y91.760 E197.27000
G1 X32.097 Y91.177 E197.44146
G1 X33.973 Y90.980 E197.61292
G1 X35.848 Y91.177 E197.78438
G1 X37.641 Y91.760 E197.95585
G1 X39.896 Y93.062 E198.19253
G1 X39.323 Y92.009 F7800.000
M101 ; extruder on
G1 X39.323 Y48.350 E202.16245 F1800.000
G1 X175.623 Y48.350 E214.55615
G1 X175.623 Y151.650 E223.94917
G1 X39.323 Y151.650 E236.34287
G1 X39.323 Y107.991 E240.31279
G1 X37.897 Y108.814 E240.46249
G1 X35.979 Y109.437 E240.64590
G1 X33.973 Y109.648 E240.82930
G1 X31.967 Y109.437 E241.01270
G1 X30.048 Y108.814 E241.19611
G1 X28.302 Y107.805 E241.37951
G1 X26.803 Y106.456 E241.56292
G1 X25.672 Y104.900 E241.73778
G1 X25.617 Y104.824 E241.74632
G1 X24.797 Y102.981 E241.92973
G1 X24.377 Y101.008 E242.11313
G1 X24.377 Y98.992 E242.29653
G1 X24.797 Y97.019 E242.47994
G1 X25.617 Y95.176 E242.66334
G1 X26.803 Y93.544 E242.84675
G1 X28.302 Y92.195 E243.03016
G1 X30.048 Y91.186 E243.21355
G1 X31.967 Y90.563 E243.39696
G1 X33.973 Y90.352 E243.58036
G1 X35.979 Y90.563 E243.76377
G1 X37.897 Y91.186 E243.94718
G1 X39.271 Y91.979 E244.09142
G1 X39.717 Y92.079 F7800.000
G1 X38.850 Y94.285 F7800.000
M101 ; extruder on
G1 X39.372 Y94.612 E244.14746 F1800.000
G1 X40.479 Y95.649 E244.28535
G1 X40.479 Y104.351 F7800.000
M101 ; extruder on
G1 X39.372 Y105.388 E244.42324 F1800.000
G1 X38.850 Y105.715 E244.47927
G1 E242.47927 F2400.00000
M103 ; extruder off
G1 X41.576 Y149.092 F7800.000
M101 ; extruder on
G1 E244.47927 F2400.00000
G1 X41.881 Y149.397 E244.51853 F1800.000
G1 X42.765 Y149.397 E244.59903
G1 X41.576 Y148.207 E244.75213
G1 X41.576 Y147.323 E244.83263
G1 X43.650 Y149.397 E245.09958
G1 X44.534 Y149.397 E245.18008
G1 X41.576 Y146.438 E245.56088
G1 X41.576 Y145.554 E245.64138
G1 X45.419 Y149.397 E246.13603
G1 X46.303 Y149.397 E246.21653
G1 X41.576 Y144.669 E246.82502
G1 X41.576 Y143.785 E246.90552
G1 X47.188 Y149.397 E247.62786
G1 X48.073 Y149.397 E247.70837
G1 X41.576 Y142.900 E248.54455
G1 X41.576 Y142.016 E248.62506
G1 X48.957 Y149.397 E249.57509
G1 X49.842 Y149.397 E249.65559
G1 X41.576 Y141.131 E250.71948
G1 X41.576 Y140.247 E250.79998
G1 X50.726 Y149.397 E251.97771
G1 X51.611 Y149.397 E252.05821
G1 X41.576 Y139.362 E253.34979
G1 X41.576 Y138.477 E253.43029
G1 X52.495 Y149.397 E254.83572
G1 X53.380 Y149.397 E254.91622
G1 X41.576 Y137.593 E256.43549
G1 X41.576 Y136.708 E256.51599
G1 X54.264 Y149.397 E258.14911
G1 X55.149 Y149.397 E258.22962
G1 X41.576 Y135.824 E259.97658
G1 X41.576 Y134.939 E260.05709
G1 X56.033 Y149.397 E261.91790
G1 X56.918 Y149.397 E261.99840
G1 X41.576 Y134.055 E263.97307
G1 X41.576 Y133.170 E264.05357
G1 X57.802 Y149.397 E266.14208
G1 X58.687 Y149.397 E266.22258
G1 X41.576 Y132.286 E268.42494
G1 X41.576 Y131.401 E268.50544
G1 X59.571 Y149.397 E270.82165
G1 X60.456 Y149.397 E270.90215
G1 X41.576 Y130.517 E273.33221
G1 X41.576 Y129.632 E273.41271
G1 X61.340 Y149.397 E275.95661
G1 X62.225 Y149.397 E276.03711
G1 X41.576 Y128.748 E278.69486
G1 X41.576 Y127.863 E278.77536
G1 X63.109 Y149.397 E281.54696
G1 X63.994 Y149.397 E281.62746
G1 X41.576 Y126.979 E284.51291
G1 X41.576 Y126.094 E284.59341
G1 X64.879 Y149.397 E287.59270
G1 X65.763 Y149.397 E287.67320
G1 X41.576 Y125.210 E290.78634
G1 X41.576 Y124.325 E290.86684
G1 X66.648 Y149.397 E294.09383
G1 X67.532 Y149.397 E294.17433
G1 X41.576 Y123.441 E297.51517
G1 X41.576 Y122.556 E297.59567
G1 X68.417 Y149.397 E301.05035
G1 X69.301 Y149.397 E301.13085
G1 X41.576 Y121.671 E304.69938
G1 X41.576 Y120.787 E304.77988
G1 X70.186 Y149.397 E308.46226
G1 X71.070 Y149.397 E308.54276
G1 X41.576 Y119.902 E312.33899
G1 X41.576 Y119.018 E312.41949
G1 X71.955 Y149.397 E316.32956
G1 X72.839 Y149.397 E316.41007
G1 X41.576 Y118.133 E320.43399
G1 X41.576 Y117.249 E320.51449
G1 X73.724 Y149.397 E324.65226
G1 X74.608 Y149.397 E324.73276
G1 X41.576 Y116.364 E328.98437
G1 X41.576 Y115.480 E329.06488
G1 X75.493 Y149.397 E333.43034
G1 X76.377 Y149.397 E333.51084
G1 X41.576 Y114.595 E337.99015
G1 X41.576 Y113.711 E338.07065
G1 X77.262 Y149.397 E342.66381
G1 X78.146 Y149.397 E342.74431
G1 X41.576 Y112.826 E347.45132
G1 X41.576 Y111.942 E347.53182
G1 X79.031 Y149.397 E352.35267
G1 X79.915 Y149.397 E352.43318
G1 X41.576 Y111.057 E357.36788
G1 X41.576 Y110.173 E357.44838
G1 X80.800 Y149.397 E362.49693
G1 X81.685 Y149.397 E362.57743
G1 X41.576 Y109.288 E367.73983
G1 X41.576 Y108.404 E367.82033
G1 X82.569 Y149.397 E373.09657
G1 X83.454 Y149.397 E373.17707
G1 X41.576 Y107.519 E378.56717
G1 X41.576 Y106.634 E378.64767
G1 X84.338 Y149.397 E384.15161
G1 X85.223 Y149.397 E384.23211
G1 X41.576 Y105.750 E389.84990
G1 X41.576 Y104.865 E389.93040
G1 X86.107 Y149.397 E395.66203
G1 X86.992 Y149.397 E395.74253
G1 X40.799 Y103.204 E401.68804
G1 X41.085 Y102.605 E401.74841
G1 X87.876 Y149.397 E407.77093
G1 X88.761 Y149.397 E407.85144
G1 X41.232 Y101.868 E413.96892
G1 X41.378 Y101.130 E414.03739
G1 X89.645 Y149.397 E420.24983
G1 X90.530 Y149.397 E420.33033
G1 X41.525 Y100.392 E426.63774
G1 X41.566 Y99.548 E426.71461
G1 X91.414 Y149.397 E433.13060
G1 X92.299 Y149.397 E433.21110
G1 X41.346 Y98.444 E439.76920
G1 X41.127 Y97.340 E439.87166
G1 X93.183 Y149.397 E446.57188
G1 X94.068 Y149.397 E446.65239
G1 X40.631 Y95.960 E453.53026
G1 X41.550 Y95.994 E453.61391
G1 X94.952 Y149.397 E460.48741
G1 X95.837 Y149.397 E460.56791
G1 X41.576 Y95.136 E467.55187
G1 X41.576 Y94.251 E467.63237
G1 X96.721 Y149.397 E474.73018
G1 X97.606 Y149.397 E474.81068
G1 X41.576 Y93.367 E482.02233
G1 X41.576 Y92.482 E482.10283
G1 X98.491 Y149.397 E489.42833
G1 X99.375 Y149.397 E489.50884
G1 X41.576 Y91.598 E496.94818
G1 X41.576 Y90.713 E497.02869
G1 X100.260 Y149.397 E504.58188
G1 X101.144 Y149.397 E504.66238
G1 X41.576 Y89.828 E512.32943
G1 X41.576 Y88.944 E512.40993
G1 X102.029 Y149.397 E520.19082
G1 X102.913 Y149.397 E520.27132
G1 X41.576 Y88.059 E528.16606
G1 X41.576 Y87.175 E528.24656
G1 X103.798 Y149.397 E536.25515
G1 X104.682 Y149.397 E536.33565
G1 X41.576 Y86.290 E544.45808
G1 X41.576 Y85.406 E544.53859
G1 X105.567 Y149.397 E552.77487
G1 X106.451 Y149.397 E552.85537
G1 X41.576 Y84.521 E561.20550
G1 X41.576 Y83.637 E561.28600
G1 X107.336 Y149.397 E569.74998
G1 X108.220 Y149.397 E569.83048
G1 X41.576 Y82.752 E578.40830
G1 X41.576 Y81.868 E578.48881
G1 X109.105 Y149.397 E587.18048
G1 X109.989 Y149.397 E587.26098
G1 X41.576 Y80.983 E596.06650
G1 X41.576 Y80.099 E596.14700
G1 X110.874 Y149.397 E605.06637
G1 X111.758 Y149.397 E605.14687
G1 X41.576 Y79.214 E614.18008
G1 X41.576 Y78.330 E614.26059
G1 X112.643 Y149.397 E623.40765
G1 X113.527 Y149.397 E623.48815
G1 X41.576 Y77.445 E632.74906
G1 X41.576 Y76.561 E632.82956
G1 X114.412 Y149.397 E642.20432
G1 X115.297 Y149.397 E642.28482
G1 X41.576 Y75.676 E651.77343
G1 X41.576 Y74.792 E651.85393
G1 X116.181 Y149.397 E661.45638
G1 X117.066 Y149.397 E661.53688
G1 X41.576 Y73.907 E671.25318
G1 X41.576 Y73.022 E671.33369
G1 X117.950 Y149.397 E681.16383
G1 X118.835 Y149.397 E681.24434
G1 X41.576 Y72.138 E691.18833
G1 X41.576 Y71.253 E691.26883
G1 X119.719 Y149.397 E701.32668
G1 X120.604 Y149.397 E701.40718
G1 X41.576 Y70.369 E711.57887
G1 X41.576 Y69.484 E711.65937
G1 X121.488 Y149.397 E721.94491
G1 X122.373 Y149.397 E722.02541
G1 X41.576 Y68.600 E732.42480
G1 X41.576 Y67.715 E732.50530
G1 X123.257 Y149.397 E743.01853
G1 X124.142 Y149.397 E743.09903
G1 X41.576 Y66.831 E753.72611
G1 X41.576 Y65.946 E753.80662
G1 X125.026 Y149.397 E764.54754
G1 X125.911 Y149.397 E764.62805
G1 X41.576 Y65.062 E775.48282
G1 X41.576 Y64.177 E775.56332
G1 X126.795 Y149.397 E786.53195
G1 X127.680 Y149.397 E786.61245
G1 X41.576 Y63.293 E797.69492
G1 X41.576 Y62.408 E797.77542
G1 X128.564 Y149.397 E808.97174
G1 X129.449 Y149.397 E809.05224
G1 X41.576 Y61.524 E820.36241
G1 X41.576 Y60.639 E820.44291
G1 X130.333 Y149.397 E831.86693
G1 X131.218 Y149.397 E831.94743
G1 X41.576 Y59.755 E843.48529
G1 X41.576 Y58.870 E843.56579
G1 X132.103 Y149.397 E855.21750
G1 X132.987 Y149.397 E855.29800
G1 X41.576 Y57.986 E867.06356
G1 X41.576 Y57.101 E867.14406
G1 X133.872 Y149.397 E879.02347
G1 X134.756 Y149.397 E879.10397
G1 X41.576 Y56.216 E891.09722
G1 X41.576 Y55.332 E891.17772
G1 X135.641 Y149.397 E903.28482
G1 X136.525 Y149.397 E903.36532
G1 X41.576 Y54.447 E915.58627
G1 X41.576 Y53.563 E915.66677
G1 X137.410 Y149.397 E928.00157
G1 X138.294 Y149.397 E928.08207
G1 X41.576 Y52.678 E940.53071
G1 X41.576 Y51.794 E940.61121
G1 X139.179 Y149.397 E953.17370
G1 X140.063 Y149.397 E953.25421
G1 X41.576 Y50.909 E965.93054
G1 X42.154 Y50.603 E965.99010
G1 X140.948 Y149.397 E978.70584
G1 X141.832 Y149.397 E978.78634
G1 X43.039 Y50.603 E991.50207
G1 X43.923 Y50.603 E991.58258
G1 X142.717 Y149.397 E1004.29831
G1 X143.601 Y149.397 E1004.37881
G1 X44.808 Y50.603 E1017.09454
G1 X45.692 Y50.603 E1017.17505
G1 X144.486 Y149.397 E1029.89078
G1 X145.370 Y149.397 E1029.97128
G1 X46.577 Y50.603 E1042.68702
G1 X47.461 Y50.603 E1042.76752
G1 X146.255 Y149.397 E1055.48325
G1 X147.139 Y149.397 E1055.56375
G1 X48.346 Y50.603 E1068.27949
G1 X49.230 Y50.603 E1068.35999
G1 X148.024 Y149.397 E1081.07572
G1 X148.909 Y149.397 E1081.15623
G1 X50.115 Y50.603 E1093.87196
G1 X51.000 Y50.603 E1093.95246
G1 X149.793 Y149.397 E1106.66819
G1 X150.678 Y149.397 E1106.74870
G1 X51.884 Y50.603 E1119.46443
G1 X52.769 Y50.603 E1119.54493
G1 X151.562 Y149.397 E1132.26067
G1 X152.447 Y149.397 E1132.34117
G1 X53.653 Y50.603 E1145.05690
G1 X54.538 Y50.603 E1145.13740
G1 X153.331 Y149.397 E1157.85314
G1 X154.216 Y149.397 E1157.93364
G1 X55.422 Y50.603 E1170.64937
G1 X56.307 Y50.603 E1170.72987
G1 X155.100 Y149.397 E1183.44561
G1 X155.985 Y149.397 E1183.52611
G1 X57.191 Y50.603 E1196.24184
G1 X58.076 Y50.603 E1196.32235
G1 X156.869 Y149.397 E1209.03808
G1 X157.754 Y149.397 E1209.11858
G1 X58.960 Y50.603 E1221.83431
G1 X59.845 Y50.603 E1221.91482
G1 X158.638 Y149.397 E1234.63055
