; generated by Slic3r 1.2.9 on 2017-04-18 at 02:06:58

; external perimeters extrusion width = 0.40mm
; perimeters extrusion width = 0.67mm
; infill extrusion width = 0.67mm
; solid infill extrusion width = 0.67mm
; top infill extrusion width = 0.67mm

M127
M104 S250 T0 ; set temperature
G28 ; home all axes
G1 Z5 F5000 ; lift nozzle

M73 P0
G1 Z0.350 F7800.000
G1 E-2.00000 F2400.00000
M103 ; extruder off
G1 X54.025 Y58.722 F7800.000
M101 ; extruder on
G1 E0.00000 F2400.00000
G1 X55.829 Y57.305 E0.20854 F600.000
G1 X58.958 Y56.519 E0.50193
G1 X60.169 Y56.519 E0.61207
G1 X62.428 Y56.916 E0.82061
M101 ; extruder on
G1 X64.416 Y58.059 E1.02915 F600.000
G1 X65.896 Y59.812 E1.23770
G1 X66.688 Y61.964 E1.44624
G1 X66.430 Y65.311 E1.75143
G1 X66.354 Y65.531 E1.77266
G1 X65.240 Y67.536 E1.98120
G1 X63.509 Y69.041 E2.18974
G1 X61.369 Y69.865 E2.39828
G1 X58.846 Y69.871 E2.62767
G1 X57.551 Y69.618 E2.74769
G1 X55.428 Y68.750 E2.95623
G1 X53.728 Y67.210 E3.16477
G1 X52.655 Y65.184 E3.37331
G1 X52.337 Y62.912 E3.58186
G1 X52.813 Y60.669 E3.79040
G1 X53.994 Y58.773 E3.99349
M104 S240 T0 ; set temperature
M140 S125 ; wait for bed temperature to be reached
M73 P0
G1 Z0.550 F7800.000
G1 E1.99349 F2400.00000
M103 ; extruder off
G1 X61.117 Y63.434 F7800.000
M101 ; extruder on
G1 E3.99349 F2400.00000
G1 X59.074 Y63.233 E4.10071 F600.000
M73 P0
G1 Z0.750 F7800.000
G1 X60.948 Y63.344 F7800.000
M101 ; extruder on
G1 X61.360 Y63.344 E4.11293 F600.000
M101 ; extruder on
G1 X61.699 Y63.344 E4.13063 F900.000
G1 X61.563 Y63.734 E4.15222
G1 X61.246 Y63.674 E4.16912
M101 ; extruder on
G1 X60.923 Y63.612 E4.17889 F600.000
G1 X60.942 Y63.404 E4.18509
G1 X61.288 Y63.555 F7800.000
G1 X60.736 Y63.459 F7800.000
M101 ; extruder on
G1 X58.554 Y63.233 E4.29970 F600.000
M126
M73 P0
G1 Z0.950 F7800.000
G1 X60.313 Y63.345 F7800.000
M101 ; extruder on
G1 X62.123 Y63.346 E4.35344 F600.000
M101 ; extruder on
M126
G1 X62.460 Y63.346 E4.37107 F900.000
G1 X62.238 Y63.987 E4.40649
G1 X61.920 Y63.926 E4.42340
M126
M101 ; extruder on
G1 X60.287 Y63.613 E4.47277 F600.000
G1 X60.307 Y63.405 E4.47898
G1 X60.652 Y63.556 F7800.000
G1 X60.101 Y63.456 F7800.000
M101 ; extruder on
G1 X58.035 Y63.234 E4.58754 F600.000
M73 P0
G1 Z1.150 F7800.000
G1 X59.787 Y63.344 F7800.000
M101 ; extruder on
G1 X62.895 Y63.344 E4.67980 F600.000
M101 ; extruder on
M126
G1 X63.234 Y63.344 E4.69755 F900.000
G1 X62.915 Y64.239 E4.74720
G1 X62.595 Y64.178 E4.76419
M126
M101 ; extruder on
G1 X60.781 Y63.830 E4.81905 F600.000
G1 X59.759 Y63.608 E4.85010
G1 X59.781 Y63.404 E4.85620
G1 X60.126 Y63.556 F7800.000
G1 X59.574 Y63.455 F7800.000
M101 ; extruder on
G1 X58.341 Y63.322 E4.92098 F600.000
G1 X57.945 Y63.219 E4.94236
M73 P0
G1 Z1.350 F7800.000
G1 X59.267 Y63.344 F7800.000
M101 ; extruder on
G1 X63.570 Y63.344 E5.07012 F600.000
G1 X63.635 Y63.419 E5.07307
M101 ; extruder on
M126
G1 X63.870 Y63.687 E5.09168 F900.000
G1 X63.588 Y64.491 E5.13620
G1 X63.270 Y64.430 E5.15313
M126
M101 ; extruder on
G1 X61.160 Y64.026 E5.21692 F600.000
G1 X59.239 Y63.608 E5.27530
G1 X59.261 Y63.404 E5.28140
G1 X59.606 Y63.556 F7800.000
G1 X59.054 Y63.452 F7800.000
M101 ; extruder on
G1 X58.164 Y63.219 E5.32950 F600.000
G1 E3.32950 F2400.00000
M103 ; extruder off
G1 X60.484 Y63.608 F7800.000
M101 ; extruder on
G1 E5.32950 F2400.00000
G1 X62.118 Y63.773 E5.41526 F600.000
M101 ; extruder on
G1 X63.532 Y63.907 E5.56875 F600.000
M73 P1
G1 Z1.550 F7800.000
G1 X59.312 Y63.344 F7800.000
M101 ; extruder on
G1 X64.021 Y63.344 E5.70857 F600.000
G1 X64.302 Y63.672 E5.72138
M101 ; extruder on
M126
G1 X64.496 Y63.930 E5.73828 F900.000
G1 X64.255 Y64.742 E5.78253
G1 X63.945 Y64.682 E5.79902
M126
M101 ; extruder on
G1 X61.539 Y64.221 E5.87174 F600.000
G1 X59.718 Y63.825 E5.92708
G1 X59.254 Y63.565 E5.94288
G1 X59.297 Y63.402 E5.94787
G1 X59.640 Y63.573 F7800.000
G1 X59.964 Y63.608 F7800.000
M101 ; extruder on
G1 X61.477 Y63.771 E6.02735 F600.000
G1 X61.477 Y63.773 F7800.000
M101 ; extruder on
G1 X64.209 Y64.032 E6.32394 F600.000
M73 P1
G1 Z1.750 F7800.000
G1 X63.324 Y63.837 F7800.000
M101 ; extruder on
G1 X64.181 Y63.837 E6.36873 F600.000
G1 X64.625 Y64.434 E6.40760
G1 X63.291 Y64.178 E6.47856
G1 X63.318 Y63.896 E6.49334
G1 X59.530 Y63.344 F7800.000
M101 ; extruder on
G1 X64.429 Y63.344 E6.63878 F600.000
G1 X64.901 Y63.973 E6.66214
M101 ; extruder on
M126
G1 X65.060 Y64.178 E6.67570 F900.000
G1 X64.828 Y64.988 E6.71972
G1 X64.613 Y64.941 E6.73120
M126
M101 ; extruder on
G1 X61.919 Y64.417 E6.81269 F600.000
G1 X60.402 Y64.087 E6.85877
G1 X59.472 Y63.565 E6.89044
G1 X59.515 Y63.402 E6.89543
G1 X59.858 Y63.573 F7800.000
G1 X60.078 Y63.605 F7800.000
M101 ; extruder on
G1 X60.539 Y63.726 E6.92034 F600.000
G1 X60.951 Y63.770 E6.94196
G1 X60.951 Y63.770 F7800.000
M101 ; extruder on
G1 X63.062 Y63.984 E7.17125 F600.000
M73 P1
G1 Z1.950 F7800.000
G1 X62.682 Y63.837 F7800.000
M101 ; extruder on
G1 X64.552 Y63.837 E7.26893 F600.000
G1 X65.208 Y64.693 E7.32529
G1 X64.340 Y64.502 E7.37173
G1 X62.650 Y64.178 E7.46163
G1 X62.677 Y63.896 E7.47641
G1 E5.47641 F2400.00000
M103 ; extruder off
G1 X65.178 Y65.191 F7800.000
M101 ; extruder on
G1 E7.47641 F2400.00000
G1 X64.241 Y64.984 E7.50489 F600.000
G1 X62.298 Y64.612 E7.56362
G1 X61.087 Y64.349 E7.60043
G1 X59.691 Y63.565 E7.64797
G1 X59.748 Y63.344 E7.65475
G1 X64.800 Y63.344 E7.80473
G1 X65.464 Y64.219 E7.83735
M101 ; extruder on
M126
G1 X65.622 Y64.423 E7.85084 F900.000
G1 X65.380 Y65.236 E7.89513
G1 X65.236 Y65.204 E7.90283
M126
G1 E5.90283 F2400.00000
M103 ; extruder off
G1 X62.421 Y63.984 F7800.000
M101 ; extruder on
G1 E7.90283 F2400.00000
G1 X61.272 Y63.861 E8.02769 F600.000
G1 X60.814 Y63.741 E8.07886
M73 P1
G1 Z2.150 F7800.000
G1 E6.07886 F2400.00000
M103 ; extruder off
G1 X65.775 Y64.944 F7800.000
M101 ; extruder on
G1 E8.07886 F2400.00000
G1 X64.243 Y64.606 E8.16082 F600.000
G1 X62.079 Y64.173 E8.27613
G1 X62.115 Y63.837 E8.29382
G1 X64.923 Y63.837 E8.44056
G1 X65.738 Y64.896 E8.51039
G1 X65.751 Y65.443 F7800.000
M101 ; extruder on
G1 X64.143 Y65.089 E8.55925 F600.000
G1 X62.678 Y64.808 E8.60357
G1 X61.771 Y64.611 E8.63111
G1 X59.909 Y63.565 E8.69453
G1 X59.967 Y63.344 E8.70130
G1 X65.171 Y63.344 E8.85583
G1 X66.027 Y64.465 E8.89770
M101 ; extruder on
M126
G1 X66.185 Y64.669 E8.91119 F900.000
G1 X65.942 Y65.485 E8.95568
G1 X65.809 Y65.456 E8.96279
M126
G1 E6.96279 F2400.00000
M103 ; extruder off
G1 X61.854 Y63.956 F7800.000
M101 ; extruder on
G1 E8.96279 F2400.00000
G1 X60.515 Y63.605 E9.03512 F600.000
M73 P1
G1 Z2.350 F7800.000
G1 E7.03512 F2400.00000
M103 ; extruder off
G1 X66.360 Y65.218 F7800.000
M101 ; extruder on
G1 E9.03512 F2400.00000
G1 X64.152 Y64.712 E9.15349 F600.000
G1 X62.628 Y64.404 E9.23471
G1 X62.118 Y64.118 E9.26523
G1 X62.192 Y63.837 E9.28044
G1 X65.295 Y63.837 E9.44254
G1 X66.323 Y65.171 E9.53055
G1 E7.53055 F2400.00000
M103 ; extruder off
G1 X60.126 Y63.565 F7800.000
M101 ; extruder on
G1 E9.53055 F2400.00000
G1 X60.183 Y63.344 E9.53733 F600.000
G1 X65.542 Y63.344 E9.69644
G1 X66.590 Y64.711 E9.74757
M101 ; extruder on
M126
G1 X66.748 Y64.915 E9.76105 F900.000
G1 X66.572 Y65.506 E9.79330
G1 X66.528 Y65.743 E9.80589
G1 X66.322 Y65.701 E9.81684
M126
M101 ; extruder on
G1 X64.048 Y65.193 E9.88604 F600.000
G1 X62.454 Y64.872 E9.93431
G1 X60.178 Y63.594 E10.01181
G1 X60.299 Y63.417 F7800.000
G1 X63.142 Y64.169 F7800.000
M101 ; extruder on
G1 X65.330 Y64.402 E10.12677 F600.000
M73 P2
G1 Z2.550 F7800.000
G1 X62.335 Y64.118 F7800.000
M101 ; extruder on
G1 X62.409 Y63.837 E10.14198 F600.000
G1 X65.666 Y63.837 E10.31215
G1 X66.916 Y65.454 E10.41896
G1 X63.312 Y64.666 E10.61169
G1 X62.387 Y64.148 E10.66706
G1 X60.340 Y63.565 F7800.000
M101 ; extruder on
G1 X60.398 Y63.344 E10.67384 F600.000
G1 X65.913 Y63.344 E10.83760
G1 X67.153 Y64.956 E10.89798
M101 ; extruder on
M126
G1 X67.311 Y65.160 E10.91147 F900.000
G1 X67.165 Y65.651 E10.93824
G1 X67.101 Y65.995 E10.95650
G1 X66.896 Y65.953 E10.96745
M126
M101 ; extruder on
G1 X66.117 Y65.794 E10.99105 F600.000
G1 X63.951 Y65.297 E11.05703
G1 X63.139 Y65.134 E11.08163
G1 X60.393 Y63.594 E11.17510
G1 X60.514 Y63.417 F7800.000
G1 X63.093 Y64.166 F7800.000
M101 ; extruder on
G1 X63.462 Y64.262 E11.19500 F600.000
G1 X64.139 Y64.330 E11.23058
G1 X64.139 Y64.330 F7800.000
M101 ; extruder on
G1 X65.791 Y64.517 E11.41026 F600.000
M73 P2
G1 Z2.750 F7800.000
G1 X62.551 Y64.119 F7800.000
M101 ; extruder on
G1 X62.624 Y63.837 E11.42547 F600.000
G1 X66.037 Y63.837 E11.60377
G1 X67.482 Y65.705 E11.72719
G1 X66.557 Y65.516 E11.77655
G1 X64.004 Y64.932 E11.91335
G1 X62.603 Y64.148 E11.99724
G1 E9.99724 F2400.00000
M103 ; extruder off
G1 X60.369 Y63.344 F7800.000
M101 ; extruder on
G1 E11.99724 F2400.00000
G1 X66.285 Y63.344 E12.17289 F600.000
G1 X67.716 Y65.202 E12.24253
M101 ; extruder on
M126
G1 X67.874 Y65.406 E12.25602 F900.000
G1 X67.758 Y65.797 E12.27731
G1 X67.674 Y66.247 E12.30123
G1 X67.469 Y66.205 E12.31218
M126
M101 ; extruder on
G1 X66.452 Y65.998 E12.34297 F600.000
G1 X63.825 Y65.397 E12.42299
G1 X60.695 Y63.644 E12.52950
G1 X60.413 Y63.385 E12.54089
G1 X60.757 Y63.442 F7800.000
G1 E10.54089 F2400.00000
M103 ; extruder off
G1 X63.828 Y64.301 F7800.000
M101 ; extruder on
G1 E12.54089 F2400.00000
G1 X64.209 Y64.401 E12.58338 F600.000
G1 X66.253 Y64.631 E12.80567
M73 P2
G1 Z2.950 F7800.000
G1 X65.729 Y64.465 F7800.000
M101 ; extruder on
G1 X66.099 Y64.465 E12.82501 F600.000
G1 X66.503 Y64.986 E12.85943
G1 X65.691 Y64.800 E12.90295
G1 X65.722 Y64.525 E12.91740
G1 E10.91740 F2400.00000
M103 ; extruder off
G1 X68.049 Y65.956 F7800.000
M101 ; extruder on
G1 E12.91740 F2400.00000
G1 X66.893 Y65.720 E12.97907 F600.000
G1 X64.612 Y65.197 E13.10130
G1 X64.073 Y64.852 E13.13475
G1 X62.764 Y64.119 E13.21315
G1 X62.837 Y63.837 E13.22836
G1 X66.407 Y63.837 E13.41486
G1 X68.012 Y65.908 E13.55179
G1 E11.55179 F2400.00000
M103 ; extruder off
G1 X60.766 Y63.344 F7800.000
M101 ; extruder on
G1 E13.55179 F2400.00000
G1 X66.656 Y63.344 E13.72667 F600.000
G1 X68.279 Y65.448 E13.80557
M101 ; extruder on
M126
G1 X68.437 Y65.652 E13.81906 F900.000
G1 X68.351 Y65.942 E13.83487
G1 X68.247 Y66.499 E13.86446
G1 X68.042 Y66.457 E13.87541
M126
M101 ; extruder on
G1 X66.788 Y66.201 E13.91339 F600.000
G1 X64.419 Y65.658 E13.98558
G1 X63.820 Y65.274 E14.00669
G1 X61.379 Y63.908 E14.08976
G1 X60.810 Y63.385 E14.11270
G1 X61.153 Y63.442 F7800.000
G1 E12.11270 F2400.00000
M103 ; extruder off
G1 X64.042 Y64.301 F7800.000
M101 ; extruder on
G1 E14.11270 F2400.00000
G1 X64.888 Y64.539 E14.20773 F600.000
G1 X65.398 Y64.597 E14.26313
M73 P2
G1 Z3.150 F7800.000
G1 X65.312 Y64.465 F7800.000
M101 ; extruder on
G1 X66.472 Y64.465 E14.32373 F600.000
G1 X67.075 Y65.244 E14.37519
G1 X65.439 Y64.868 E14.46290
G1 X65.232 Y64.736 E14.47571
G1 X65.295 Y64.523 E14.48733
G1 X63.050 Y63.837 F7800.000
M101 ; extruder on
G1 X66.780 Y63.837 E14.68217 F600.000
G1 X68.616 Y66.206 E14.83880
G1 X67.228 Y65.923 E14.91278
G1 X65.192 Y65.456 E15.02195
G1 X63.979 Y64.680 E15.09718
G1 X62.977 Y64.119 E15.15720
G1 X63.035 Y63.895 E15.16928
G1 X61.163 Y63.344 F7800.000
M101 ; extruder on
G1 X67.027 Y63.344 E15.34340 F600.000
G1 X68.842 Y65.694 E15.43156
M101 ; extruder on
M126
G1 X69.000 Y65.898 E15.44504 F900.000
G1 X68.944 Y66.087 E15.45538
G1 X68.820 Y66.751 E15.49064
G1 X68.615 Y66.709 E15.50159
M126
M101 ; extruder on
G1 X67.124 Y66.405 E15.54675 F600.000
G1 X64.998 Y65.917 E15.61151
G1 X63.726 Y65.103 E15.65638
G1 X62.062 Y64.171 E15.71299
G1 X61.207 Y63.385 E15.74749
G1 X61.550 Y63.442 F7800.000
G1 E13.74749 F2400.00000
M103 ; extruder off
G1 X63.735 Y64.166 F7800.000
M101 ; extruder on
G1 E15.74749 F2400.00000
G1 X64.971 Y64.512 E15.81451 F600.000
M73 P2
G1 Z3.350 F7800.000
G1 X65.486 Y64.465 F7800.000
M101 ; extruder on
G1 X66.844 Y64.465 E15.88547 F600.000
G1 X67.647 Y65.501 E15.95397
G1 X66.018 Y65.128 E16.04129
G1 X65.407 Y64.736 E16.07923
G1 X65.469 Y64.523 E16.09085
G1 X63.263 Y63.837 F7800.000
M101 ; extruder on
G1 X67.152 Y63.837 E16.29404 F600.000
G1 X69.183 Y66.457 E16.46723
G1 X67.564 Y66.127 E16.55353
G1 X65.771 Y65.716 E16.64962
G1 X63.885 Y64.508 E16.76665
G1 X63.190 Y64.119 E16.80829
G1 X63.248 Y63.895 E16.82037
G1 X61.560 Y63.344 F7800.000
M101 ; extruder on
G1 X67.398 Y63.344 E16.99373 F600.000
G1 X69.405 Y65.940 E17.09114
M101 ; extruder on
M126
G1 X69.563 Y66.144 E17.10463 F900.000
G1 X69.393 Y67.003 E17.15039
G1 X69.188 Y66.961 E17.16134
M126
M101 ; extruder on
G1 X67.460 Y66.609 E17.21369 F600.000
G1 X65.578 Y66.177 E17.27102
G1 X63.632 Y64.931 E17.33964
G1 X62.745 Y64.434 E17.36980
G1 X61.604 Y63.385 E17.41585
G1 X61.947 Y63.442 F7800.000
G1 E15.41585 F2400.00000
M103 ; extruder off
G1 X63.948 Y64.166 F7800.000
M101 ; extruder on
G1 E17.41585 F2400.00000
G1 X65.145 Y64.512 E17.48094 F627.556
M73 P2
G1 Z3.550 F7800.000
G1 X65.654 Y64.465 F7800.000
M101 ; extruder on
G1 X67.217 Y64.465 E17.56258 F600.000
G1 X68.220 Y65.759 E17.64812
G1 X66.596 Y65.387 E17.73514
G1 X65.575 Y64.737 E17.79839
G1 X65.637 Y64.523 E17.81004
G1 X63.220 Y63.837 F7800.000
M101 ; extruder on
G1 X67.525 Y63.837 E18.03493 F600.000
G1 X69.750 Y66.708 E18.22469
G1 X67.900 Y66.331 E18.32330
G1 X66.350 Y65.975 E18.40638
G1 X63.734 Y64.309 E18.56840
G1 X63.264 Y63.877 E18.60176
G1 X61.956 Y63.344 F7800.000
M101 ; extruder on
G1 X67.769 Y63.344 E18.77435 F600.000
G1 X69.968 Y66.185 E18.88102
M101 ; extruder on
M126
G1 X70.134 Y66.399 E18.89514 F900.000
G1 X69.967 Y67.255 E18.94070
G1 X69.761 Y67.213 E18.95172
M126
M101 ; extruder on
G1 X67.796 Y66.812 E19.01126 F600.000
G1 X66.157 Y66.436 E19.06118
G1 X63.433 Y64.702 E19.15707
G1 X62.001 Y63.385 E19.21484
G1 X62.344 Y63.442 F7800.000
G1 E17.21484 F2400.00000
M103 ; extruder off
G1 X64.120 Y64.165 F7800.000
M101 ; extruder on
G1 E19.21484 F2400.00000
G1 X65.313 Y64.513 E19.27976 F672.095
M73 P3
G1 Z3.750 F7800.000
G1 X65.834 Y64.465 F7800.000
M101 ; extruder on
G1 X67.587 Y64.465 E19.37139 F600.000
G1 X68.780 Y66.014 E19.47355
G1 X67.177 Y65.647 E19.55947
G1 X65.754 Y64.736 E19.64773
G1 X65.817 Y64.523 E19.65935
G1 X63.645 Y63.837 F7800.000
M101 ; extruder on
G1 X67.897 Y63.837 E19.88147 F600.000
G1 X70.297 Y66.954 E20.08703
G1 X68.236 Y66.534 E20.19692
G1 X66.931 Y66.235 E20.26690
G1 X64.352 Y64.585 E20.42685
G1 X63.686 Y63.880 E20.47747
G1 X62.353 Y63.344 F7800.000
M101 ; extruder on
G1 X68.139 Y63.344 E20.64926 F600.000
G1 X70.527 Y66.445 E20.76547
M101 ; extruder on
M126
G1 X70.679 Y66.643 E20.77852 F900.000
G1 X70.535 Y67.506 E20.82420
G1 X70.334 Y67.465 E20.83495
M126
M101 ; extruder on
G1 X68.132 Y67.016 E20.90167 F600.000
G1 X66.737 Y66.696 E20.94416
G1 X64.035 Y64.967 E21.03940
G1 X63.485 Y64.384 E21.06320
G1 X62.398 Y63.385 E21.10705
G1 X62.741 Y63.442 F7800.000
G1 E19.10705 F2400.00000
M103 ; extruder off
G1 X64.419 Y64.198 F7800.000
M101 ; extruder on
G1 E21.10705 F2400.00000
G1 X65.492 Y64.512 E21.16549 F721.314
G1 X66.454 Y64.794 F7800.000
M101 ; extruder on
G1 X67.303 Y65.042 E21.21173 F721.314
G1 X67.756 Y65.457 E21.24381
M73 P3
G1 Z3.950 F7800.000
G1 X66.006 Y64.465 F7800.000
M101 ; extruder on
G1 X67.961 Y64.465 E21.34598 F600.000
G1 X69.345 Y66.254 E21.46414
G1 X67.757 Y65.906 E21.54910
G1 X65.927 Y64.736 E21.66258
G1 X65.989 Y64.523 E21.67421
G1 X63.978 Y63.837 F7800.000
M101 ; extruder on
G1 X68.270 Y63.837 E21.89842 F600.000
G1 X70.089 Y66.188 E22.05375
G1 X70.783 Y67.188 E22.11735
G1 X68.572 Y66.738 E22.23525
G1 X67.510 Y66.494 E22.29217
G1 X64.931 Y64.846 E22.45209
G1 X64.019 Y63.880 E22.52145
G1 X62.750 Y63.344 F7800.000
M101 ; extruder on
G1 X68.511 Y63.344 E22.69251 F600.000
G1 X70.486 Y65.897 E22.78834
G1 X71.070 Y66.737 E22.81871
M101 ; extruder on
M126
G1 X71.162 Y66.869 E22.82712 F900.000
G1 X71.023 Y67.740 E22.87318
G1 X70.907 Y67.716 E22.87936
M126
M101 ; extruder on
G1 X68.468 Y67.219 E22.95328 F600.000
G1 X67.317 Y66.955 E22.98834
G1 X64.614 Y65.228 E23.08356
G1 X63.395 Y63.937 E23.13631
G1 X62.794 Y63.385 E23.16052
G1 X63.138 Y63.442 F7800.000
G1 E21.16052 F2400.00000
M103 ; extruder off
G1 X67.073 Y64.924 F7800.000
M101 ; extruder on
G1 E23.16052 F2400.00000
G1 X67.653 Y65.094 E23.22583 F739.871
