; generated by Slic3r 1.2.9 on 2017-04-18 at 06:54:12

; external perimeters extrusion width = 0.40mm
; perimeters extrusion width = 0.67mm
; infill extrusion width = 0.67mm
; solid infill extrusion width = 0.67mm
; top infill extrusion width = 0.67mm

M127
M104 S250 T0 ; set temperature
G28 ; home all axes
G1 Z5 F5000 ; lift nozzle

M73 P0
G1 Z0.350 F7800.000
G1 E-2.00000 F2400.00000
M103 ; extruder off
G1 X0.000 Y27.015 F7800.000
M101 ; extruder on
G1 E0.00000 F2400.00000
G1 X208.851 Y27.025 E18.99070 F1800.000
M101 ; extruder on
G1 X211.109 Y27.422 E19.19925 F1800.000
G1 X213.097 Y28.565 E19.40779
G1 X214.576 Y30.318 E19.61633
G1 X215.369 Y32.470 E19.82487
G1 X215.475 Y33.650 E19.93252
G1 X215.475 Y158.659 E31.29963
G1 X215.078 Y160.918 E31.50817
G1 X213.935 Y162.906 E31.71671
G1 X212.182 Y164.386 E31.92526
G1 X209.436 Y165.258 E32.18726
G1 X102.931 Y174.701 E41.90967
G1 X101.868 Y174.701 E42.00632
G1 X100.344 Y174.578 E42.14533
G1 X-9.411 Y165.251 E52.16131
G1 X-11.628 Y164.664 E52.36986
G1 X-13.512 Y163.356 E52.57840
G1 X-14.838 Y161.484 E52.78694
G1 X-15.475 Y158.649 E53.05116
G1 X-15.475 Y33.639 E64.41826
G1 X-15.078 Y31.381 E64.62681
G1 X-13.935 Y29.393 E64.83535
G1 X-12.182 Y27.913 E65.04389
G1 X-10.030 Y27.121 E65.25243
G1 X-8.850 Y27.015 E65.36014
G1 X-0.060 Y27.015 E66.15941
G1 E64.15941 F2400.00000
M103 ; extruder off
G1 X98.220 Y159.366 F7800.000
M101 ; extruder on
G1 E66.15941 F2400.00000
G1 X98.872 Y158.720 E66.24284 F1800.000
G1 X99.645 Y158.203 E66.32745
G1 X100.512 Y157.825 E66.41348
M101 ; extruder on
G1 X101.117 Y157.676 E66.47009 F1800.000
G1 X103.478 Y157.676 E66.68478
G1 X103.749 Y157.692 E66.70947
G1 X104.288 Y157.825 E66.75994
G1 X105.155 Y158.203 E66.84595
G1 X105.928 Y158.720 E66.93056
G1 X106.580 Y159.366 E67.01399
G1 X107.075 Y160.124 E67.09631
G1 X107.387 Y160.963 E67.17773
G1 X107.495 Y161.850 E67.25891
G1 X107.388 Y162.736 E67.34008
G1 X107.075 Y163.575 E67.42152
G1 X106.580 Y164.333 E67.50383
G1 X105.928 Y164.979 E67.58726
G1 X105.155 Y165.496 E67.67187
G1 X104.288 Y165.874 E67.75789
G1 X103.360 Y166.104 E67.84482
G1 X102.400 Y166.181 E67.93236
G1 X101.441 Y166.104 E68.01986
G1 X100.512 Y165.874 E68.10683
G1 X99.645 Y165.496 E68.19284
G1 X98.872 Y164.979 E68.27745
G1 X98.220 Y164.333 E68.36088
G1 X97.725 Y163.575 E68.44320
G1 X97.413 Y162.736 E68.52462
G1 X97.305 Y161.850 E68.60580
G1 X97.413 Y160.963 E68.68699
G1 X97.725 Y160.124 E68.76840
G1 X98.188 Y159.417 E68.84526
G1 X98.707 Y159.764 F7800.000
M101 ; extruder on
G1 X99.269 Y159.206 E68.91724 F1800.000
G1 X99.946 Y158.753 E68.99129
G1 X100.714 Y158.419 E69.06742
M101 ; extruder on
G1 X101.193 Y158.300 E69.11231 F1800.000
G1 X103.459 Y158.300 E69.31840
G1 X103.655 Y158.312 E69.33619
G1 X104.087 Y158.419 E69.37664
G1 X104.854 Y158.753 E69.45276
G1 X105.531 Y159.206 E69.52681
G1 X106.093 Y159.764 E69.59879
G1 X106.514 Y160.408 E69.66876
G1 X106.776 Y161.112 E69.73710
G1 X106.866 Y161.850 E69.80466
G1 X106.776 Y162.587 E69.87220
G1 X106.514 Y163.291 E69.94056
G1 X106.093 Y163.935 E70.01052
G1 X105.531 Y164.493 E70.08250
G1 X104.854 Y164.946 E70.15655
G1 X104.086 Y165.280 E70.23267
G1 X103.259 Y165.485 E70.31020
G1 X102.400 Y165.554 E70.38854
G1 X101.541 Y165.485 E70.46688
G1 X100.713 Y165.280 E70.54441
G1 X99.946 Y164.946 E70.62053
G1 X99.269 Y164.493 E70.69458
G1 X98.707 Y163.935 E70.76656
G1 X98.286 Y163.291 E70.83653
G1 X98.024 Y162.587 E70.90487
G1 X97.934 Y161.850 E70.97243
G1 X98.024 Y161.112 E71.03998
G1 X98.286 Y160.408 E71.10832
G1 X98.675 Y159.814 E71.17284
G1 X98.579 Y159.385 F7800.000
G1 X96.465 Y148.566 F7800.000
M101 ; extruder on
G1 X95.741 Y147.998 E71.25650 F1800.000
G1 X95.434 Y147.452 E71.31345
G1 X95.313 Y146.745 E71.37870
G1 X95.434 Y146.037 E71.44398
G1 X95.742 Y145.490 E71.50101
G1 X96.465 Y144.922 E71.58465
G1 X97.188 Y145.490 E71.66828
G1 X97.496 Y146.037 E71.72531
G1 X97.617 Y146.745 E71.79059
G1 X97.496 Y147.452 E71.85584
G1 X97.189 Y147.998 E71.91279
G1 X96.512 Y148.529 E71.99100
G1 E69.99100 F2400.00000
M103 ; extruder off
G1 X90.922 Y148.566 F7800.000
M101 ; extruder on
G1 E71.99100 F2400.00000
G1 X90.198 Y147.998 E72.07466 F1800.000
G1 X89.891 Y147.452 E72.13162
G1 X89.770 Y146.745 E72.19686
G1 X89.891 Y146.037 E72.26214
G1 X90.199 Y145.490 E72.31918
G1 X90.922 Y144.922 E72.40281
G1 X91.645 Y145.490 E72.48644
G1 X91.953 Y146.037 E72.54347
G1 X92.074 Y146.745 E72.60875
G1 X91.953 Y147.452 E72.67400
G1 X91.646 Y147.998 E72.73096
G1 X90.969 Y148.529 E72.80916
G1 E70.80916 F2400.00000
M103 ; extruder off
G1 X85.379 Y148.566 F7800.000
M101 ; extruder on
G1 E72.80916 F2400.00000
G1 X84.655 Y147.998 E72.89283 F1800.000
G1 X84.348 Y147.452 E72.94978
G1 X84.227 Y146.745 E73.01503
G1 X84.348 Y146.037 E73.08031
G1 X84.655 Y145.490 E73.13729
G1 X85.030 Y145.197 E73.18060
G1 X85.379 Y145.114 E73.21320
G1 X85.728 Y145.197 E73.24580
G1 X86.103 Y145.490 E73.28910
G1 X86.410 Y146.037 E73.34609
G1 X86.531 Y146.745 E73.41137
G1 X86.410 Y147.452 E73.47662
G1 X86.103 Y147.998 E73.53357
G1 X85.426 Y148.529 E73.61178
G1 E71.61178 F2400.00000
M103 ; extruder off
G1 X79.836 Y148.473 F7800.000
M101 ; extruder on
G1 E73.61178 F2400.00000
G1 X79.097 Y147.909 E73.69629 F1800.000
G1 X78.803 Y147.404 E73.74947
G1 X78.690 Y146.745 E73.81020
G1 X78.803 Y146.084 E73.87120
G1 X79.096 Y145.582 E73.92406
G1 X79.475 Y145.294 E73.96731
G1 X79.836 Y145.209 E74.00108
G1 X80.197 Y145.294 E74.03485
G1 X80.576 Y145.582 E74.07810
G1 X80.869 Y146.084 E74.13096
G1 X80.982 Y146.745 E74.19197
G1 X80.869 Y147.404 E74.25270
G1 X80.575 Y147.909 E74.30588
G1 X79.884 Y148.437 E74.38493
G1 X79.836 Y142.190 F7800.000
M101 ; extruder on
G1 X79.445 Y142.108 E74.42131 F1800.000
G1 X79.077 Y141.838 E74.46279
G1 X78.794 Y141.372 E74.51231
G1 X78.686 Y140.791 E74.56605
G1 X78.794 Y140.211 E74.61979
G1 X79.077 Y139.745 E74.66931
G1 X79.451 Y139.471 E74.71147
G1 X79.836 Y139.386 E74.74736
G1 X80.221 Y139.471 E74.78324
M101 ; extruder on
G1 X80.595 Y139.745 E74.82541 F1800.000
G1 X80.878 Y140.211 E74.87493
G1 X80.986 Y140.791 E74.92866
G1 X80.878 Y141.372 E74.98240
G1 X80.595 Y141.838 E75.03192
G1 X80.227 Y142.108 E75.07340
G1 X79.895 Y142.178 E75.10433
G1 X75.439 Y140.794 F7800.000
M101 ; extruder on
G1 X74.892 Y141.051 E75.15929 F1800.000
G1 X74.293 Y141.134 E75.21426
G1 X73.695 Y141.050 E75.26917
G1 X73.147 Y140.794 E75.32419
G1 X73.700 Y140.532 E75.37986
G1 X74.293 Y140.448 E75.43432
G1 X74.887 Y140.532 E75.48882
G1 X75.385 Y140.768 E75.53899
G1 X70.017 Y140.791 F7800.000
M101 ; extruder on
G1 X69.327 Y141.132 E75.60899 F1800.000
G1 X68.750 Y141.217 E75.66199
G1 X68.174 Y141.132 E75.71491
G1 X67.484 Y140.791 E75.78493
G1 X68.174 Y140.451 E75.85485
G1 X68.750 Y140.366 E75.90783
G1 X69.328 Y140.451 E75.96090
G1 X69.963 Y140.764 E76.02535
G1 E74.02535 F2400.00000
M103 ; extruder off
G1 X69.947 Y146.744 F7800.000
M101 ; extruder on
G1 E76.02535 F2400.00000
G1 X69.675 Y147.076 E76.06428 F1800.000
G1 X69.286 Y147.286 E76.10454
G1 X68.750 Y147.373 E76.15388
G1 X68.215 Y147.286 E76.20315
G1 X67.825 Y147.075 E76.24349
G1 X67.554 Y146.744 E76.28241
G1 X67.826 Y146.412 E76.32144
G1 X68.215 Y146.202 E76.36165
G1 X68.750 Y146.115 E76.41097
G1 X69.286 Y146.202 E76.46037
G1 X69.675 Y146.412 E76.50051
G1 X69.909 Y146.698 E76.53409
G1 X64.351 Y146.745 F7800.000
M101 ; extruder on
G1 X64.250 Y147.292 E76.58475 F1800.000
G1 X63.982 Y147.721 E76.63072
G1 X63.608 Y147.987 E76.67246
G1 X63.207 Y148.073 E76.70979
G1 X62.807 Y147.988 E76.74693
G1 X62.433 Y147.721 E76.78872
G1 X62.165 Y147.292 E76.83469
G1 X62.064 Y146.745 E76.88534
G1 X62.165 Y146.196 E76.93603
G1 X62.433 Y145.767 E76.98207
G1 X62.808 Y145.500 E77.02389
G1 X63.207 Y145.414 E77.06106
G1 X63.607 Y145.500 E77.09824
M101 ; extruder on
G1 X63.982 Y145.767 E77.14005 F1800.000
G1 X64.250 Y146.196 E77.18610
G1 X64.340 Y146.686 E77.23133
G1 E75.23133 F2400.00000
M103 ; extruder off
G1 X58.047 Y145.388 F7800.000
M101 ; extruder on
G1 E77.23133 F2400.00000
G1 X58.419 Y145.662 E77.27330 F1800.000
G1 X58.700 Y146.133 E77.32313
G1 X58.807 Y146.746 E77.37972
G1 X58.700 Y147.355 E77.43602
G1 X58.419 Y147.827 E77.48592
G1 X58.047 Y148.101 E77.52797
G1 X57.665 Y148.185 E77.56349
G1 X57.282 Y148.101 E77.59915
G1 X56.910 Y147.827 E77.64117
G1 X56.629 Y147.355 E77.69107
G1 X56.522 Y146.746 E77.74737
G1 X56.629 Y146.133 E77.80396
G1 X56.910 Y145.662 E77.85379
G1 X57.281 Y145.388 E77.89574
G1 X57.665 Y145.304 E77.93143
G1 X57.989 Y145.375 E77.96159
G1 X53.196 Y146.354 F7800.000
M101 ; extruder on
G1 X53.274 Y146.745 E77.99778 F1800.000
G1 X53.171 Y147.262 E78.04576
G1 X52.900 Y147.693 E78.09200
G1 X52.527 Y147.955 E78.13346
G1 X52.122 Y148.041 E78.17113
G1 X51.715 Y147.955 E78.20892
G1 X51.343 Y147.693 E78.25035
G1 X51.072 Y147.262 E78.29659
G1 X50.969 Y146.745 E78.34458
G1 X51.073 Y146.227 E78.39260
G1 X51.343 Y145.795 E78.43892
G1 X51.713 Y145.534 E78.48008
G1 X52.122 Y145.449 E78.51802
G1 X52.530 Y145.534 E78.55589
M101 ; extruder on
G1 X52.900 Y145.795 E78.59707 F1800.000
G1 X53.170 Y146.227 E78.64339
G1 X53.184 Y146.295 E78.64977
G1 X47.712 Y146.745 F7800.000
M101 ; extruder on
G1 X47.620 Y147.262 E78.69757 F1800.000
G1 X47.363 Y147.668 E78.74123
G1 X46.994 Y147.923 E78.78205
G1 X46.579 Y148.010 E78.82060
G1 X46.163 Y147.923 E78.85918
G1 X45.795 Y147.668 E78.89992
G1 X45.536 Y147.259 E78.94396
G1 X45.442 Y146.744 E78.99151
G1 X45.536 Y146.232 E79.03884
G1 X45.795 Y145.825 E79.08276
G1 X46.168 Y145.564 E79.12414
G1 X46.579 Y145.478 E79.16231
G1 X46.989 Y145.564 E79.20041
M101 ; extruder on
G1 X47.363 Y145.825 E79.24189 F1800.000
G1 X47.620 Y146.229 E79.28543
G1 X47.701 Y146.685 E79.32756
G1 X42.284 Y146.744 F7800.000
M101 ; extruder on
G1 X41.925 Y147.212 E79.38118 F1800.000
G1 X41.547 Y147.429 E79.42080
G1 X41.036 Y147.515 E79.46790
G1 X40.525 Y147.429 E79.51500
G1 X40.147 Y147.212 E79.55462
G1 X39.788 Y146.744 E79.60823
G1 X40.148 Y146.276 E79.66196
G1 X40.525 Y146.060 E79.70146
G1 X41.036 Y145.974 E79.74861
G1 X41.547 Y146.060 E79.79577
G1 X41.924 Y146.276 E79.83527
G1 X42.248 Y146.697 E79.88354
G1 X36.657 Y146.745 F7800.000
M101 ; extruder on
G1 X36.440 Y146.999 E79.91400 F1800.000
G1 X36.049 Y147.203 E79.95406
G1 X35.493 Y147.287 E80.00520
G1 X34.937 Y147.203 E80.05633
G1 X34.546 Y146.999 E80.09639
G1 X34.329 Y146.745 E80.12685
G1 X34.546 Y146.490 E80.15731
G1 X34.937 Y146.286 E80.19737
G1 X35.493 Y146.202 E80.24850
G1 X36.049 Y146.286 E80.29964
G1 X36.440 Y146.490 E80.33970
G1 X36.618 Y146.699 E80.36470
G1 X31.172 Y146.745 F7800.000
M101 ; extruder on
G1 X30.856 Y147.143 E80.41095 F1800.000
G1 X30.474 Y147.355 E80.45071
G1 X29.950 Y147.443 E80.49899
G1 X29.426 Y147.355 E80.54728
G1 X29.044 Y147.143 E80.58704
G1 X28.728 Y146.745 E80.63328
G1 X29.044 Y146.346 E80.67953
G1 X29.427 Y146.133 E80.71936
G1 X29.950 Y146.045 E80.76759
G1 X30.473 Y146.133 E80.81582
G1 X30.856 Y146.346 E80.85565
G1 X31.134 Y146.697 E80.89644
G1 X25.485 Y146.493 F7800.000
M101 ; extruder on
G1 X25.544 Y146.750 E80.92047 F1800.000
G1 X25.487 Y146.993 E80.94312
G1 X25.280 Y147.269 E80.97449
G1 X24.898 Y147.495 E81.01482
G1 X24.407 Y147.583 E81.06022
G1 X23.916 Y147.495 E81.10562
G1 X23.534 Y147.269 E81.14595
G1 X23.327 Y146.993 E81.17731
G1 X23.270 Y146.750 E81.19996
G1 X23.329 Y146.493 E81.22400
G1 X23.534 Y146.221 E81.25493
G1 X23.916 Y145.994 E81.29537
G1 X24.407 Y145.905 E81.34072
G1 X24.898 Y145.994 E81.38607
G1 X25.280 Y146.221 E81.42651
G1 X25.449 Y146.445 E81.45199
G1 X20.008 Y146.746 F7800.000
M101 ; extruder on
G1 X19.921 Y147.169 E81.49128 F1800.000
G1 X19.674 Y147.540 E81.53175
G1 X19.304 Y147.784 E81.57207
G1 X18.864 Y147.871 E81.61283
G1 X18.424 Y147.784 E81.65362
G1 X18.053 Y147.539 E81.69402
G1 X17.807 Y147.169 E81.73445
G1 X17.720 Y146.746 E81.77374
G1 X17.807 Y146.318 E81.81352
G1 X18.053 Y145.949 E81.85380
G1 X18.427 Y145.703 E81.89448
G1 X18.864 Y145.615 E81.93505
G1 X19.302 Y145.703 E81.97566
M101 ; extruder on
G1 X19.675 Y145.949 E82.01626 F1800.000
G1 X19.921 Y146.318 E82.05657
G1 X19.996 Y146.688 E82.09090
G1 X14.530 Y146.744 F7800.000
M101 ; extruder on
G1 X14.241 Y147.098 E82.13239 F1800.000
G1 X13.852 Y147.311 E82.17272
G1 X13.321 Y147.397 E82.22165
G1 X12.791 Y147.311 E82.27053
G1 X12.401 Y147.098 E82.31089
G1 X12.113 Y146.744 E82.35236
G1 X12.402 Y146.390 E82.39393
G1 X12.790 Y146.178 E82.43417
G1 X13.321 Y146.091 E82.48311
G1 X13.853 Y146.178 E82.53209
G1 X14.241 Y146.390 E82.57230
G1 X14.492 Y146.698 E82.60844
G1 E80.60844 F2400.00000
M103 ; extruder off
G1 X13.562 Y141.956 F7800.000
M101 ; extruder on
G1 E82.60844 F2400.00000
G1 X13.321 Y142.004 E82.63081 F1800.000
G1 X12.899 Y141.919 E82.67000
G1 X12.527 Y141.664 E82.71098
G1 X12.271 Y141.271 E82.75365
G1 X12.178 Y140.791 E82.79803
G1 X12.271 Y140.312 E82.84240
G1 X12.527 Y139.919 E82.88508
G1 X12.900 Y139.663 E82.92623
G1 X13.322 Y139.577 E82.96533
G1 X13.742 Y139.663 E83.00439
M101 ; extruder on
G1 X14.115 Y139.918 E83.04547 F1800.000
G1 X14.373 Y140.316 E83.08855
G1 X14.468 Y140.791 E83.13265
G1 X14.373 Y141.267 E83.17675
G1 X14.115 Y141.665 E83.21983
G1 X13.744 Y141.919 E83.26073
G1 X13.621 Y141.944 E83.27214
G1 X8.867 Y140.530 F7800.000
M101 ; extruder on
G1 X8.935 Y140.795 E83.29702 F1800.000
G1 X8.868 Y141.050 E83.32094
G1 X8.641 Y141.359 E83.35586
G1 X8.266 Y141.585 E83.39568
G1 X7.778 Y141.672 E83.44073
G1 X7.291 Y141.585 E83.48571
G1 X6.916 Y141.359 E83.52555
G1 X6.689 Y141.050 E83.56046
G1 X6.622 Y140.795 E83.58438
G1 X6.690 Y140.530 E83.60927
G1 X6.915 Y140.224 E83.64383
G1 X7.291 Y139.998 E83.68370
G1 X7.778 Y139.911 E83.72868
G1 X8.266 Y139.998 E83.77374
G1 X8.642 Y140.224 E83.81361
G1 X8.831 Y140.482 E83.84271
G1 X3.368 Y140.793 F7800.000
M101 ; extruder on
G1 X3.281 Y141.263 E83.88615 F1800.000
G1 X3.036 Y141.639 E83.92697
G1 X2.665 Y141.888 E83.96758
G1 X2.236 Y141.975 E84.00740
G1 X1.806 Y141.888 E84.04731
G1 X1.435 Y141.639 E84.08790
G1 X1.190 Y141.263 E84.12872
G1 X1.103 Y140.793 E84.17216
G1 X1.190 Y140.319 E84.21600
G1 X1.435 Y139.944 E84.25673
G1 X1.806 Y139.695 E84.29734
G1 X2.236 Y139.608 E84.33724
G1 X2.665 Y139.694 E84.37706
M101 ; extruder on
G1 X3.036 Y139.944 E84.41769 F1800.000
G1 X3.281 Y140.319 E84.45841
G1 X3.357 Y140.734 E84.49680
G1 E82.49680 F2400.00000
M103 ; extruder off
G1 X3.302 Y134.503 F7800.000
M101 ; extruder on
G1 E84.49680 F2400.00000
G1 X3.375 Y134.839 E84.52803 F1800.000
G1 X3.302 Y135.174 E84.55926
G1 X3.077 Y135.492 E84.59464
G1 X2.703 Y135.726 E84.63478
G1 X2.236 Y135.813 E84.67800
G1 X1.768 Y135.726 E84.72129
G1 X1.394 Y135.492 E84.76142
G1 X1.169 Y135.174 E84.79680
G1 X1.096 Y134.838 E84.82803
G1 X1.169 Y134.503 E84.85925
G1 X1.394 Y134.185 E84.89464
G1 X1.768 Y133.951 E84.93477
G1 X2.236 Y133.864 E84.97806
G1 X2.703 Y133.951 E85.02127
G1 X3.077 Y134.185 E85.06141
G1 X3.267 Y134.454 E85.09134
G1 E83.09134 F2400.00000
M103 ; extruder off
G1 X3.367 Y128.885 F7800.000
M101 ; extruder on
G1 E85.09134 F2400.00000
G1 X3.204 Y129.070 E85.11374 F1800.000
G1 X2.803 Y129.271 E85.15451
G1 X2.236 Y129.357 E85.20670
G1 X1.668 Y129.271 E85.25897
G1 X1.267 Y129.070 E85.29973
G1 X1.104 Y128.885 E85.32213
G1 X1.267 Y128.701 E85.34453
G1 X1.667 Y128.500 E85.38522
G1 X2.236 Y128.414 E85.43755
G1 X2.804 Y128.500 E85.48979
G1 X3.204 Y128.701 E85.53049
G1 X3.328 Y128.841 E85.54744
G1 X6.621 Y128.885 F7800.000
M101 ; extruder on
G1 X6.825 Y128.648 E85.57594 F1800.000
G1 X7.218 Y128.446 E85.61614
G1 X7.778 Y128.361 E85.66761
G1 X8.339 Y128.446 E85.71916
G1 X8.732 Y128.648 E85.75935
G1 X8.936 Y128.885 E85.78786
G1 X8.732 Y129.123 E85.81636
G1 X8.339 Y129.325 E85.85655
G1 X7.778 Y129.410 E85.90810
G1 X7.218 Y129.325 E85.95957
G1 X6.825 Y129.123 E85.99977
G1 X6.660 Y128.931 E86.02282
G1 E84.02282 F2400.00000
M103 ; extruder off
G1 X7.604 Y133.616 F7800.000
M101 ; extruder on
G1 E86.02282 F2400.00000
G1 X7.778 Y133.579 E86.03895 F1800.000
G1 X8.190 Y133.665 E86.07723
M101 ; extruder on
G1 X8.565 Y133.926 E86.11873 F1800.000
G1 X8.822 Y134.328 E86.16211
G1 X8.915 Y134.838 E86.20928
G1 X8.822 Y135.349 E86.25645
G1 X8.565 Y135.751 E86.29982
G1 X8.190 Y136.012 E86.34132
G1 X7.778 Y136.098 E86.37960
G1 X7.367 Y136.012 E86.41781
